/* XPM */
static char *out[] = {
/* columns rows colors chars-per-pixel */
"31 53 28 1 ",
"  c None",
". c #170F07",
"X c #2F1B0B",
"o c #430000",
"O c #4F0000",
"+ c #530707",
"@ c #5F0707",
"# c #670B0B",
"$ c #7F0000",
"% c #731313",
"& c #6F6F6F",
"* c #831F1E",
"= c #A40000",
"- c #8B2322",
"; c #9B3333",
": c #A53C3C",
"> c #D20000",
", c #E30000",
"< c #F90808",
"1 c #AF4747",
"2 c #B37347",
"3 c #C05B5B",
"4 c #D68A5A",
"5 c #E79A6A",
"6 c gray51",
"7 c gray61",
"8 c #B6B6B6",
"9 c #F7AAAA",
/* pixels */
"    %--:@                      ",
"  1515:-#+                     ",
" -::4--1:#+                    ",
"1;314:%%:%#+                   ",
"-O#95$$$$*#%@*                 ",
"O>%;:%##%6&%-9-*  <            ",
" :;$+%@+@788#:331&<            ",
" >$o.:O#+#=,$5112-$+           ",
"  XXo2O%###$,=55-1%-           ",
"   Xo%@%*%4;44441::--          ",
"   $.$$% --:----%%$;2-   &     ",
"  >.+$:  --*%*$$$$$45-#&$      ",
"   ###&#<%%$##%%*#*1:1#<&      ",
"        &%$*+OXXO$1-;:#OO      ",
"         $##+Ooooo#%--*##@     ",
"         #+@XXXoOX.%:-*%@@o    ",
"          #@o@#$:-Xo#$*#@-o<6  ",
"            $1--$%+OoO#$+*o    ",
"             %-%++@OXO**@OO    ",
"              $+o+oO@$##OXo    ",
"               ##OO+%$#oO+     ",
"             ::OoOO%2#+oXX%    ",
"       5-  -%$#oXO$-%+OOoO%%   ",
"    53::2*%*#+O..O11#XO.o@##   ",
"    1%#%-@@OooooO-$$Oooo#$$++  ",
"     :5oOXoo   %:-$1ooO@%%$Oo  ",
"     1ooOX    .$%%$ooO@O:*@oo  ",
"              oo$%OoO+Oo$#+o   ",
"              oo.XoO+@oOO@O    ",
"               .ooo#@oXXoo     ",
"                 -$#@OOOo      ",
"                ;-$%OOXO%      ",
"                -%%#OXX+       ",
"               ;-$#oOOO        ",
"               -%%+OoO@        ",
"              ;-*#oOoO         ",
"              2%%+O.oO         ",
"              -$%OOoo@         ",
"              $2;oo..O@        ",
"            #$<4%OoO@O.OO      ",
"               %$OO*%:oOOO     ",
"                %+OO$::OoOX    ",
"                 %OOO%*$XoXO   ",
"                  OoOO##ooOXO  ",
"                   +OXoOOooXo@@",
"                    OOXXO.ooo+@",
"                    @OOOOoo.ooo",
"                     ++oOOOOo  ",
"                     @#OoXO    ",
"               %+  $1$@oX@     ",
"              %@$%%-1$ooX+     ",
"              #%%%%#$@oXo+     ",
"              >+oXOXXOOOO      "
};
