/* XPM */
static char *out[] = {
/* columns rows colors chars-per-pixel */
"38 51 30 1 ",
"  c None",
". c #170F07",
"X c #2F1B0B",
"o c #430000",
"O c #4F0000",
"+ c #530707",
"@ c #5F0707",
"# c #670B0B",
"$ c #7F0000",
"% c #731313",
"& c gray33",
"* c #6F6F6F",
"= c #831F1E",
"- c #A40000",
"; c #8B2322",
": c #9B3333",
"> c #A53C3C",
", c #D20000",
"< c #E30000",
"1 c #F90808",
"2 c #AF4747",
"3 c #B37347",
"4 c #C05B5B",
"5 c #D68A5A",
"6 c #E79A6A",
"7 c gray51",
"8 c gray61",
"9 c #B6B6B6",
"0 c #F7AAAA",
"q c #FFC29F",
/* pixels */
"    %5::$                             ",
"  2>q02>5$                            ",
" 266:5;;;5$@                          ",
"254q:%%>>;;>+                         ",
"3O#0>$==$%>=%@                        ",
"X<#:%%%%#89#=%$%++ 9                  ",
" 6:=@@+@@71,%5:;>#@<                  ",
" ,$o.%O%@%*1@q>:;%#$                  ",
"  XX.3O%%>;>>6>:;;>=%                 ",
"   X.%@>=3;>;;332>2=#@                ",
"   $o$$% 3$$>%>>>%>;%@                ",
"  ,o+=%  2$#$;3;>;2;##o               ",
"   %%%*-1>>$@##$2:>*,7o               ",
"         %$$OO2222;1#XOO              ",
"          %@Oo=326%#@OOO+             ",
"          OOOo.$;66%+O++O             ",
"           ++OXX#:>%@%%#O@-7          ",
"             oO%563=+-7=+o*           ",
"             %3;;%#+%%@%#O            ",
"            %;;$++%+@%$2;#            ",
"           %;%$##+OX+#>;2%$           ",
"          %;$%%+oXOo+=%;3;=#          ",
"      %=$>2$%+OO %Oo#=2;;>=#          ",
"     %>$$#@OOo  X#+@#=35;=O@@         ",
"    o.=$%+oO   @O.#@%$;;;=OOX         ",
"    oo.@@OO   OO.o%@@%%%%%XOo         ",
"     o..Oo  #OX..o$+O+%##@.o.         ",
"           %@X..o%=@oOo++O..O         ",
"           @.o@. >$@XXOoXoo.          ",
"            O@o 2$#OOOoX.o.           ",
"                %$+OoOo.oo            ",
"               ;$%ooooXo.X            ",
"               %$@OoXo.oOo            ",
"              3$#OooOO.oO+            ",
"              $%@O..oo..o@            ",
"              #+O.OXO.o.O+            ",
"             >2+oXOXXoo.O@            ",
"          &7-<3$+O@oO.ooO@            ",
"              =#@o#O#..o.X$>>%        ",
"              O@X@%>>%O.oOo%=;;=      ",
"               OOOo=;;%XOoXOO%$2$     ",
"                @OOO#>%% ooXOo%#+@    ",
"                 +OOO@O%   OOXOOOO+   ",
"                  @oXXo@     oOOO@#O  ",
"                   @oOO@       OO%$OO ",
"                    @oOO        Oo+o#+",
"                    @Ooo@  o@=#OXOX@#+",
"                O+  =OoOO  #%%#XoO@## ",
"               O@$#>@+oXO% ,@ooOOO    ",
"               #%%#%@OXXXo            ",
"               ,+oOOOooOoO            "
};
