/* XPM */
static char *out[] = {
/* columns rows colors chars-per-pixel */
"36 49 27 1 ",
"  c None",
". c #170F07",
"X c #2F1B0B",
"o c #430000",
"O c #4F0000",
"+ c #530707",
"@ c #5F0707",
"# c #670B0B",
"$ c #7F0000",
"% c #731313",
"& c #6F6F6F",
"* c #831F1E",
"= c #A40000",
"- c #B90000",
"; c #8B2322",
": c #9B3333",
"> c #A53C3C",
", c #D20000",
"< c #F90808",
"1 c #AF4747",
"2 c #B37347",
"3 c #C05B5B",
"4 c #D68A5A",
"5 c #E79A6A",
"6 c gray51",
"7 c #F7AAAA",
"8 c #FFC29F",
/* pixels */
"    %:421                           ",
"  1>8>>4;1                          ",
" ;>54;2;;;%                         ",
"1431:%>>>>>>                        ",
"2O%35$$$*$$*$$   =                  ",
"O,#:%#####O$;;2;>%                  ",
" >4$@@++@#,-:8>4;%#                 ",
" ,$oo>X%@%6<=711;%$#                ",
"  XX.;o%#:=6$85;%1$#+               ",
"   Xo%+%*:*#%541$;;@Oo              ",
"   $o$*% ;$#%;2>%12*O=-             ",
"  ,o+$>  11*;:%%#1;2$-6@            ",
"   ##% -<%*@oo%*;524<$++            ",
"        &*@OXo$*:8:2%$@+@           ",
"          OOo+*185:%;%%+@           ",
"           @%OO%;:;$52%<-=          ",
"            OOO%1;*%5%o%$$          ",
"             OOX#*%#%@%2%*          ",
"              o:;+o@%@%;*%#         ",
"              ;;$oo#O#>#@@@         ",
"             ;>$OO+.o>%@%$*$        ",
"             >%OoooO%##$>;>>%       ",
"            %#Oo@oOo#%$%1;1$$#      ",
"           O###@o.X#;;$$%%$*%$      ",
"          O%#;@o..o>;;$#%@+##*      ",
"         11$$@.ooo :1%#@OOOO@$      ",
"        .o1;$.ooo %;%$+oXXOo@       ",
"        oo.$O.oo  >;*#OXOoOO        ",
"        o..oooo  %41#@OOooX         ",
"         o.O     >2%+oOO.OO         ",
"                 4;$ooOooX          ",
"                %2%%OOO.OO          ",
"                >;*@oOooO           ",
"                :>#OXXooo           ",
"               %2*@oOooO            ",
"               >1#OOOooO            ",
"               :%+oXooOO            ",
"               2$+OO.OOo%%%*        ",
"               <oO@@OoO@%###%+      ",
"              =   +O@@OOXXo+#+O     ",
"                   +OOO+oOOOOooO    ",
"                    %OXoo@oOXOXoo   ",
"                     @Oo.oO+OOOOXO  ",
"                      @Oo.oOOOXXOXO ",
"                       O....$ *OOXXo",
"                   O@   o.ooo %OOOOo",
"                  O@*%*$XooO;@XOoO  ",
"                  #>>%#O.oo%#XOO    ",
"                  ,@OXOOOO$XOO      "
};
