/* XPM */
static char *out[] = {
/* columns rows colors chars-per-pixel */
"39 48 29 1 ",
"  c None",
". c #170F07",
"X c #2F1B0B",
"o c #430000",
"O c #4F0000",
"+ c #530707",
"@ c #5F0707",
"# c #670B0B",
"$ c #7F0000",
"% c #731313",
"& c #831F1E",
"* c #A40000",
"= c #B90000",
"- c #8B2322",
"; c #9B3333",
": c #A53C3C",
"> c #D20000",
", c #E30000",
"< c #F90808",
"1 c #AF4747",
"2 c #B37347",
"3 c #C05B5B",
"4 c #D68A5A",
"5 c #E79A6A",
"6 c gray51",
"7 c gray61",
"8 c #B6B6B6",
"9 c #FFC29F",
"0 c #D7D6D6",
/* pixels */
"    :;;;&                              ",
"  15131:4&                             ",
" -:544---;&                            ",
"1;31;%%::1-$                           ",
"2O#3:&&$$::-$  ,                       ",
"X,%4%%%##871:;42%                      ",
" :;&@#@++808713:5%$                    ",
" >$.o%+#@%0<>#19:-%$                   ",
"  XXo-#%@#-,,*-:-1:#+                  ",
"   X.%$%@#--@+---:&%@@ 70              ",
"   $.$$% ::%#+#&$###-:*<0              ",
"  >.@$:  &&##+#%%$$%:1<*               ",
"   ##% #<-%#+oXo.o@$;5%$%+             ",
"         -:$%O.o.X+&--%-&OO6,8         ",
"          &%@OXOo@O@:%2;#X%O>          ",
"            %#&$&:-O@&--@O:X           ",
"             %$%%%$OOo$$@@-o           ",
"              #$%O@@OO-&+$O            ",
"    :-    --&%o.o+#oo:&&+OX            ",
" 53:%-&:--%$%+OX.@oo%:$+oOO            ",
" -#%:-+oOOOOXOXooXO%:$@OOO#@           ",
"  ::OOXooo.o.ooo.&-&&-OXo%$#           ",
"  1OoOO         O@$-&OoO#$%##          ",
"                oX+%@.O&1&#@%          ",
"                o.o@X&%:%#@@%          ",
"                 .oO%%%&#+o+o          ",
"                 &1%--%&@OOO           ",
"                %-:$--:%oOO            ",
"               :-%$+;-%#OOO            ",
"              #-$$+X;1$@OoX            ",
"              :$%@Oo41&OOoX            ",
"             %&%+O.o--$oXOX            ",
"             $#@OoOO1%#OXoO            ",
"            ##@OXoX.:$+oOOO            ",
"            $@O#ooo  #OO+XO            ",
"            %##ooo   $%o#OO            ",
"            >#%O@-$   $&OOXo           ",
"           <$%+O#1:1  <&oO@$;4#        ",
"          $   @OO#1-%<=OOoO@+&--&      ",
"               OOO#:o&  OoOOo@+$$O     ",
"                OOX%#@    oOOOXO@+o    ",
"                 OOXooo     OOOOOOXX   ",
"                  OOXXO       OOOOooO  ",
"                   o..O         oOO%OO ",
"              o+   O.oo-    O@   OX@OOX",
"             o+&%&&o...O   O@$OO%@O.OOO",
"             #:%##@oOoOO   %%%#@+OooOO ",
"             >@.O..o.ooO   >+oOOXXOO   "
};
