/* XPM */
static char *out[] = {
/* columns rows colors chars-per-pixel */
"40 57 36 1 ",
"  c None",
". c #170F07",
"X c #2F1B0B",
"o c #31302D",
"O c #430000",
"+ c #4F0000",
"@ c #530707",
"# c #5F0707",
"$ c #670B0B",
"% c #730000",
"& c #7F0000",
"* c #731313",
"= c #6F6F6F",
"- c #831F1E",
"; c #A40000",
": c #B90000",
"> c #8B2322",
", c #9B3333",
"< c #A53C3C",
"1 c #D20000",
"2 c #E30000",
"3 c #F90808",
"4 c #AF4747",
"5 c #B37347",
"6 c #C05B5B",
"7 c #D57575",
"8 c #D68A5A",
"9 c #E79A6A",
"0 c #FEA96A",
"q c gray51",
"w c gray61",
"e c #B6B6B6",
"r c #F7AAAA",
"t c #FFC29F",
"y c #D7D6D6",
"u c gray99",
/* pixels */
"                 *><<>*                 ",
"                *>8888><                ",
"               <,,>5558,*               ",
"               <t9>&-><6,               ",
"              4r764>>467r>              ",
"              >*+>9r6<>+$5              ",
"              >&%3.++O3%&>              ",
"               >&O+--OO-5               ",
"               *8*&,,-*8<           w   ",
"              ,*tO&u1&Ot<,>       ey=   ",
"  qe        <,5<<XX..XX9<5,,*   O;&=    ",
"   qeq=  ><495&#,+XXXX+,#->94<,;32=     ",
"     1235948>$+X>@XXXX@5++*>84<,>O      ",
"      =2*>94,<*+>$&u1&$4+$*84<85><      ",
"       &-<,<,5&#&@0r07@&*>59<85>*&      ",
"       $#$>>4>4+@<$##**#&>,8,5*--$O     ",
"      X+++-&&;:*X#$&&$#O*>23>&$+*@+3;w  ",
"  q;;3++..O*$$+@+++OO.+*<>*+&#++++@++   ",
"   @@$@+..O+##+#@OXX.++#*&$+@++OO+++.   ",
"   @*$++OOO.XOX@$#XO..O@#$OX+OO.X++++O  ",
"   #@++.OOO+O+X++OOOOOO++XXX++OOO@*@OO  ",
"  @++...O+O++XO#*#+.+.+#*@++.XOO+*-*+O  ",
"  @X.OOXO  O+O#++O$#O#*+++#O.O  .@$@X.  ",
"3#$&+OO+    +++OX##+OX@@+O++X    o++..+ ",
" #&&@+.O     O.OO..XX+OOOOOO      .OOO+ ",
" *<-#+.      +.O+@&@O$-#XOOX      .OO#*#",
" &4$#+O      OXO.+O+.X++OO+O      .O+*&&",
" *5#OX       #O+OOX+++XO++O@      O++$<-",
" *>#+O      +@++@$-$#&<&#++#+     O+O-*=",
" *<@X       +#O++$&#+@&#OX+#+     XO@&< ",
" <*#O       +$@++#@+O+#O++O@O     +@$&$ ",
" &&#.       +-*#O++@##++++#$#+   ->>&<  ",
" &*-O      +#&&$#O++O+X+O#$$#+  #O-&-<  ",
" #***+     X@&*&$+.X+XX+O#&&*O+ X++$&   ",
" #-&OX     O@-><-#OOOO+O@$*&$+X OOX$@   ",
" *#+..     .O->>*#O..O+O*-*&#OX  O.O    ",
"  OOO      .O&>><OOX  .+$&*$#++         ",
"           O#**>&+.O  .X#&&*O+X         ",
"           X-#$&$X+@  O.O-$#O.+         ",
"           X&$#$OOO#  +.+##++O          ",
"           +#-$+++@#  O+O+OXO.          ",
"            O#+O.+@@  +XOO+X.+          ",
"            OOXOO.++   +OO++O           ",
"             .O+#OO+   .O#3OO           ",
"             XO$$$OO   OOX;XO           ",
"              +$3$.O   ..Oq.O           ",
"              +X3@++#  +O..O+           ",
"              +XO.X+*  OO.OOX           ",
"              OO.O+#$  O.+X.            ",
"               .O.X##  .++O+            ",
"               .++O+   +OO+O            ",
"                +*&#   ++#O#O           ",
"                @-<*   O+O O+           ",
"               #&<**+  O;+ ;+           ",
"              &&<&*$#                   ",
"             &**+ *<<#                  ",
"             &:++ O:+@                  "
};
