/* XPM */
static char *out[] = {
/* columns rows colors chars-per-pixel */
"37 57 35 1 ",
"  c None",
". c #170F07",
"X c #2F1B0B",
"o c #430000",
"O c #4F0000",
"+ c #530707",
"@ c #5F0707",
"# c #670B0B",
"$ c #730000",
"% c #7F0000",
"& c #731313",
"* c gray33",
"= c #6F6F6F",
"- c #8B0000",
"; c #831F1E",
": c #A40000",
"> c #B90000",
", c #8B2322",
"< c #9B3333",
"1 c #A53C3C",
"2 c #D20000",
"3 c #E30000",
"4 c #F90808",
"5 c #AF4747",
"6 c #B37347",
"7 c #C05B5B",
"8 c #D57575",
"9 c #D68A5A",
"0 c #E79A6A",
"q c gray51",
"w c gray61",
"e c #B6B6B6",
"r c #F7AAAA",
"t c #FFC29F",
"y c gray99",
/* pixels */
"               &5115&                ",
"              &,<<9<6&               ",
"             &9,,666,<&              ",
"             1t0,;;5179              ",
"            57tt56,t7t7,             ",
"            ,#o717717O#,             ",
"            ,%-4&@@&4$%6             ",
"             6;oo;;Oo%6          w   ",
"             &6#;<9;&,1    3   =q    ",
"  e=    3  11O,.;y2%o,+,5&;;1@q>=    ",
"   q%=  69,&#X,.XXXX.,OO&%,<<,4:     ",
"     %45<t1%o.%+XXXX@%ooO+&,51,@     ",
"      :&611@Oo#.;y2%.&.X@;911<,%     ",
"      &&5,<;OXo#8rr8#Oo+,,96;;;&O    ",
"     Xo#;11&1OXOoOOoOoo;,5,&@#+OO+   ",
"eey2:OOXX@;q>&OoO&#OoX%&q>&&XoXoO&4:q",
"  ***@oooX@OO@@X.o.oO&%%;O&O.ooXO@@  ",
"  O#%#oOo.OOO@@OOOoOO@#+o.ooo.ooXo@  ",
"  o&&;OXo..OO++OX.o.oOOo.OOoo.XooOo# ",
"  O+%#X.oX.oo.oOooo.oo.oO@O. XOXoo.+ ",
"  o@oX.. XooO+@Ooooo.o+@OOX.  oOO..O ",
" @%;@Oo.  oO@oX.oO.OOO.o+..    oOOoO&",
" ,11,;Oo   OO.o++OoO++X.XO.    ..ooOO",
"&,6,,,&O.   ..o.oXOOOOoooo     oo.X@o",
"O&%;;;o.o.  ..O+;+oO%+Xo..     ..oX@O",
" Oo@&&oOo.  Oo.OOOoXoO.ooO     .ooO@O",
"    o@ooOoX O...ooXXOX..OO     oo.+Oo",
"      oXo   oOOoOOXO@OXXoO      oOOX ",
"            XOO#%+oO;+oO@oo     o.XX ",
"           @oO@@@O.O@OOO@OO     .ooO ",
"           @#;%#+OXXOXO@oXOo   Oo.X  ",
"           &&,51&oooooOoXoOO  OOXOO  ",
"          O;5<<,&&Xo.oXOooOo  OOOOO  ",
"          O%,15,&+oo.oOO.oOO+ +OXX   ",
"          O;61t6;Oo ooX...XO#        ",
"          o%,<9,@#O .oOoo..o#        ",
"          O#5,,%&%O .ooo.o.O@        ",
"          o@;;;#1#O o..o.o.O         ",
"          Oo+@O;#@o  oo.oooO         ",
"           OXOX@+oO  ..ooooX         ",
"           oO..OOo   ooooo.          ",
"           OO#+XXO   oo.oo.          ",
"            #>%#XO   ooo.oO          ",
"            *>*+O.   .oo*oO#         ",
"             oOOoX   o.oo.O@         ",
"             Oo..Xo  +oo..OO         ",
"             OoooOX@  ...oO          ",
"             Ooooo.@  ooooX          ",
"              ooooO@   oooO          ",
"              o..X@@  O..OOO         ",
"               OOX#   OOoOOO         ",
"               OoO&  o+o ++O         ",
"               @#@+  O%O o%O         ",
"              @%1#+O                 ",
"              %&%##+                 ",
"             1&O #&&+                ",
"             >XX O>O+                "
};
