/* XPM */
static char *out[] = {
/* columns rows colors chars-per-pixel */
"39 56 35 1 ",
"  c None",
". c #170F07",
"X c #2F1B0B",
"o c #430000",
"O c #4F0000",
"+ c #530707",
"@ c #5F0707",
"# c #670B0B",
"$ c #730000",
"% c #7F0000",
"& c #731313",
"* c #6F6F6F",
"= c #8B0000",
"- c #831F1E",
"; c #A40000",
": c #B90000",
"> c #8B2322",
", c #9B3333",
"< c #A53C3C",
"1 c #D20000",
"2 c #E30000",
"3 c #F90808",
"4 c #AF4747",
"5 c #B37347",
"6 c #C05B5B",
"7 c #D57575",
"8 c #D68A5A",
"9 c #E79A6A",
"0 c #FEA96A",
"q c gray51",
"w c gray61",
"e c #B6B6B6",
"r c #F7AAAA",
"t c #FFC29F",
"y c gray99",
/* pixels */
"                &><<><                 ",
"               &5,8,,>&                ",
"              &8>55>>>8&               ",
"              &t<4--496,               ",
"             4676t>>46tr>              ",
"             5#O><r695O#5              ",
"             >%=3.Oo.3$%5              ",
"              >%oo-%oo%>%              ",
"  eq       >8,&>#-,,%#><#        *q    ",
"   q2*  >>88>&&>.-y1%o>O#&4&    21     ",
"    #3q>,4<5&OX>.X.XX.>Oo#<<<>&3%      ",
"     #%,t65#Xo.&oXXXX.<oOX%56<>-%@     ",
"     %%>5t9,#Oo#o-y1%o#oO+><t<>%#@     ",
"     @@%>>544&oO#0r00#Oo@->>,4&##+     ",
"     XOXO%>>&%oOOoXOOO.@->>>-+Oo@oX    ",
"eeq-@@o.XO+q:#&OXO##oXX&#;3%&OOOoXX33wq",
"  33@Oo.oooOXo+oOoo..oO@+@X&+OoOoOOX   ",
"  -+oOo.o.ooXo@+#+.o.@#&+oO+oO.O&++O-  ",
"  +OOo..oXOO..Oo@OoO.O@@@oOoX.oo@-#@O  ",
"  @Oooo.oXO...ooO.XOXoO.ooooX.ooO@#&O2 ",
" OOo..ooOoOoOo@#@OOOOO@#@Oooo.OoOOO#+& ",
" Xoo.ooX  .XO+OXo+O.+&OXO&O..  XoOX+#@ ",
" Xo..oO    OXXOOOOo.O@oOOO@O    OX@&%# ",
" O@OO@o     X.o.o.OOOo.o.X+     #<<&&@ ",
" O&%#@o     X.oX@%@o#%O.oOo     %,>-#@ ",
" X+#+O      @OooOoXoOoo.oOO    #<,5%#@ ",
" O+oOO      +&@XXOXXXOo.oX@ o%%+,5<#@  ",
" XOXo       O@#&&%&%&<#O.O+O@@%@%<%+   ",
" oOO.      OOO@@#-+O#%+XOo+OoOO&@o+    ",
" oo.o      XOOoO@+O#&+OO+##o.oo%@      ",
" ooo..     XOoOoOOOOoOo@&-&@..XO       ",
" oo.oo    OOOooXoXOOOO@&&>>%@@         ",
" oo.oo    OXOOOOo...O@&%><>%&+         ",
"  o.o     XOOOoXoo.oX+#-><,&&+         ",
"          OXoOoO.oooO+#%>6,>#O         ",
"          XoOOOXooo X@@%>r84@O         ",
"          O.OOoO.o. Oo+-&>><+O         ",
"          OoXOOO.o.  Xo+%%<-O          ",
"          Xo.OOoo.o  .Oo@&@@X          ",
"           o.o.o.o   oooOXXoO          ",
"           .o.oo..   .@O...OO          ",
"           o.o..oo   ooX@&@oo          ",
"            O@OOX.#  oOO-3>.           ",
"            X+@OOoo&  OX&O&O           ",
"            .XO1OoX@  %XOooX>          ",
"             oOOXooo  #Oo@+O%          ",
"             ..#o..X  @Xo#+O+          ",
"              ooo..   oOO&@OO          ",
"              ooo.o   OOO-@O           ",
"              .OOoo   .Oo-+X           ",
"              OOoXo    oo-@            ",
"             o+O@OO    X@&+            ",
"             oo OOO    @#<-+           ",
"             ;X O2o   @&#-&%           ",
"                     +<&# o<&-         ",
"                     @O:o OO:%         "
};
