/* XPM */
static char *out[] = {
/* columns rows colors chars-per-pixel */
"39 60 34 1 ",
"  c None",
". c #170F07",
"X c #2F1B0B",
"o c #430000",
"O c #4F0000",
"+ c #530707",
"@ c #5F0707",
"# c #670B0B",
"$ c #730000",
"% c #7F0000",
"& c #731313",
"* c gray33",
"= c #6F6F6F",
"- c #831F1E",
"; c #A40000",
": c #B90000",
"> c #8B2322",
", c #9B3333",
"< c #A53C3C",
"1 c #D20000",
"2 c #F90808",
"3 c #AF4747",
"4 c #B37347",
"5 c #C05B5B",
"6 c #D57575",
"7 c #D68A5A",
"8 c #E79A6A",
"9 c #FEA96A",
"0 c gray51",
"q c #B6B6B6",
"w c #F7AAAA",
"e c #FFC29F",
"r c #D7D6D6",
"t c gray99",
/* pixels */
"                 &><8><                ",
"                <>,,7,><               ",
"               <7>44>>>,&              ",
"               &5<3%%><5,              ",
"              3w653>4e56w>             ",
"              >#o485584o#>             ",
"              >-$2oXoo2$->             ",
"               >%oO-%Oo%>              ",
"               &4#-7,%#>&           r  ",
"               O4o-t1%O>O&        0q   ",
"  00         &#O>oXXXXo3O&&-    =0:    ",
"    rq*  >7>>&O.<oXXXX.<oO->,&#@;2     ",
"     =21%,e,+Oo.%@XXXX@-ooO#><3%+@     ",
"      =->474>oOo#.-t1%o#.O@><7>&-&     ",
"       #%<<-%-@.O&69w6#o.@37>-%3<-     ",
"       o&#@+#%#Oo@oooO+X+>>3<<O#%&+    ",
"      X..oo@0:*OXO&--#XO&-02-%oO@@O2#q ",
"  0q;2oXoooooOO@oOo..oXO##@O&@X...ooO  ",
"   @@@@o.o..OXo@@OOX.XO@+@oO@o.oo.OO   ",
"   @#&OOoo...OO@&@O.X.o+##OXOoooO@&@O  ",
"   @+OO.o.OOo..o.XoOOX.XooooOoooX&-&o  ",
"  @OO.oooOooOXo@&+XXoXX@#+Oo.Oo..O#+O  ",
"  @Oo.oXo  .OO@OOO#@.@#oOO@ooo X.OoO.O ",
"q+%-OooO    XoO.X@@O.O@@O.OOO   Xo..O@q",
"@->,<@O      o.ooo.OOX.ooooO     OooO#@",
"&+%><&+      O.oO@-@o&%@OooO     O@O@#O",
"-+@#&#&      OXooOoOoXOO.oOO     O%@#+O",
" #O@#<&@    O+OOo.OOoXOooXO@     O#%&@o",
"  #o@4>-#   o@oo+#%&%%&-+oO+      #%&o ",
"   @O>&O%   ++OXO#%@O@%@oo@@      @%#X ",
"   +O@%<-   +&+oO@@O@O+OOO&++    OO@@O ",
"    @oOo+   +-#+OOoOoXOOO#%#@    XOOO  ",
"     o.@   @@<&&@OOo..oO@-<#@    OOOO  ",
"           +@34&#oOoo.OO#>&%#o   XXOO  ",
"           O+>,>-+Ooo.O#<3<-#O         ",
"           O@<>>%#o  O@-&>&-#o         ",
"           oo#<<%#O  O##<>&-&O         ",
"           oO@&&&@O  o%#&<%&+o         ",
"           oOO@++OX  O&&+%##+O         ",
"           +OXO+OOo  o@#-O@+o          ",
"           +oOOOOOO  OO@+OOOo          ",
"            @OXOXO+   ooXooXO          ",
"            +oOOX@o%  OOX@Ooo          ",
"            oOOooOo#  oX#&&oO          ",
"             oo.o.O#  o.+2&O           ",
"             *Oo&ooO# o.O0OX           ",
"              O@:+o.o OoXXXO&          ",
"              oO0oooo &@XOoO&          ",
"              @oooo.o #OOOoO@          ",
"               +oooo@ ooOXoXO          ",
"                O..o@  OOOOX           ",
"                Xooo@  XXOoX           ",
"                .oOo+  OOOO            ",
"                OOOO+  oXXX            ",
"               O+o@oO  OOOX            ",
"               Oo OOo  o###            ",
"               #X X=O O@&&%@           ",
"                      +&&-&%%          ",
"                     +&&# O&&-         ",
"                     @O:o OO2%         "
};
