/* XPM */
static char *out[] = {
/* columns rows colors chars-per-pixel */
"463 484 3 1 ",
"  c None",
". c black",
"X c #211F1D",
/* pixels */
"...............................................................................................................................................................................................................................................................................................................................................................................................................................................................................",
".                    .                    .                    .                    .                    .                    .                    .                    .                    .                    .                    .                    .                    .XXXXXXXXXXXXXXXXXXXX.XXXXXXXXXXXXXXXXXXXX.XXXXXXXXXXXXXXXXXXXX.XXXXXXXXXXXXXXXXXXXX.XXXXXXXXXXXXXXXXXXXX.XXXXXXXXXXXXXXXXXXXX.XXXXXXXXXXXXXXXXXXXX.XXXXXXXXXXXXXXXXXXXX.                    .",
".                    .                    .                    .                    .                    .                    .                    .                    .                    .                    .                    .                    .                    .XXXXXXXXXXXXXXXXXXXX.XXXXXXXXXXXXXXXXXXXX.XXXXXXXXXXXXXXXXXXXX.XXXXXXXXXXXXXXXXXXXX.XXXXXXXXXXXXXXXXXXXX.XXXXXXXXXXXXXXXXXXXX.XXXXXXXXXXXXXXXXXXXX.XXXXXXXXXXXXXXXXXXXX.                    .",
".                    .                    .                    .                    .                    .                    .                    .                    .                    .                    .                    .                    .                    .XXXXXXXXXXXXXXXXXXXX.XXXXXXXXXXXXXXXXXXXX.XXXXXXXXXXXXXXXXXXXX.XXXXXXXXXXXXXXXXXXXX.XXXXXXXXXXXXXXXXXXXX.XXXXXXXXXXXXXXXXXXXX.XXXXXXXXXXXXXXXXXXXX.XXXXXXXXXXXXXXXXXXXX.                    .",
".                    .                    .                    .                    .                    .                    .                    .                    .                    .                    .                    .                    .                    .XXXXXXXXXXXXXXXXXXXX.XXXXXXXXXXXXXXXXXXXX.XXXXXXXXXXXXXXXXXXXX.XXXXXXXXXXXXXXXXXXXX.XXXXXXXXXXXXXXXXXXXX.XXXXXXXXXXXXXXXXXXXX.XXXXXXXXXXXXXXXXXXXX.XXXXXXXXXXXXXXXXXXXX.                    .",
".                    .                    .                    .                    .                    .                    .                    .                    .                    .                    .                    .                    .                    .XXXXXXXXXXXXXXXXXXXX.XXXXXXXXXXXXXXXXXXXX.XXXXXXXXXXXXXXXXXXXX.XXXXXXXXXXXXXXXXXXXX.XXXXXXXXXXXXXXXXXXXX.XXXXXXXXXXXXXXXXXXXX.XXXXXXXXXXXXXXXXXXXX.XXXXXXXXXXXXXXXXXXXX.                    .",
".                    .                    .                    .                    .                    .                    .                    .                    .                    .                    .                    .                    .                    .XXXXXXXXXXXXXXXXXXXX.XXXXXXXXXXXXXXXXXXXX.XXXXXXXXXXXXXXXXXXXX.XXXXXXXXXXXXXXXXXXXX.XXXXXXXXXXXXXXXXXXXX.XXXXXXXXXXXXXXXXXXXX.XXXXXXXXXXXXXXXXXXXX.XXXXXXXXXXXXXXXXXXXX.                    .",
".                    .                    .                    .                    .                    .                    .                    .                    .                    .                    .                    .                    .                    .XXXXXXXXXXXXXXXXXXXX.XXXXXXXXXXXXXXXXXXXX.XXXXXXXXXXXXXXXXXXXX.XXXXXXXXXXXXXXXXXXXX.XXXXXXXXXXXXXXXXXXXX.XXXXXXXXXXXXXXXXXXXX.XXXXXXXXXXXXXXXXXXXX.XXXXXXXXXXXXXXXXXXXX.                    .",
".                    .                    .                    .                    .                    .                    .                    .                    .                    .                    .                    .                    .                    .XXXXXXXXXXXXXXXXXXXX.XXXXXXXXXXXXXXXXXXXX.XXXXXXXXXXXXXXXXXXXX.XXXXXXXXXXXXXXXXXXXX.XXXXXXXXXXXXXXXXXXXX.XXXXXXXXXXXXXXXXXXXX.XXXXXXXXXXXXXXXXXXXX.XXXXXXXXXXXXXXXXXXXX.                    .",
".                    .                    .                    .                    .                    .                    .                    .                    .                    .                    .                    .                    .                    .XXXXXXXXXXXXXXXXXXXX.XXXXXXXXXXXXXXXXXXXX.XXXXXXXXXXXXXXXXXXXX.XXXXXXXXXXXXXXXXXXXX.XXXXXXXXXXXXXXXXXXXX.XXXXXXXXXXXXXXXXXXXX.XXXXXXXXXXXXXXXXXXXX.XXXXXXXXXXXXXXXXXXXX.                    .",
".                    .                    .                    .                    .                    .                    .                    .                    .                    .                    .                    .                    .                    .XXXXXXXXXXXXXXXXXXXX.XXXXXXXXXXXXXXXXXXXX.XXXXXXXXXXXXXXXXXXXX.XXXXXXXXXXXXXXXXXXXX.XXXXXXXXXXXXXXXXXXXX.XXXXXXXXXXXXXXXXXXXX.XXXXXXXXXXXXXXXXXXXX.XXXXXXXXXXXXXXXXXXXX.                    .",
".                    .                    .                    .                    .                    .                    .                    .                    .                    .                    .                    .                    .                    .XXXXXXXXXXXXXXXXXXXX.XXXXXXXXXXXXXXXXXXXX.XXXXXXXXXXXXXXXXXXXX.XXXXXXXXXXXXXXXXXXXX.XXXXXXXXXXXXXXXXXXXX.XXXXXXXXXXXXXXXXXXXX.XXXXXXXXXXXXXXXXXXXX.XXXXXXXXXXXXXXXXXXXX.                    .",
".                    .                    .                    .                    .                    .                    .                    .                    .                    .                    .                    .                    .                    .XXXXXXXXXXXXXXXXXXXX.XXXXXXXXXXXXXXXXXXXX.XXXXXXXXXXXXXXXXXXXX.XXXXXXXXXXXXXXXXXXXX.XXXXXXXXXXXXXXXXXXXX.XXXXXXXXXXXXXXXXXXXX.XXXXXXXXXXXXXXXXXXXX.XXXXXXXXXXXXXXXXXXXX.                    .",
".                    .                    .                    .                    .                    .                    .                    .                    .                    .                    .                    .                    .                    .XXXXXXXXXXXXXXXXXXXX.XXXXXXXXXXXXXXXXXXXX.XXXXXXXXXXXXXXXXXXXX.XXXXXXXXXXXXXXXXXXXX.XXXXXXXXXXXXXXXXXXXX.XXXXXXXXXXXXXXXXXXXX.XXXXXXXXXXXXXXXXXXXX.XXXXXXXXXXXXXXXXXXXX.                    .",
".                    .                    .                    .                    .                    .                    .                    .                    .                    .                    .                    .                    .                    .XXXXXXXXXXXXXXXXXXXX.XXXXXXXXXXXXXXXXXXXX.XXXXXXXXXXXXXXXXXXXX.XXXXXXXXXXXXXXXXXXXX.XXXXXXXXXXXXXXXXXXXX.XXXXXXXXXXXXXXXXXXXX.XXXXXXXXXXXXXXXXXXXX.XXXXXXXXXXXXXXXXXXXX.                    .",
".                    .                    .                    .                    .                    .                    .                    .                    .                    .                    .                    .                    .                    .XXXXXXXXXXXXXXXXXXXX.XXXXXXXXXXXXXXXXXXXX.XXXXXXXXXXXXXXXXXXXX.XXXXXXXXXXXXXXXXXXXX.XXXXXXXXXXXXXXXXXXXX.XXXXXXXXXXXXXXXXXXXX.XXXXXXXXXXXXXXXXXXXX.XXXXXXXXXXXXXXXXXXXX.                    .",
".                    .                    .                    .                    .                    .                    .                    .                    .                    .                    .                    .                    .                    .XXXXXXXXXXXXXXXXXXXX.XXXXXXXXXXXXXXXXXXXX.XXXXXXXXXXXXXXXXXXXX.XXXXXXXXXXXXXXXXXXXX.XXXXXXXXXXXXXXXXXXXX.XXXXXXXXXXXXXXXXXXXX.XXXXXXXXXXXXXXXXXXXX.XXXXXXXXXXXXXXXXXXXX.                    .",
".                    .                    .                    .                    .                    .                    .                    .                    .                    .                    .                    .                    .                    .XXXXXXXXXXXXXXXXXXXX.XXXXXXXXXXXXXXXXXXXX.XXXXXXXXXXXXXXXXXXXX.XXXXXXXXXXXXXXXXXXXX.XXXXXXXXXXXXXXXXXXXX.XXXXXXXXXXXXXXXXXXXX.XXXXXXXXXXXXXXXXXXXX.XXXXXXXXXXXXXXXXXXXX.                    .",
".                    .                    .                    .                    .                    .                    .                    .                    .                    .                    .                    .                    .                    .XXXXXXXXXXXXXXXXXXXX.XXXXXXXXXXXXXXXXXXXX.XXXXXXXXXXXXXXXXXXXX.XXXXXXXXXXXXXXXXXXXX.XXXXXXXXXXXXXXXXXXXX.XXXXXXXXXXXXXXXXXXXX.XXXXXXXXXXXXXXXXXXXX.XXXXXXXXXXXXXXXXXXXX.                    .",
".                    .                    .                    .                    .                    .                    .                    .                    .                    .                    .                    .                    .                    .XXXXXXXXXXXXXXXXXXXX.XXXXXXXXXXXXXXXXXXXX.XXXXXXXXXXXXXXXXXXXX.XXXXXXXXXXXXXXXXXXXX.XXXXXXXXXXXXXXXXXXXX.XXXXXXXXXXXXXXXXXXXX.XXXXXXXXXXXXXXXXXXXX.XXXXXXXXXXXXXXXXXXXX.                    .",
".                    .                    .                    .                    .                    .                    .                    .                    .                    .                    .                    .                    .                    .XXXXXXXXXXXXXXXXXXXX.XXXXXXXXXXXXXXXXXXXX.XXXXXXXXXXXXXXXXXXXX.XXXXXXXXXXXXXXXXXXXX.XXXXXXXXXXXXXXXXXXXX.XXXXXXXXXXXXXXXXXXXX.XXXXXXXXXXXXXXXXXXXX.XXXXXXXXXXXXXXXXXXXX.                    .",
"...............................................................................................................................................................................................................................................................................................................................................................................................................................................................................",
".                    .                    .                    .                    .                    .                    .                    .                    .                    .                    .                    .                    .XXXXXXXXXXXXXXXXXXXX.XXXXXXXXXXXXXXXXXXXX.                    .XXXXXXXXXXXXXXXXXXXX.XXXXXXXXXXXXXXXXXXXX.XXXXXXXXXXXXXXXXXXXX.XXXXXXXXXXXXXXXXXXXX.XXXXXXXXXXXXXXXXXXXX.XXXXXXXXXXXXXXXXXXXX.XXXXXXXXXXXXXXXXXXXX.",
".                    .                    .                    .                    .                    .                    .                    .                    .                    .                    .                    .                    .XXXXXXXXXXXXXXXXXXXX.XXXXXXXXXXXXXXXXXXXX.                    .XXXXXXXXXXXXXXXXXXXX.XXXXXXXXXXXXXXXXXXXX.XXXXXXXXXXXXXXXXXXXX.XXXXXXXXXXXXXXXXXXXX.XXXXXXXXXXXXXXXXXXXX.XXXXXXXXXXXXXXXXXXXX.XXXXXXXXXXXXXXXXXXXX.",
".                    .                    .                    .                    .                    .                    .                    .                    .                    .                    .                    .                    .XXXXXXXXXXXXXXXXXXXX.XXXXXXXXXXXXXXXXXXXX.                    .XXXXXXXXXXXXXXXXXXXX.XXXXXXXXXXXXXXXXXXXX.XXXXXXXXXXXXXXXXXXXX.XXXXXXXXXXXXXXXXXXXX.XXXXXXXXXXXXXXXXXXXX.XXXXXXXXXXXXXXXXXXXX.XXXXXXXXXXXXXXXXXXXX.",
".                    .                    .                    .                    .                    .                    .                    .                    .                    .                    .                    .                    .XXXXXXXXXXXXXXXXXXXX.XXXXXXXXXXXXXXXXXXXX.                    .XXXXXXXXXXXXXXXXXXXX.XXXXXXXXXXXXXXXXXXXX.XXXXXXXXXXXXXXXXXXXX.XXXXXXXXXXXXXXXXXXXX.XXXXXXXXXXXXXXXXXXXX.XXXXXXXXXXXXXXXXXXXX.XXXXXXXXXXXXXXXXXXXX.",
".                    .                    .                    .                    .                    .                    .                    .                    .                    .                    .                    .                    .XXXXXXXXXXXXXXXXXXXX.XXXXXXXXXXXXXXXXXXXX.                    .XXXXXXXXXXXXXXXXXXXX.XXXXXXXXXXXXXXXXXXXX.XXXXXXXXXXXXXXXXXXXX.XXXXXXXXXXXXXXXXXXXX.XXXXXXXXXXXXXXXXXXXX.XXXXXXXXXXXXXXXXXXXX.XXXXXXXXXXXXXXXXXXXX.",
".                    .                    .                    .                    .                    .                    .                    .                    .                    .                    .                    .                    .XXXXXXXXXXXXXXXXXXXX.XXXXXXXXXXXXXXXXXXXX.                    .XXXXXXXXXXXXXXXXXXXX.XXXXXXXXXXXXXXXXXXXX.XXXXXXXXXXXXXXXXXXXX.XXXXXXXXXXXXXXXXXXXX.XXXXXXXXXXXXXXXXXXXX.XXXXXXXXXXXXXXXXXXXX.XXXXXXXXXXXXXXXXXXXX.",
".                    .                    .                    .                    .                    .                    .                    .                    .                    .                    .                    .                    .XXXXXXXXXXXXXXXXXXXX.XXXXXXXXXXXXXXXXXXXX.                    .XXXXXXXXXXXXXXXXXXXX.XXXXXXXXXXXXXXXXXXXX.XXXXXXXXXXXXXXXXXXXX.XXXXXXXXXXXXXXXXXXXX.XXXXXXXXXXXXXXXXXXXX.XXXXXXXXXXXXXXXXXXXX.XXXXXXXXXXXXXXXXXXXX.",
".                    .                    .                    .                    .                    .                    .                    .                    .                    .                    .                    .                    .XXXXXXXXXXXXXXXXXXXX.XXXXXXXXXXXXXXXXXXXX.                    .XXXXXXXXXXXXXXXXXXXX.XXXXXXXXXXXXXXXXXXXX.XXXXXXXXXXXXXXXXXXXX.XXXXXXXXXXXXXXXXXXXX.XXXXXXXXXXXXXXXXXXXX.XXXXXXXXXXXXXXXXXXXX.XXXXXXXXXXXXXXXXXXXX.",
".                    .                    .                    .                    .                    .                    .                    .                    .                    .                    .                    .                    .XXXXXXXXXXXXXXXXXXXX.XXXXXXXXXXXXXXXXXXXX.                    .XXXXXXXXXXXXXXXXXXXX.XXXXXXXXXXXXXXXXXXXX.XXXXXXXXXXXXXXXXXXXX.XXXXXXXXXXXXXXXXXXXX.XXXXXXXXXXXXXXXXXXXX.XXXXXXXXXXXXXXXXXXXX.XXXXXXXXXXXXXXXXXXXX.",
".                    .                    .                    .                    .                    .                    .                    .                    .                    .                    .                    .                    .XXXXXXXXXXXXXXXXXXXX.XXXXXXXXXXXXXXXXXXXX.                    .XXXXXXXXXXXXXXXXXXXX.XXXXXXXXXXXXXXXXXXXX.XXXXXXXXXXXXXXXXXXXX.XXXXXXXXXXXXXXXXXXXX.XXXXXXXXXXXXXXXXXXXX.XXXXXXXXXXXXXXXXXXXX.XXXXXXXXXXXXXXXXXXXX.",
".                    .                    .                    .                    .                    .                    .                    .                    .                    .                    .                    .                    .XXXXXXXXXXXXXXXXXXXX.XXXXXXXXXXXXXXXXXXXX.                    .XXXXXXXXXXXXXXXXXXXX.XXXXXXXXXXXXXXXXXXXX.XXXXXXXXXXXXXXXXXXXX.XXXXXXXXXXXXXXXXXXXX.XXXXXXXXXXXXXXXXXXXX.XXXXXXXXXXXXXXXXXXXX.XXXXXXXXXXXXXXXXXXXX.",
".                    .                    .                    .                    .                    .                    .                    .                    .                    .                    .                    .                    .XXXXXXXXXXXXXXXXXXXX.XXXXXXXXXXXXXXXXXXXX.                    .XXXXXXXXXXXXXXXXXXXX.XXXXXXXXXXXXXXXXXXXX.XXXXXXXXXXXXXXXXXXXX.XXXXXXXXXXXXXXXXXXXX.XXXXXXXXXXXXXXXXXXXX.XXXXXXXXXXXXXXXXXXXX.XXXXXXXXXXXXXXXXXXXX.",
".                    .                    .                    .                    .                    .                    .                    .                    .                    .                    .                    .                    .XXXXXXXXXXXXXXXXXXXX.XXXXXXXXXXXXXXXXXXXX.                    .XXXXXXXXXXXXXXXXXXXX.XXXXXXXXXXXXXXXXXXXX.XXXXXXXXXXXXXXXXXXXX.XXXXXXXXXXXXXXXXXXXX.XXXXXXXXXXXXXXXXXXXX.XXXXXXXXXXXXXXXXXXXX.XXXXXXXXXXXXXXXXXXXX.",
".                    .                    .                    .                    .                    .                    .                    .                    .                    .                    .                    .                    .XXXXXXXXXXXXXXXXXXXX.XXXXXXXXXXXXXXXXXXXX.                    .XXXXXXXXXXXXXXXXXXXX.XXXXXXXXXXXXXXXXXXXX.XXXXXXXXXXXXXXXXXXXX.XXXXXXXXXXXXXXXXXXXX.XXXXXXXXXXXXXXXXXXXX.XXXXXXXXXXXXXXXXXXXX.XXXXXXXXXXXXXXXXXXXX.",
".                    .                    .                    .                    .                    .                    .                    .                    .                    .                    .                    .                    .XXXXXXXXXXXXXXXXXXXX.XXXXXXXXXXXXXXXXXXXX.                    .XXXXXXXXXXXXXXXXXXXX.XXXXXXXXXXXXXXXXXXXX.XXXXXXXXXXXXXXXXXXXX.XXXXXXXXXXXXXXXXXXXX.XXXXXXXXXXXXXXXXXXXX.XXXXXXXXXXXXXXXXXXXX.XXXXXXXXXXXXXXXXXXXX.",
".                    .                    .                    .                    .                    .                    .                    .                    .                    .                    .                    .                    .XXXXXXXXXXXXXXXXXXXX.XXXXXXXXXXXXXXXXXXXX.                    .XXXXXXXXXXXXXXXXXXXX.XXXXXXXXXXXXXXXXXXXX.XXXXXXXXXXXXXXXXXXXX.XXXXXXXXXXXXXXXXXXXX.XXXXXXXXXXXXXXXXXXXX.XXXXXXXXXXXXXXXXXXXX.XXXXXXXXXXXXXXXXXXXX.",
".                    .                    .                    .                    .                    .                    .                    .                    .                    .                    .                    .                    .XXXXXXXXXXXXXXXXXXXX.XXXXXXXXXXXXXXXXXXXX.                    .XXXXXXXXXXXXXXXXXXXX.XXXXXXXXXXXXXXXXXXXX.XXXXXXXXXXXXXXXXXXXX.XXXXXXXXXXXXXXXXXXXX.XXXXXXXXXXXXXXXXXXXX.XXXXXXXXXXXXXXXXXXXX.XXXXXXXXXXXXXXXXXXXX.",
".                    .                    .                    .                    .                    .                    .                    .                    .                    .                    .                    .                    .XXXXXXXXXXXXXXXXXXXX.XXXXXXXXXXXXXXXXXXXX.                    .XXXXXXXXXXXXXXXXXXXX.XXXXXXXXXXXXXXXXXXXX.XXXXXXXXXXXXXXXXXXXX.XXXXXXXXXXXXXXXXXXXX.XXXXXXXXXXXXXXXXXXXX.XXXXXXXXXXXXXXXXXXXX.XXXXXXXXXXXXXXXXXXXX.",
".                    .                    .                    .                    .                    .                    .                    .                    .                    .                    .                    .                    .XXXXXXXXXXXXXXXXXXXX.XXXXXXXXXXXXXXXXXXXX.                    .XXXXXXXXXXXXXXXXXXXX.XXXXXXXXXXXXXXXXXXXX.XXXXXXXXXXXXXXXXXXXX.XXXXXXXXXXXXXXXXXXXX.XXXXXXXXXXXXXXXXXXXX.XXXXXXXXXXXXXXXXXXXX.XXXXXXXXXXXXXXXXXXXX.",
".                    .                    .                    .                    .                    .                    .                    .                    .                    .                    .                    .                    .XXXXXXXXXXXXXXXXXXXX.XXXXXXXXXXXXXXXXXXXX.                    .XXXXXXXXXXXXXXXXXXXX.XXXXXXXXXXXXXXXXXXXX.XXXXXXXXXXXXXXXXXXXX.XXXXXXXXXXXXXXXXXXXX.XXXXXXXXXXXXXXXXXXXX.XXXXXXXXXXXXXXXXXXXX.XXXXXXXXXXXXXXXXXXXX.",
"...............................................................................................................................................................................................................................................................................................................................................................................................................................................................................",
".                    .                    .                    .                    .                    .                    .                    .                    .                    .                    .                    .                    .XXXXXXXXXXXXXXXXXXXX.XXXXXXXXXXXXXXXXXXXX.XXXXXXXXXXXXXXXXXXXX.XXXXXXXXXXXXXXXXXXXX.XXXXXXXXXXXXXXXXXXXX.XXXXXXXXXXXXXXXXXXXX.XXXXXXXXXXXXXXXXXXXX.XXXXXXXXXXXXXXXXXXXX.XXXXXXXXXXXXXXXXXXXX.XXXXXXXXXXXXXXXXXXXX.",
".                    .                    .                    .                    .                    .                    .                    .                    .                    .                    .                    .                    .XXXXXXXXXXXXXXXXXXXX.XXXXXXXXXXXXXXXXXXXX.XXXXXXXXXXXXXXXXXXXX.XXXXXXXXXXXXXXXXXXXX.XXXXXXXXXXXXXXXXXXXX.XXXXXXXXXXXXXXXXXXXX.XXXXXXXXXXXXXXXXXXXX.XXXXXXXXXXXXXXXXXXXX.XXXXXXXXXXXXXXXXXXXX.XXXXXXXXXXXXXXXXXXXX.",
".                    .                    .                    .                    .                    .                    .                    .                    .                    .                    .                    .                    .XXXXXXXXXXXXXXXXXXXX.XXXXXXXXXXXXXXXXXXXX.XXXXXXXXXXXXXXXXXXXX.XXXXXXXXXXXXXXXXXXXX.XXXXXXXXXXXXXXXXXXXX.XXXXXXXXXXXXXXXXXXXX.XXXXXXXXXXXXXXXXXXXX.XXXXXXXXXXXXXXXXXXXX.XXXXXXXXXXXXXXXXXXXX.XXXXXXXXXXXXXXXXXXXX.",
".                    .                    .                    .                    .                    .                    .                    .                    .                    .                    .                    .                    .XXXXXXXXXXXXXXXXXXXX.XXXXXXXXXXXXXXXXXXXX.XXXXXXXXXXXXXXXXXXXX.XXXXXXXXXXXXXXXXXXXX.XXXXXXXXXXXXXXXXXXXX.XXXXXXXXXXXXXXXXXXXX.XXXXXXXXXXXXXXXXXXXX.XXXXXXXXXXXXXXXXXXXX.XXXXXXXXXXXXXXXXXXXX.XXXXXXXXXXXXXXXXXXXX.",
".                    .                    .                    .                    .                    .                    .                    .                    .                    .                    .                    .                    .XXXXXXXXXXXXXXXXXXXX.XXXXXXXXXXXXXXXXXXXX.XXXXXXXXXXXXXXXXXXXX.XXXXXXXXXXXXXXXXXXXX.XXXXXXXXXXXXXXXXXXXX.XXXXXXXXXXXXXXXXXXXX.XXXXXXXXXXXXXXXXXXXX.XXXXXXXXXXXXXXXXXXXX.XXXXXXXXXXXXXXXXXXXX.XXXXXXXXXXXXXXXXXXXX.",
".                    .                    .                    .                    .                    .                    .                    .                    .                    .                    .                    .                    .XXXXXXXXXXXXXXXXXXXX.XXXXXXXXXXXXXXXXXXXX.XXXXXXXXXXXXXXXXXXXX.XXXXXXXXXXXXXXXXXXXX.XXXXXXXXXXXXXXXXXXXX.XXXXXXXXXXXXXXXXXXXX.XXXXXXXXXXXXXXXXXXXX.XXXXXXXXXXXXXXXXXXXX.XXXXXXXXXXXXXXXXXXXX.XXXXXXXXXXXXXXXXXXXX.",
".                    .                    .                    .                    .                    .                    .                    .                    .                    .                    .                    .                    .XXXXXXXXXXXXXXXXXXXX.XXXXXXXXXXXXXXXXXXXX.XXXXXXXXXXXXXXXXXXXX.XXXXXXXXXXXXXXXXXXXX.XXXXXXXXXXXXXXXXXXXX.XXXXXXXXXXXXXXXXXXXX.XXXXXXXXXXXXXXXXXXXX.XXXXXXXXXXXXXXXXXXXX.XXXXXXXXXXXXXXXXXXXX.XXXXXXXXXXXXXXXXXXXX.",
".                    .                    .                    .                    .                    .                    .                    .                    .                    .                    .                    .                    .XXXXXXXXXXXXXXXXXXXX.XXXXXXXXXXXXXXXXXXXX.XXXXXXXXXXXXXXXXXXXX.XXXXXXXXXXXXXXXXXXXX.XXXXXXXXXXXXXXXXXXXX.XXXXXXXXXXXXXXXXXXXX.XXXXXXXXXXXXXXXXXXXX.XXXXXXXXXXXXXXXXXXXX.XXXXXXXXXXXXXXXXXXXX.XXXXXXXXXXXXXXXXXXXX.",
".                    .                    .                    .                    .                    .                    .                    .                    .                    .                    .                    .                    .XXXXXXXXXXXXXXXXXXXX.XXXXXXXXXXXXXXXXXXXX.XXXXXXXXXXXXXXXXXXXX.XXXXXXXXXXXXXXXXXXXX.XXXXXXXXXXXXXXXXXXXX.XXXXXXXXXXXXXXXXXXXX.XXXXXXXXXXXXXXXXXXXX.XXXXXXXXXXXXXXXXXXXX.XXXXXXXXXXXXXXXXXXXX.XXXXXXXXXXXXXXXXXXXX.",
".                    .                    .                    .                    .                    .                    .                    .                    .                    .                    .                    .                    .XXXXXXXXXXXXXXXXXXXX.XXXXXXXXXXXXXXXXXXXX.XXXXXXXXXXXXXXXXXXXX.XXXXXXXXXXXXXXXXXXXX.XXXXXXXXXXXXXXXXXXXX.XXXXXXXXXXXXXXXXXXXX.XXXXXXXXXXXXXXXXXXXX.XXXXXXXXXXXXXXXXXXXX.XXXXXXXXXXXXXXXXXXXX.XXXXXXXXXXXXXXXXXXXX.",
".                    .                    .                    .                    .                    .                    .                    .                    .                    .                    .                    .                    .XXXXXXXXXXXXXXXXXXXX.XXXXXXXXXXXXXXXXXXXX.XXXXXXXXXXXXXXXXXXXX.XXXXXXXXXXXXXXXXXXXX.XXXXXXXXXXXXXXXXXXXX.XXXXXXXXXXXXXXXXXXXX.XXXXXXXXXXXXXXXXXXXX.XXXXXXXXXXXXXXXXXXXX.XXXXXXXXXXXXXXXXXXXX.XXXXXXXXXXXXXXXXXXXX.",
".                    .                    .                    .                    .                    .                    .                    .                    .                    .                    .                    .                    .XXXXXXXXXXXXXXXXXXXX.XXXXXXXXXXXXXXXXXXXX.XXXXXXXXXXXXXXXXXXXX.XXXXXXXXXXXXXXXXXXXX.XXXXXXXXXXXXXXXXXXXX.XXXXXXXXXXXXXXXXXXXX.XXXXXXXXXXXXXXXXXXXX.XXXXXXXXXXXXXXXXXXXX.XXXXXXXXXXXXXXXXXXXX.XXXXXXXXXXXXXXXXXXXX.",
".                    .                    .                    .                    .                    .                    .                    .                    .                    .                    .                    .                    .XXXXXXXXXXXXXXXXXXXX.XXXXXXXXXXXXXXXXXXXX.XXXXXXXXXXXXXXXXXXXX.XXXXXXXXXXXXXXXXXXXX.XXXXXXXXXXXXXXXXXXXX.XXXXXXXXXXXXXXXXXXXX.XXXXXXXXXXXXXXXXXXXX.XXXXXXXXXXXXXXXXXXXX.XXXXXXXXXXXXXXXXXXXX.XXXXXXXXXXXXXXXXXXXX.",
".                    .                    .                    .                    .                    .                    .                    .                    .                    .                    .                    .                    .XXXXXXXXXXXXXXXXXXXX.XXXXXXXXXXXXXXXXXXXX.XXXXXXXXXXXXXXXXXXXX.XXXXXXXXXXXXXXXXXXXX.XXXXXXXXXXXXXXXXXXXX.XXXXXXXXXXXXXXXXXXXX.XXXXXXXXXXXXXXXXXXXX.XXXXXXXXXXXXXXXXXXXX.XXXXXXXXXXXXXXXXXXXX.XXXXXXXXXXXXXXXXXXXX.",
".                    .                    .                    .                    .                    .                    .                    .                    .                    .                    .                    .                    .XXXXXXXXXXXXXXXXXXXX.XXXXXXXXXXXXXXXXXXXX.XXXXXXXXXXXXXXXXXXXX.XXXXXXXXXXXXXXXXXXXX.XXXXXXXXXXXXXXXXXXXX.XXXXXXXXXXXXXXXXXXXX.XXXXXXXXXXXXXXXXXXXX.XXXXXXXXXXXXXXXXXXXX.XXXXXXXXXXXXXXXXXXXX.XXXXXXXXXXXXXXXXXXXX.",
".                    .                    .                    .                    .                    .                    .                    .                    .                    .                    .                    .                    .XXXXXXXXXXXXXXXXXXXX.XXXXXXXXXXXXXXXXXXXX.XXXXXXXXXXXXXXXXXXXX.XXXXXXXXXXXXXXXXXXXX.XXXXXXXXXXXXXXXXXXXX.XXXXXXXXXXXXXXXXXXXX.XXXXXXXXXXXXXXXXXXXX.XXXXXXXXXXXXXXXXXXXX.XXXXXXXXXXXXXXXXXXXX.XXXXXXXXXXXXXXXXXXXX.",
".                    .                    .                    .                    .                    .                    .                    .                    .                    .                    .                    .                    .XXXXXXXXXXXXXXXXXXXX.XXXXXXXXXXXXXXXXXXXX.XXXXXXXXXXXXXXXXXXXX.XXXXXXXXXXXXXXXXXXXX.XXXXXXXXXXXXXXXXXXXX.XXXXXXXXXXXXXXXXXXXX.XXXXXXXXXXXXXXXXXXXX.XXXXXXXXXXXXXXXXXXXX.XXXXXXXXXXXXXXXXXXXX.XXXXXXXXXXXXXXXXXXXX.",
".                    .                    .                    .                    .                    .                    .                    .                    .                    .                    .                    .                    .XXXXXXXXXXXXXXXXXXXX.XXXXXXXXXXXXXXXXXXXX.XXXXXXXXXXXXXXXXXXXX.XXXXXXXXXXXXXXXXXXXX.XXXXXXXXXXXXXXXXXXXX.XXXXXXXXXXXXXXXXXXXX.XXXXXXXXXXXXXXXXXXXX.XXXXXXXXXXXXXXXXXXXX.XXXXXXXXXXXXXXXXXXXX.XXXXXXXXXXXXXXXXXXXX.",
".                    .                    .                    .                    .                    .                    .                    .                    .                    .                    .                    .                    .XXXXXXXXXXXXXXXXXXXX.XXXXXXXXXXXXXXXXXXXX.XXXXXXXXXXXXXXXXXXXX.XXXXXXXXXXXXXXXXXXXX.XXXXXXXXXXXXXXXXXXXX.XXXXXXXXXXXXXXXXXXXX.XXXXXXXXXXXXXXXXXXXX.XXXXXXXXXXXXXXXXXXXX.XXXXXXXXXXXXXXXXXXXX.XXXXXXXXXXXXXXXXXXXX.",
".                    .                    .                    .                    .                    .                    .                    .                    .                    .                    .                    .                    .XXXXXXXXXXXXXXXXXXXX.XXXXXXXXXXXXXXXXXXXX.XXXXXXXXXXXXXXXXXXXX.XXXXXXXXXXXXXXXXXXXX.XXXXXXXXXXXXXXXXXXXX.XXXXXXXXXXXXXXXXXXXX.XXXXXXXXXXXXXXXXXXXX.XXXXXXXXXXXXXXXXXXXX.XXXXXXXXXXXXXXXXXXXX.XXXXXXXXXXXXXXXXXXXX.",
"...............................................................................................................................................................................................................................................................................................................................................................................................................................................................................",
".                    .                    .                    .                    .                    .                    .                    .                    .                    .                    .                    .                    .XXXXXXXXXXXXXXXXXXXX.XXXXXXXXXXXXXXXXXXXX.XXXXXXXXXXXXXXXXXXXX.XXXXXXXXXXXXXXXXXXXX.XXXXXXXXXXXXXXXXXXXX.XXXXXXXXXXXXXXXXXXXX.XXXXXXXXXXXXXXXXXXXX.XXXXXXXXXXXXXXXXXXXX.XXXXXXXXXXXXXXXXXXXX.XXXXXXXXXXXXXXXXXXXX.",
".                    .                    .                    .                    .                    .                    .                    .                    .                    .                    .                    .                    .XXXXXXXXXXXXXXXXXXXX.XXXXXXXXXXXXXXXXXXXX.XXXXXXXXXXXXXXXXXXXX.XXXXXXXXXXXXXXXXXXXX.XXXXXXXXXXXXXXXXXXXX.XXXXXXXXXXXXXXXXXXXX.XXXXXXXXXXXXXXXXXXXX.XXXXXXXXXXXXXXXXXXXX.XXXXXXXXXXXXXXXXXXXX.XXXXXXXXXXXXXXXXXXXX.",
".                    .                    .                    .                    .                    .                    .                    .                    .                    .                    .                    .                    .XXXXXXXXXXXXXXXXXXXX.XXXXXXXXXXXXXXXXXXXX.XXXXXXXXXXXXXXXXXXXX.XXXXXXXXXXXXXXXXXXXX.XXXXXXXXXXXXXXXXXXXX.XXXXXXXXXXXXXXXXXXXX.XXXXXXXXXXXXXXXXXXXX.XXXXXXXXXXXXXXXXXXXX.XXXXXXXXXXXXXXXXXXXX.XXXXXXXXXXXXXXXXXXXX.",
".                    .                    .                    .                    .                    .                    .                    .                    .                    .                    .                    .                    .XXXXXXXXXXXXXXXXXXXX.XXXXXXXXXXXXXXXXXXXX.XXXXXXXXXXXXXXXXXXXX.XXXXXXXXXXXXXXXXXXXX.XXXXXXXXXXXXXXXXXXXX.XXXXXXXXXXXXXXXXXXXX.XXXXXXXXXXXXXXXXXXXX.XXXXXXXXXXXXXXXXXXXX.XXXXXXXXXXXXXXXXXXXX.XXXXXXXXXXXXXXXXXXXX.",
".                    .                    .                    .                    .                    .                    .                    .                    .                    .                    .                    .                    .XXXXXXXXXXXXXXXXXXXX.XXXXXXXXXXXXXXXXXXXX.XXXXXXXXXXXXXXXXXXXX.XXXXXXXXXXXXXXXXXXXX.XXXXXXXXXXXXXXXXXXXX.XXXXXXXXXXXXXXXXXXXX.XXXXXXXXXXXXXXXXXXXX.XXXXXXXXXXXXXXXXXXXX.XXXXXXXXXXXXXXXXXXXX.XXXXXXXXXXXXXXXXXXXX.",
".                    .                    .                    .                    .                    .                    .                    .                    .                    .                    .                    .                    .XXXXXXXXXXXXXXXXXXXX.XXXXXXXXXXXXXXXXXXXX.XXXXXXXXXXXXXXXXXXXX.XXXXXXXXXXXXXXXXXXXX.XXXXXXXXXXXXXXXXXXXX.XXXXXXXXXXXXXXXXXXXX.XXXXXXXXXXXXXXXXXXXX.XXXXXXXXXXXXXXXXXXXX.XXXXXXXXXXXXXXXXXXXX.XXXXXXXXXXXXXXXXXXXX.",
".                    .                    .                    .                    .                    .                    .                    .                    .                    .                    .                    .                    .XXXXXXXXXXXXXXXXXXXX.XXXXXXXXXXXXXXXXXXXX.XXXXXXXXXXXXXXXXXXXX.XXXXXXXXXXXXXXXXXXXX.XXXXXXXXXXXXXXXXXXXX.XXXXXXXXXXXXXXXXXXXX.XXXXXXXXXXXXXXXXXXXX.XXXXXXXXXXXXXXXXXXXX.XXXXXXXXXXXXXXXXXXXX.XXXXXXXXXXXXXXXXXXXX.",
".                    .                    .                    .                    .                    .                    .                    .                    .                    .                    .                    .                    .XXXXXXXXXXXXXXXXXXXX.XXXXXXXXXXXXXXXXXXXX.XXXXXXXXXXXXXXXXXXXX.XXXXXXXXXXXXXXXXXXXX.XXXXXXXXXXXXXXXXXXXX.XXXXXXXXXXXXXXXXXXXX.XXXXXXXXXXXXXXXXXXXX.XXXXXXXXXXXXXXXXXXXX.XXXXXXXXXXXXXXXXXXXX.XXXXXXXXXXXXXXXXXXXX.",
".                    .                    .                    .                    .                    .                    .                    .                    .                    .                    .                    .                    .XXXXXXXXXXXXXXXXXXXX.XXXXXXXXXXXXXXXXXXXX.XXXXXXXXXXXXXXXXXXXX.XXXXXXXXXXXXXXXXXXXX.XXXXXXXXXXXXXXXXXXXX.XXXXXXXXXXXXXXXXXXXX.XXXXXXXXXXXXXXXXXXXX.XXXXXXXXXXXXXXXXXXXX.XXXXXXXXXXXXXXXXXXXX.XXXXXXXXXXXXXXXXXXXX.",
".                    .                    .                    .                    .                    .                    .                    .                    .                    .                    .                    .                    .XXXXXXXXXXXXXXXXXXXX.XXXXXXXXXXXXXXXXXXXX.XXXXXXXXXXXXXXXXXXXX.XXXXXXXXXXXXXXXXXXXX.XXXXXXXXXXXXXXXXXXXX.XXXXXXXXXXXXXXXXXXXX.XXXXXXXXXXXXXXXXXXXX.XXXXXXXXXXXXXXXXXXXX.XXXXXXXXXXXXXXXXXXXX.XXXXXXXXXXXXXXXXXXXX.",
".                    .                    .                    .                    .                    .                    .                    .                    .                    .                    .                    .                    .XXXXXXXXXXXXXXXXXXXX.XXXXXXXXXXXXXXXXXXXX.XXXXXXXXXXXXXXXXXXXX.XXXXXXXXXXXXXXXXXXXX.XXXXXXXXXXXXXXXXXXXX.XXXXXXXXXXXXXXXXXXXX.XXXXXXXXXXXXXXXXXXXX.XXXXXXXXXXXXXXXXXXXX.XXXXXXXXXXXXXXXXXXXX.XXXXXXXXXXXXXXXXXXXX.",
".                    .                    .                    .                    .                    .                    .                    .                    .                    .                    .                    .                    .XXXXXXXXXXXXXXXXXXXX.XXXXXXXXXXXXXXXXXXXX.XXXXXXXXXXXXXXXXXXXX.XXXXXXXXXXXXXXXXXXXX.XXXXXXXXXXXXXXXXXXXX.XXXXXXXXXXXXXXXXXXXX.XXXXXXXXXXXXXXXXXXXX.XXXXXXXXXXXXXXXXXXXX.XXXXXXXXXXXXXXXXXXXX.XXXXXXXXXXXXXXXXXXXX.",
".                    .                    .                    .                    .                    .                    .                    .                    .                    .                    .                    .                    .XXXXXXXXXXXXXXXXXXXX.XXXXXXXXXXXXXXXXXXXX.XXXXXXXXXXXXXXXXXXXX.XXXXXXXXXXXXXXXXXXXX.XXXXXXXXXXXXXXXXXXXX.XXXXXXXXXXXXXXXXXXXX.XXXXXXXXXXXXXXXXXXXX.XXXXXXXXXXXXXXXXXXXX.XXXXXXXXXXXXXXXXXXXX.XXXXXXXXXXXXXXXXXXXX.",
".                    .                    .                    .                    .                    .                    .                    .                    .                    .                    .                    .                    .XXXXXXXXXXXXXXXXXXXX.XXXXXXXXXXXXXXXXXXXX.XXXXXXXXXXXXXXXXXXXX.XXXXXXXXXXXXXXXXXXXX.XXXXXXXXXXXXXXXXXXXX.XXXXXXXXXXXXXXXXXXXX.XXXXXXXXXXXXXXXXXXXX.XXXXXXXXXXXXXXXXXXXX.XXXXXXXXXXXXXXXXXXXX.XXXXXXXXXXXXXXXXXXXX.",
".                    .                    .                    .                    .                    .                    .                    .                    .                    .                    .                    .                    .XXXXXXXXXXXXXXXXXXXX.XXXXXXXXXXXXXXXXXXXX.XXXXXXXXXXXXXXXXXXXX.XXXXXXXXXXXXXXXXXXXX.XXXXXXXXXXXXXXXXXXXX.XXXXXXXXXXXXXXXXXXXX.XXXXXXXXXXXXXXXXXXXX.XXXXXXXXXXXXXXXXXXXX.XXXXXXXXXXXXXXXXXXXX.XXXXXXXXXXXXXXXXXXXX.",
".                    .                    .                    .                    .                    .                    .                    .                    .                    .                    .                    .                    .XXXXXXXXXXXXXXXXXXXX.XXXXXXXXXXXXXXXXXXXX.XXXXXXXXXXXXXXXXXXXX.XXXXXXXXXXXXXXXXXXXX.XXXXXXXXXXXXXXXXXXXX.XXXXXXXXXXXXXXXXXXXX.XXXXXXXXXXXXXXXXXXXX.XXXXXXXXXXXXXXXXXXXX.XXXXXXXXXXXXXXXXXXXX.XXXXXXXXXXXXXXXXXXXX.",
".                    .                    .                    .                    .                    .                    .                    .                    .                    .                    .                    .                    .XXXXXXXXXXXXXXXXXXXX.XXXXXXXXXXXXXXXXXXXX.XXXXXXXXXXXXXXXXXXXX.XXXXXXXXXXXXXXXXXXXX.XXXXXXXXXXXXXXXXXXXX.XXXXXXXXXXXXXXXXXXXX.XXXXXXXXXXXXXXXXXXXX.XXXXXXXXXXXXXXXXXXXX.XXXXXXXXXXXXXXXXXXXX.XXXXXXXXXXXXXXXXXXXX.",
".                    .                    .                    .                    .                    .                    .                    .                    .                    .                    .                    .                    .XXXXXXXXXXXXXXXXXXXX.XXXXXXXXXXXXXXXXXXXX.XXXXXXXXXXXXXXXXXXXX.XXXXXXXXXXXXXXXXXXXX.XXXXXXXXXXXXXXXXXXXX.XXXXXXXXXXXXXXXXXXXX.XXXXXXXXXXXXXXXXXXXX.XXXXXXXXXXXXXXXXXXXX.XXXXXXXXXXXXXXXXXXXX.XXXXXXXXXXXXXXXXXXXX.",
".                    .                    .                    .                    .                    .                    .                    .                    .                    .                    .                    .                    .XXXXXXXXXXXXXXXXXXXX.XXXXXXXXXXXXXXXXXXXX.XXXXXXXXXXXXXXXXXXXX.XXXXXXXXXXXXXXXXXXXX.XXXXXXXXXXXXXXXXXXXX.XXXXXXXXXXXXXXXXXXXX.XXXXXXXXXXXXXXXXXXXX.XXXXXXXXXXXXXXXXXXXX.XXXXXXXXXXXXXXXXXXXX.XXXXXXXXXXXXXXXXXXXX.",
".                    .                    .                    .                    .                    .                    .                    .                    .                    .                    .                    .                    .XXXXXXXXXXXXXXXXXXXX.XXXXXXXXXXXXXXXXXXXX.XXXXXXXXXXXXXXXXXXXX.XXXXXXXXXXXXXXXXXXXX.XXXXXXXXXXXXXXXXXXXX.XXXXXXXXXXXXXXXXXXXX.XXXXXXXXXXXXXXXXXXXX.XXXXXXXXXXXXXXXXXXXX.XXXXXXXXXXXXXXXXXXXX.XXXXXXXXXXXXXXXXXXXX.",
"...............................................................................................................................................................................................................................................................................................................................................................................................................................................................................",
".                    .                    .                    .                    .                    .                    .                    .                    .                    .                    .                    .                    .XXXXXXXXXXXXXXXXXXXX.XXXXXXXXXXXXXXXXXXXX.XXXXXXXXXXXXXXXXXXXX.XXXXXXXXXXXXXXXXXXXX.XXXXXXXXXXXXXXXXXXXX.XXXXXXXXXXXXXXXXXXXX.XXXXXXXXXXXXXXXXXXXX.XXXXXXXXXXXXXXXXXXXX.XXXXXXXXXXXXXXXXXXXX.XXXXXXXXXXXXXXXXXXXX.",
".                    .                    .                    .                    .                    .                    .                    .                    .                    .                    .                    .                    .XXXXXXXXXXXXXXXXXXXX.XXXXXXXXXXXXXXXXXXXX.XXXXXXXXXXXXXXXXXXXX.XXXXXXXXXXXXXXXXXXXX.XXXXXXXXXXXXXXXXXXXX.XXXXXXXXXXXXXXXXXXXX.XXXXXXXXXXXXXXXXXXXX.XXXXXXXXXXXXXXXXXXXX.XXXXXXXXXXXXXXXXXXXX.XXXXXXXXXXXXXXXXXXXX.",
".                    .                    .                    .                    .                    .                    .                    .                    .                    .                    .                    .                    .XXXXXXXXXXXXXXXXXXXX.XXXXXXXXXXXXXXXXXXXX.XXXXXXXXXXXXXXXXXXXX.XXXXXXXXXXXXXXXXXXXX.XXXXXXXXXXXXXXXXXXXX.XXXXXXXXXXXXXXXXXXXX.XXXXXXXXXXXXXXXXXXXX.XXXXXXXXXXXXXXXXXXXX.XXXXXXXXXXXXXXXXXXXX.XXXXXXXXXXXXXXXXXXXX.",
".                    .                    .                    .                    .                    .                    .                    .                    .                    .                    .                    .                    .XXXXXXXXXXXXXXXXXXXX.XXXXXXXXXXXXXXXXXXXX.XXXXXXXXXXXXXXXXXXXX.XXXXXXXXXXXXXXXXXXXX.XXXXXXXXXXXXXXXXXXXX.XXXXXXXXXXXXXXXXXXXX.XXXXXXXXXXXXXXXXXXXX.XXXXXXXXXXXXXXXXXXXX.XXXXXXXXXXXXXXXXXXXX.XXXXXXXXXXXXXXXXXXXX.",
".                    .                    .                    .                    .                    .                    .                    .                    .                    .                    .                    .                    .XXXXXXXXXXXXXXXXXXXX.XXXXXXXXXXXXXXXXXXXX.XXXXXXXXXXXXXXXXXXXX.XXXXXXXXXXXXXXXXXXXX.XXXXXXXXXXXXXXXXXXXX.XXXXXXXXXXXXXXXXXXXX.XXXXXXXXXXXXXXXXXXXX.XXXXXXXXXXXXXXXXXXXX.XXXXXXXXXXXXXXXXXXXX.XXXXXXXXXXXXXXXXXXXX.",
".                    .                    .                    .                    .                    .                    .                    .                    .                    .                    .                    .                    .XXXXXXXXXXXXXXXXXXXX.XXXXXXXXXXXXXXXXXXXX.XXXXXXXXXXXXXXXXXXXX.XXXXXXXXXXXXXXXXXXXX.XXXXXXXXXXXXXXXXXXXX.XXXXXXXXXXXXXXXXXXXX.XXXXXXXXXXXXXXXXXXXX.XXXXXXXXXXXXXXXXXXXX.XXXXXXXXXXXXXXXXXXXX.XXXXXXXXXXXXXXXXXXXX.",
".                    .                    .                    .                    .                    .                    .                    .                    .                    .                    .                    .                    .XXXXXXXXXXXXXXXXXXXX.XXXXXXXXXXXXXXXXXXXX.XXXXXXXXXXXXXXXXXXXX.XXXXXXXXXXXXXXXXXXXX.XXXXXXXXXXXXXXXXXXXX.XXXXXXXXXXXXXXXXXXXX.XXXXXXXXXXXXXXXXXXXX.XXXXXXXXXXXXXXXXXXXX.XXXXXXXXXXXXXXXXXXXX.XXXXXXXXXXXXXXXXXXXX.",
".                    .                    .                    .                    .                    .                    .                    .                    .                    .                    .                    .                    .XXXXXXXXXXXXXXXXXXXX.XXXXXXXXXXXXXXXXXXXX.XXXXXXXXXXXXXXXXXXXX.XXXXXXXXXXXXXXXXXXXX.XXXXXXXXXXXXXXXXXXXX.XXXXXXXXXXXXXXXXXXXX.XXXXXXXXXXXXXXXXXXXX.XXXXXXXXXXXXXXXXXXXX.XXXXXXXXXXXXXXXXXXXX.XXXXXXXXXXXXXXXXXXXX.",
".                    .                    .                    .                    .                    .                    .                    .                    .                    .                    .                    .                    .XXXXXXXXXXXXXXXXXXXX.XXXXXXXXXXXXXXXXXXXX.XXXXXXXXXXXXXXXXXXXX.XXXXXXXXXXXXXXXXXXXX.XXXXXXXXXXXXXXXXXXXX.XXXXXXXXXXXXXXXXXXXX.XXXXXXXXXXXXXXXXXXXX.XXXXXXXXXXXXXXXXXXXX.XXXXXXXXXXXXXXXXXXXX.XXXXXXXXXXXXXXXXXXXX.",
".                    .                    .                    .                    .                    .                    .                    .                    .                    .                    .                    .                    .XXXXXXXXXXXXXXXXXXXX.XXXXXXXXXXXXXXXXXXXX.XXXXXXXXXXXXXXXXXXXX.XXXXXXXXXXXXXXXXXXXX.XXXXXXXXXXXXXXXXXXXX.XXXXXXXXXXXXXXXXXXXX.XXXXXXXXXXXXXXXXXXXX.XXXXXXXXXXXXXXXXXXXX.XXXXXXXXXXXXXXXXXXXX.XXXXXXXXXXXXXXXXXXXX.",
".                    .                    .                    .                    .                    .                    .                    .                    .                    .                    .                    .                    .XXXXXXXXXXXXXXXXXXXX.XXXXXXXXXXXXXXXXXXXX.XXXXXXXXXXXXXXXXXXXX.XXXXXXXXXXXXXXXXXXXX.XXXXXXXXXXXXXXXXXXXX.XXXXXXXXXXXXXXXXXXXX.XXXXXXXXXXXXXXXXXXXX.XXXXXXXXXXXXXXXXXXXX.XXXXXXXXXXXXXXXXXXXX.XXXXXXXXXXXXXXXXXXXX.",
".                    .                    .                    .                    .                    .                    .                    .                    .                    .                    .                    .                    .XXXXXXXXXXXXXXXXXXXX.XXXXXXXXXXXXXXXXXXXX.XXXXXXXXXXXXXXXXXXXX.XXXXXXXXXXXXXXXXXXXX.XXXXXXXXXXXXXXXXXXXX.XXXXXXXXXXXXXXXXXXXX.XXXXXXXXXXXXXXXXXXXX.XXXXXXXXXXXXXXXXXXXX.XXXXXXXXXXXXXXXXXXXX.XXXXXXXXXXXXXXXXXXXX.",
".                    .                    .                    .                    .                    .                    .                    .                    .                    .                    .                    .                    .XXXXXXXXXXXXXXXXXXXX.XXXXXXXXXXXXXXXXXXXX.XXXXXXXXXXXXXXXXXXXX.XXXXXXXXXXXXXXXXXXXX.XXXXXXXXXXXXXXXXXXXX.XXXXXXXXXXXXXXXXXXXX.XXXXXXXXXXXXXXXXXXXX.XXXXXXXXXXXXXXXXXXXX.XXXXXXXXXXXXXXXXXXXX.XXXXXXXXXXXXXXXXXXXX.",
".                    .                    .                    .                    .                    .                    .                    .                    .                    .                    .                    .                    .XXXXXXXXXXXXXXXXXXXX.XXXXXXXXXXXXXXXXXXXX.XXXXXXXXXXXXXXXXXXXX.XXXXXXXXXXXXXXXXXXXX.XXXXXXXXXXXXXXXXXXXX.XXXXXXXXXXXXXXXXXXXX.XXXXXXXXXXXXXXXXXXXX.XXXXXXXXXXXXXXXXXXXX.XXXXXXXXXXXXXXXXXXXX.XXXXXXXXXXXXXXXXXXXX.",
".                    .                    .                    .                    .                    .                    .                    .                    .                    .                    .                    .                    .XXXXXXXXXXXXXXXXXXXX.XXXXXXXXXXXXXXXXXXXX.XXXXXXXXXXXXXXXXXXXX.XXXXXXXXXXXXXXXXXXXX.XXXXXXXXXXXXXXXXXXXX.XXXXXXXXXXXXXXXXXXXX.XXXXXXXXXXXXXXXXXXXX.XXXXXXXXXXXXXXXXXXXX.XXXXXXXXXXXXXXXXXXXX.XXXXXXXXXXXXXXXXXXXX.",
".                    .                    .                    .                    .                    .                    .                    .                    .                    .                    .                    .                    .XXXXXXXXXXXXXXXXXXXX.XXXXXXXXXXXXXXXXXXXX.XXXXXXXXXXXXXXXXXXXX.XXXXXXXXXXXXXXXXXXXX.XXXXXXXXXXXXXXXXXXXX.XXXXXXXXXXXXXXXXXXXX.XXXXXXXXXXXXXXXXXXXX.XXXXXXXXXXXXXXXXXXXX.XXXXXXXXXXXXXXXXXXXX.XXXXXXXXXXXXXXXXXXXX.",
".                    .                    .                    .                    .                    .                    .                    .                    .                    .                    .                    .                    .XXXXXXXXXXXXXXXXXXXX.XXXXXXXXXXXXXXXXXXXX.XXXXXXXXXXXXXXXXXXXX.XXXXXXXXXXXXXXXXXXXX.XXXXXXXXXXXXXXXXXXXX.XXXXXXXXXXXXXXXXXXXX.XXXXXXXXXXXXXXXXXXXX.XXXXXXXXXXXXXXXXXXXX.XXXXXXXXXXXXXXXXXXXX.XXXXXXXXXXXXXXXXXXXX.",
".                    .                    .                    .                    .                    .                    .                    .                    .                    .                    .                    .                    .XXXXXXXXXXXXXXXXXXXX.XXXXXXXXXXXXXXXXXXXX.XXXXXXXXXXXXXXXXXXXX.XXXXXXXXXXXXXXXXXXXX.XXXXXXXXXXXXXXXXXXXX.XXXXXXXXXXXXXXXXXXXX.XXXXXXXXXXXXXXXXXXXX.XXXXXXXXXXXXXXXXXXXX.XXXXXXXXXXXXXXXXXXXX.XXXXXXXXXXXXXXXXXXXX.",
".                    .                    .                    .                    .                    .                    .                    .                    .                    .                    .                    .                    .XXXXXXXXXXXXXXXXXXXX.XXXXXXXXXXXXXXXXXXXX.XXXXXXXXXXXXXXXXXXXX.XXXXXXXXXXXXXXXXXXXX.XXXXXXXXXXXXXXXXXXXX.XXXXXXXXXXXXXXXXXXXX.XXXXXXXXXXXXXXXXXXXX.XXXXXXXXXXXXXXXXXXXX.XXXXXXXXXXXXXXXXXXXX.XXXXXXXXXXXXXXXXXXXX.",
".                    .                    .                    .                    .                    .                    .                    .                    .                    .                    .                    .                    .XXXXXXXXXXXXXXXXXXXX.XXXXXXXXXXXXXXXXXXXX.XXXXXXXXXXXXXXXXXXXX.XXXXXXXXXXXXXXXXXXXX.XXXXXXXXXXXXXXXXXXXX.XXXXXXXXXXXXXXXXXXXX.XXXXXXXXXXXXXXXXXXXX.XXXXXXXXXXXXXXXXXXXX.XXXXXXXXXXXXXXXXXXXX.XXXXXXXXXXXXXXXXXXXX.",
"...............................................................................................................................................................................................................................................................................................................................................................................................................................................................................",
".                    .                    .                    .                    .                    .                    .                    .                    .                    .                    .                    .                    .XXXXXXXXXXXXXXXXXXXX.XXXXXXXXXXXXXXXXXXXX.XXXXXXXXXXXXXXXXXXXX.XXXXXXXXXXXXXXXXXXXX.XXXXXXXXXXXXXXXXXXXX.                    .                    .                    .                    .                    .",
".                    .                    .                    .                    .                    .                    .                    .                    .                    .                    .                    .                    .XXXXXXXXXXXXXXXXXXXX.XXXXXXXXXXXXXXXXXXXX.XXXXXXXXXXXXXXXXXXXX.XXXXXXXXXXXXXXXXXXXX.XXXXXXXXXXXXXXXXXXXX.                    .                    .                    .                    .                    .",
".                    .                    .                    .                    .                    .                    .                    .                    .                    .                    .                    .                    .XXXXXXXXXXXXXXXXXXXX.XXXXXXXXXXXXXXXXXXXX.XXXXXXXXXXXXXXXXXXXX.XXXXXXXXXXXXXXXXXXXX.XXXXXXXXXXXXXXXXXXXX.                    .                    .                    .                    .                    .",
".                    .                    .                    .                    .                    .                    .                    .                    .                    .                    .                    .                    .XXXXXXXXXXXXXXXXXXXX.XXXXXXXXXXXXXXXXXXXX.XXXXXXXXXXXXXXXXXXXX.XXXXXXXXXXXXXXXXXXXX.XXXXXXXXXXXXXXXXXXXX.                    .                    .                    .                    .                    .",
".                    .                    .                    .                    .                    .                    .                    .                    .                    .                    .                    .                    .XXXXXXXXXXXXXXXXXXXX.XXXXXXXXXXXXXXXXXXXX.XXXXXXXXXXXXXXXXXXXX.XXXXXXXXXXXXXXXXXXXX.XXXXXXXXXXXXXXXXXXXX.                    .                    .                    .                    .                    .",
".                    .                    .                    .                    .                    .                    .                    .                    .                    .                    .                    .                    .XXXXXXXXXXXXXXXXXXXX.XXXXXXXXXXXXXXXXXXXX.XXXXXXXXXXXXXXXXXXXX.XXXXXXXXXXXXXXXXXXXX.XXXXXXXXXXXXXXXXXXXX.                    .                    .                    .                    .                    .",
".                    .                    .                    .                    .                    .                    .                    .                    .                    .                    .                    .                    .XXXXXXXXXXXXXXXXXXXX.XXXXXXXXXXXXXXXXXXXX.XXXXXXXXXXXXXXXXXXXX.XXXXXXXXXXXXXXXXXXXX.XXXXXXXXXXXXXXXXXXXX.                    .                    .                    .                    .                    .",
".                    .                    .                    .                    .                    .                    .                    .                    .                    .                    .                    .                    .XXXXXXXXXXXXXXXXXXXX.XXXXXXXXXXXXXXXXXXXX.XXXXXXXXXXXXXXXXXXXX.XXXXXXXXXXXXXXXXXXXX.XXXXXXXXXXXXXXXXXXXX.                    .                    .                    .                    .                    .",
".                    .                    .                    .                    .                    .                    .                    .                    .                    .                    .                    .                    .XXXXXXXXXXXXXXXXXXXX.XXXXXXXXXXXXXXXXXXXX.XXXXXXXXXXXXXXXXXXXX.XXXXXXXXXXXXXXXXXXXX.XXXXXXXXXXXXXXXXXXXX.                    .                    .                    .                    .                    .",
".                    .                    .                    .                    .                    .                    .                    .                    .                    .                    .                    .                    .XXXXXXXXXXXXXXXXXXXX.XXXXXXXXXXXXXXXXXXXX.XXXXXXXXXXXXXXXXXXXX.XXXXXXXXXXXXXXXXXXXX.XXXXXXXXXXXXXXXXXXXX.                    .                    .                    .                    .                    .",
".                    .                    .                    .                    .                    .                    .                    .                    .                    .                    .                    .                    .XXXXXXXXXXXXXXXXXXXX.XXXXXXXXXXXXXXXXXXXX.XXXXXXXXXXXXXXXXXXXX.XXXXXXXXXXXXXXXXXXXX.XXXXXXXXXXXXXXXXXXXX.                    .                    .                    .                    .                    .",
".                    .                    .                    .                    .                    .                    .                    .                    .                    .                    .                    .                    .XXXXXXXXXXXXXXXXXXXX.XXXXXXXXXXXXXXXXXXXX.XXXXXXXXXXXXXXXXXXXX.XXXXXXXXXXXXXXXXXXXX.XXXXXXXXXXXXXXXXXXXX.                    .                    .                    .                    .                    .",
".                    .                    .                    .                    .                    .                    .                    .                    .                    .                    .                    .                    .XXXXXXXXXXXXXXXXXXXX.XXXXXXXXXXXXXXXXXXXX.XXXXXXXXXXXXXXXXXXXX.XXXXXXXXXXXXXXXXXXXX.XXXXXXXXXXXXXXXXXXXX.                    .                    .                    .                    .                    .",
".                    .                    .                    .                    .                    .                    .                    .                    .                    .                    .                    .                    .XXXXXXXXXXXXXXXXXXXX.XXXXXXXXXXXXXXXXXXXX.XXXXXXXXXXXXXXXXXXXX.XXXXXXXXXXXXXXXXXXXX.XXXXXXXXXXXXXXXXXXXX.                    .                    .                    .                    .                    .",
".                    .                    .                    .                    .                    .                    .                    .                    .                    .                    .                    .                    .XXXXXXXXXXXXXXXXXXXX.XXXXXXXXXXXXXXXXXXXX.XXXXXXXXXXXXXXXXXXXX.XXXXXXXXXXXXXXXXXXXX.XXXXXXXXXXXXXXXXXXXX.                    .                    .                    .                    .                    .",
".                    .                    .                    .                    .                    .                    .                    .                    .                    .                    .                    .                    .XXXXXXXXXXXXXXXXXXXX.XXXXXXXXXXXXXXXXXXXX.XXXXXXXXXXXXXXXXXXXX.XXXXXXXXXXXXXXXXXXXX.XXXXXXXXXXXXXXXXXXXX.                    .                    .                    .                    .                    .",
".                    .                    .                    .                    .                    .                    .                    .                    .                    .                    .                    .                    .XXXXXXXXXXXXXXXXXXXX.XXXXXXXXXXXXXXXXXXXX.XXXXXXXXXXXXXXXXXXXX.XXXXXXXXXXXXXXXXXXXX.XXXXXXXXXXXXXXXXXXXX.                    .                    .                    .                    .                    .",
".                    .                    .                    .                    .                    .                    .                    .                    .                    .                    .                    .                    .XXXXXXXXXXXXXXXXXXXX.XXXXXXXXXXXXXXXXXXXX.XXXXXXXXXXXXXXXXXXXX.XXXXXXXXXXXXXXXXXXXX.XXXXXXXXXXXXXXXXXXXX.                    .                    .                    .                    .                    .",
".                    .                    .                    .                    .                    .                    .                    .                    .                    .                    .                    .                    .XXXXXXXXXXXXXXXXXXXX.XXXXXXXXXXXXXXXXXXXX.XXXXXXXXXXXXXXXXXXXX.XXXXXXXXXXXXXXXXXXXX.XXXXXXXXXXXXXXXXXXXX.                    .                    .                    .                    .                    .",
".                    .                    .                    .                    .                    .                    .                    .                    .                    .                    .                    .                    .XXXXXXXXXXXXXXXXXXXX.XXXXXXXXXXXXXXXXXXXX.XXXXXXXXXXXXXXXXXXXX.XXXXXXXXXXXXXXXXXXXX.XXXXXXXXXXXXXXXXXXXX.                    .                    .                    .                    .                    .",
"...............................................................................................................................................................................................................................................................................................................................................................................................................................................................................",
".                    .                    .                    .                    .                    .                    .                    .                    .                    .                    .                    .                    .XXXXXXXXXXXXXXXXXXXX.XXXXXXXXXXXXXXXXXXXX.XXXXXXXXXXXXXXXXXXXX.XXXXXXXXXXXXXXXXXXXX.XXXXXXXXXXXXXXXXXXXX.XXXXXXXXXXXXXXXXXXXX.XXXXXXXXXXXXXXXXXXXX.XXXXXXXXXXXXXXXXXXXX.XXXXXXXXXXXXXXXXXXXX.                    .",
".                    .                    .                    .                    .                    .                    .                    .                    .                    .                    .                    .                    .XXXXXXXXXXXXXXXXXXXX.XXXXXXXXXXXXXXXXXXXX.XXXXXXXXXXXXXXXXXXXX.XXXXXXXXXXXXXXXXXXXX.XXXXXXXXXXXXXXXXXXXX.XXXXXXXXXXXXXXXXXXXX.XXXXXXXXXXXXXXXXXXXX.XXXXXXXXXXXXXXXXXXXX.XXXXXXXXXXXXXXXXXXXX.                    .",
".                    .                    .                    .                    .                    .                    .                    .                    .                    .                    .                    .                    .XXXXXXXXXXXXXXXXXXXX.XXXXXXXXXXXXXXXXXXXX.XXXXXXXXXXXXXXXXXXXX.XXXXXXXXXXXXXXXXXXXX.XXXXXXXXXXXXXXXXXXXX.XXXXXXXXXXXXXXXXXXXX.XXXXXXXXXXXXXXXXXXXX.XXXXXXXXXXXXXXXXXXXX.XXXXXXXXXXXXXXXXXXXX.                    .",
".                    .                    .                    .                    .                    .                    .                    .                    .                    .                    .                    .                    .XXXXXXXXXXXXXXXXXXXX.XXXXXXXXXXXXXXXXXXXX.XXXXXXXXXXXXXXXXXXXX.XXXXXXXXXXXXXXXXXXXX.XXXXXXXXXXXXXXXXXXXX.XXXXXXXXXXXXXXXXXXXX.XXXXXXXXXXXXXXXXXXXX.XXXXXXXXXXXXXXXXXXXX.XXXXXXXXXXXXXXXXXXXX.                    .",
".                    .                    .                    .                    .                    .                    .                    .                    .                    .                    .                    .                    .XXXXXXXXXXXXXXXXXXXX.XXXXXXXXXXXXXXXXXXXX.XXXXXXXXXXXXXXXXXXXX.XXXXXXXXXXXXXXXXXXXX.XXXXXXXXXXXXXXXXXXXX.XXXXXXXXXXXXXXXXXXXX.XXXXXXXXXXXXXXXXXXXX.XXXXXXXXXXXXXXXXXXXX.XXXXXXXXXXXXXXXXXXXX.                    .",
".                    .                    .                    .                    .                    .                    .                    .                    .                    .                    .                    .                    .XXXXXXXXXXXXXXXXXXXX.XXXXXXXXXXXXXXXXXXXX.XXXXXXXXXXXXXXXXXXXX.XXXXXXXXXXXXXXXXXXXX.XXXXXXXXXXXXXXXXXXXX.XXXXXXXXXXXXXXXXXXXX.XXXXXXXXXXXXXXXXXXXX.XXXXXXXXXXXXXXXXXXXX.XXXXXXXXXXXXXXXXXXXX.                    .",
".                    .                    .                    .                    .                    .                    .                    .                    .                    .                    .                    .                    .XXXXXXXXXXXXXXXXXXXX.XXXXXXXXXXXXXXXXXXXX.XXXXXXXXXXXXXXXXXXXX.XXXXXXXXXXXXXXXXXXXX.XXXXXXXXXXXXXXXXXXXX.XXXXXXXXXXXXXXXXXXXX.XXXXXXXXXXXXXXXXXXXX.XXXXXXXXXXXXXXXXXXXX.XXXXXXXXXXXXXXXXXXXX.                    .",
".                    .                    .                    .                    .                    .                    .                    .                    .                    .                    .                    .                    .XXXXXXXXXXXXXXXXXXXX.XXXXXXXXXXXXXXXXXXXX.XXXXXXXXXXXXXXXXXXXX.XXXXXXXXXXXXXXXXXXXX.XXXXXXXXXXXXXXXXXXXX.XXXXXXXXXXXXXXXXXXXX.XXXXXXXXXXXXXXXXXXXX.XXXXXXXXXXXXXXXXXXXX.XXXXXXXXXXXXXXXXXXXX.                    .",
".                    .                    .                    .                    .                    .                    .                    .                    .                    .                    .                    .                    .XXXXXXXXXXXXXXXXXXXX.XXXXXXXXXXXXXXXXXXXX.XXXXXXXXXXXXXXXXXXXX.XXXXXXXXXXXXXXXXXXXX.XXXXXXXXXXXXXXXXXXXX.XXXXXXXXXXXXXXXXXXXX.XXXXXXXXXXXXXXXXXXXX.XXXXXXXXXXXXXXXXXXXX.XXXXXXXXXXXXXXXXXXXX.                    .",
".                    .                    .                    .                    .                    .                    .                    .                    .                    .                    .                    .                    .XXXXXXXXXXXXXXXXXXXX.XXXXXXXXXXXXXXXXXXXX.XXXXXXXXXXXXXXXXXXXX.XXXXXXXXXXXXXXXXXXXX.XXXXXXXXXXXXXXXXXXXX.XXXXXXXXXXXXXXXXXXXX.XXXXXXXXXXXXXXXXXXXX.XXXXXXXXXXXXXXXXXXXX.XXXXXXXXXXXXXXXXXXXX.                    .",
".                    .                    .                    .                    .                    .                    .                    .                    .                    .                    .                    .                    .XXXXXXXXXXXXXXXXXXXX.XXXXXXXXXXXXXXXXXXXX.XXXXXXXXXXXXXXXXXXXX.XXXXXXXXXXXXXXXXXXXX.XXXXXXXXXXXXXXXXXXXX.XXXXXXXXXXXXXXXXXXXX.XXXXXXXXXXXXXXXXXXXX.XXXXXXXXXXXXXXXXXXXX.XXXXXXXXXXXXXXXXXXXX.                    .",
".                    .                    .                    .                    .                    .                    .                    .                    .                    .                    .                    .                    .XXXXXXXXXXXXXXXXXXXX.XXXXXXXXXXXXXXXXXXXX.XXXXXXXXXXXXXXXXXXXX.XXXXXXXXXXXXXXXXXXXX.XXXXXXXXXXXXXXXXXXXX.XXXXXXXXXXXXXXXXXXXX.XXXXXXXXXXXXXXXXXXXX.XXXXXXXXXXXXXXXXXXXX.XXXXXXXXXXXXXXXXXXXX.                    .",
".                    .                    .                    .                    .                    .                    .                    .                    .                    .                    .                    .                    .XXXXXXXXXXXXXXXXXXXX.XXXXXXXXXXXXXXXXXXXX.XXXXXXXXXXXXXXXXXXXX.XXXXXXXXXXXXXXXXXXXX.XXXXXXXXXXXXXXXXXXXX.XXXXXXXXXXXXXXXXXXXX.XXXXXXXXXXXXXXXXXXXX.XXXXXXXXXXXXXXXXXXXX.XXXXXXXXXXXXXXXXXXXX.                    .",
".                    .                    .                    .                    .                    .                    .                    .                    .                    .                    .                    .                    .XXXXXXXXXXXXXXXXXXXX.XXXXXXXXXXXXXXXXXXXX.XXXXXXXXXXXXXXXXXXXX.XXXXXXXXXXXXXXXXXXXX.XXXXXXXXXXXXXXXXXXXX.XXXXXXXXXXXXXXXXXXXX.XXXXXXXXXXXXXXXXXXXX.XXXXXXXXXXXXXXXXXXXX.XXXXXXXXXXXXXXXXXXXX.                    .",
".                    .                    .                    .                    .                    .                    .                    .                    .                    .                    .                    .                    .XXXXXXXXXXXXXXXXXXXX.XXXXXXXXXXXXXXXXXXXX.XXXXXXXXXXXXXXXXXXXX.XXXXXXXXXXXXXXXXXXXX.XXXXXXXXXXXXXXXXXXXX.XXXXXXXXXXXXXXXXXXXX.XXXXXXXXXXXXXXXXXXXX.XXXXXXXXXXXXXXXXXXXX.XXXXXXXXXXXXXXXXXXXX.                    .",
".                    .                    .                    .                    .                    .                    .                    .                    .                    .                    .                    .                    .XXXXXXXXXXXXXXXXXXXX.XXXXXXXXXXXXXXXXXXXX.XXXXXXXXXXXXXXXXXXXX.XXXXXXXXXXXXXXXXXXXX.XXXXXXXXXXXXXXXXXXXX.XXXXXXXXXXXXXXXXXXXX.XXXXXXXXXXXXXXXXXXXX.XXXXXXXXXXXXXXXXXXXX.XXXXXXXXXXXXXXXXXXXX.                    .",
".                    .                    .                    .                    .                    .                    .                    .                    .                    .                    .                    .                    .XXXXXXXXXXXXXXXXXXXX.XXXXXXXXXXXXXXXXXXXX.XXXXXXXXXXXXXXXXXXXX.XXXXXXXXXXXXXXXXXXXX.XXXXXXXXXXXXXXXXXXXX.XXXXXXXXXXXXXXXXXXXX.XXXXXXXXXXXXXXXXXXXX.XXXXXXXXXXXXXXXXXXXX.XXXXXXXXXXXXXXXXXXXX.                    .",
".                    .                    .                    .                    .                    .                    .                    .                    .                    .                    .                    .                    .XXXXXXXXXXXXXXXXXXXX.XXXXXXXXXXXXXXXXXXXX.XXXXXXXXXXXXXXXXXXXX.XXXXXXXXXXXXXXXXXXXX.XXXXXXXXXXXXXXXXXXXX.XXXXXXXXXXXXXXXXXXXX.XXXXXXXXXXXXXXXXXXXX.XXXXXXXXXXXXXXXXXXXX.XXXXXXXXXXXXXXXXXXXX.                    .",
".                    .                    .                    .                    .                    .                    .                    .                    .                    .                    .                    .                    .XXXXXXXXXXXXXXXXXXXX.XXXXXXXXXXXXXXXXXXXX.XXXXXXXXXXXXXXXXXXXX.XXXXXXXXXXXXXXXXXXXX.XXXXXXXXXXXXXXXXXXXX.XXXXXXXXXXXXXXXXXXXX.XXXXXXXXXXXXXXXXXXXX.XXXXXXXXXXXXXXXXXXXX.XXXXXXXXXXXXXXXXXXXX.                    .",
".                    .                    .                    .                    .                    .                    .                    .                    .                    .                    .                    .                    .XXXXXXXXXXXXXXXXXXXX.XXXXXXXXXXXXXXXXXXXX.XXXXXXXXXXXXXXXXXXXX.XXXXXXXXXXXXXXXXXXXX.XXXXXXXXXXXXXXXXXXXX.XXXXXXXXXXXXXXXXXXXX.XXXXXXXXXXXXXXXXXXXX.XXXXXXXXXXXXXXXXXXXX.XXXXXXXXXXXXXXXXXXXX.                    .",
"...............................................................................................................................................................................................................................................................................................................................................................................................................................................................................",
".                    .                    .                    .                    .                    .                    .                    .                    .                    .                    .                    .XXXXXXXXXXXXXXXXXXXX.XXXXXXXXXXXXXXXXXXXX.XXXXXXXXXXXXXXXXXXXX.XXXXXXXXXXXXXXXXXXXX.XXXXXXXXXXXXXXXXXXXX.                    .                    .                    .                    .                    .                    .",
".                    .                    .                    .                    .                    .                    .                    .                    .                    .                    .                    .XXXXXXXXXXXXXXXXXXXX.XXXXXXXXXXXXXXXXXXXX.XXXXXXXXXXXXXXXXXXXX.XXXXXXXXXXXXXXXXXXXX.XXXXXXXXXXXXXXXXXXXX.                    .                    .                    .                    .                    .                    .",
".                    .                    .                    .                    .                    .                    .                    .                    .                    .                    .                    .XXXXXXXXXXXXXXXXXXXX.XXXXXXXXXXXXXXXXXXXX.XXXXXXXXXXXXXXXXXXXX.XXXXXXXXXXXXXXXXXXXX.XXXXXXXXXXXXXXXXXXXX.                    .                    .                    .                    .                    .                    .",
".                    .                    .                    .                    .                    .                    .                    .                    .                    .                    .                    .XXXXXXXXXXXXXXXXXXXX.XXXXXXXXXXXXXXXXXXXX.XXXXXXXXXXXXXXXXXXXX.XXXXXXXXXXXXXXXXXXXX.XXXXXXXXXXXXXXXXXXXX.                    .                    .                    .                    .                    .                    .",
".                    .                    .                    .                    .                    .                    .                    .                    .                    .                    .                    .XXXXXXXXXXXXXXXXXXXX.XXXXXXXXXXXXXXXXXXXX.XXXXXXXXXXXXXXXXXXXX.XXXXXXXXXXXXXXXXXXXX.XXXXXXXXXXXXXXXXXXXX.                    .                    .                    .                    .                    .                    .",
".                    .                    .                    .                    .                    .                    .                    .                    .                    .                    .                    .XXXXXXXXXXXXXXXXXXXX.XXXXXXXXXXXXXXXXXXXX.XXXXXXXXXXXXXXXXXXXX.XXXXXXXXXXXXXXXXXXXX.XXXXXXXXXXXXXXXXXXXX.                    .                    .                    .                    .                    .                    .",
".                    .                    .                    .                    .                    .                    .                    .                    .                    .                    .                    .XXXXXXXXXXXXXXXXXXXX.XXXXXXXXXXXXXXXXXXXX.XXXXXXXXXXXXXXXXXXXX.XXXXXXXXXXXXXXXXXXXX.XXXXXXXXXXXXXXXXXXXX.                    .                    .                    .                    .                    .                    .",
".                    .                    .                    .                    .                    .                    .                    .                    .                    .                    .                    .XXXXXXXXXXXXXXXXXXXX.XXXXXXXXXXXXXXXXXXXX.XXXXXXXXXXXXXXXXXXXX.XXXXXXXXXXXXXXXXXXXX.XXXXXXXXXXXXXXXXXXXX.                    .                    .                    .                    .                    .                    .",
".                    .                    .                    .                    .                    .                    .                    .                    .                    .                    .                    .XXXXXXXXXXXXXXXXXXXX.XXXXXXXXXXXXXXXXXXXX.XXXXXXXXXXXXXXXXXXXX.XXXXXXXXXXXXXXXXXXXX.XXXXXXXXXXXXXXXXXXXX.                    .                    .                    .                    .                    .                    .",
".                    .                    .                    .                    .                    .                    .                    .                    .                    .                    .                    .XXXXXXXXXXXXXXXXXXXX.XXXXXXXXXXXXXXXXXXXX.XXXXXXXXXXXXXXXXXXXX.XXXXXXXXXXXXXXXXXXXX.XXXXXXXXXXXXXXXXXXXX.                    .                    .                    .                    .                    .                    .",
".                    .                    .                    .                    .                    .                    .                    .                    .                    .                    .                    .XXXXXXXXXXXXXXXXXXXX.XXXXXXXXXXXXXXXXXXXX.XXXXXXXXXXXXXXXXXXXX.XXXXXXXXXXXXXXXXXXXX.XXXXXXXXXXXXXXXXXXXX.                    .                    .                    .                    .                    .                    .",
".                    .                    .                    .                    .                    .                    .                    .                    .                    .                    .                    .XXXXXXXXXXXXXXXXXXXX.XXXXXXXXXXXXXXXXXXXX.XXXXXXXXXXXXXXXXXXXX.XXXXXXXXXXXXXXXXXXXX.XXXXXXXXXXXXXXXXXXXX.                    .                    .                    .                    .                    .                    .",
".                    .                    .                    .                    .                    .                    .                    .                    .                    .                    .                    .XXXXXXXXXXXXXXXXXXXX.XXXXXXXXXXXXXXXXXXXX.XXXXXXXXXXXXXXXXXXXX.XXXXXXXXXXXXXXXXXXXX.XXXXXXXXXXXXXXXXXXXX.                    .                    .                    .                    .                    .                    .",
".                    .                    .                    .                    .                    .                    .                    .                    .                    .                    .                    .XXXXXXXXXXXXXXXXXXXX.XXXXXXXXXXXXXXXXXXXX.XXXXXXXXXXXXXXXXXXXX.XXXXXXXXXXXXXXXXXXXX.XXXXXXXXXXXXXXXXXXXX.                    .                    .                    .                    .                    .                    .",
".                    .                    .                    .                    .                    .                    .                    .                    .                    .                    .                    .XXXXXXXXXXXXXXXXXXXX.XXXXXXXXXXXXXXXXXXXX.XXXXXXXXXXXXXXXXXXXX.XXXXXXXXXXXXXXXXXXXX.XXXXXXXXXXXXXXXXXXXX.                    .                    .                    .                    .                    .                    .",
".                    .                    .                    .                    .                    .                    .                    .                    .                    .                    .                    .XXXXXXXXXXXXXXXXXXXX.XXXXXXXXXXXXXXXXXXXX.XXXXXXXXXXXXXXXXXXXX.XXXXXXXXXXXXXXXXXXXX.XXXXXXXXXXXXXXXXXXXX.                    .                    .                    .                    .                    .                    .",
".                    .                    .                    .                    .                    .                    .                    .                    .                    .                    .                    .XXXXXXXXXXXXXXXXXXXX.XXXXXXXXXXXXXXXXXXXX.XXXXXXXXXXXXXXXXXXXX.XXXXXXXXXXXXXXXXXXXX.XXXXXXXXXXXXXXXXXXXX.                    .                    .                    .                    .                    .                    .",
".                    .                    .                    .                    .                    .                    .                    .                    .                    .                    .                    .XXXXXXXXXXXXXXXXXXXX.XXXXXXXXXXXXXXXXXXXX.XXXXXXXXXXXXXXXXXXXX.XXXXXXXXXXXXXXXXXXXX.XXXXXXXXXXXXXXXXXXXX.                    .                    .                    .                    .                    .                    .",
".                    .                    .                    .                    .                    .                    .                    .                    .                    .                    .                    .XXXXXXXXXXXXXXXXXXXX.XXXXXXXXXXXXXXXXXXXX.XXXXXXXXXXXXXXXXXXXX.XXXXXXXXXXXXXXXXXXXX.XXXXXXXXXXXXXXXXXXXX.                    .                    .                    .                    .                    .                    .",
".                    .                    .                    .                    .                    .                    .                    .                    .                    .                    .                    .XXXXXXXXXXXXXXXXXXXX.XXXXXXXXXXXXXXXXXXXX.XXXXXXXXXXXXXXXXXXXX.XXXXXXXXXXXXXXXXXXXX.XXXXXXXXXXXXXXXXXXXX.                    .                    .                    .                    .                    .                    .",
"...............................................................................................................................................................................................................................................................................................................................................................................................................................................................................",
".                    .                    .                    .                    .                    .                    .                    .                    .                    .                    .XXXXXXXXXXXXXXXXXXXX.XXXXXXXXXXXXXXXXXXXX.XXXXXXXXXXXXXXXXXXXX.XXXXXXXXXXXXXXXXXXXX.XXXXXXXXXXXXXXXXXXXX.XXXXXXXXXXXXXXXXXXXX.                    .                    .                    .                    .                    .                    .",
".                    .                    .                    .                    .                    .                    .                    .                    .                    .                    .XXXXXXXXXXXXXXXXXXXX.XXXXXXXXXXXXXXXXXXXX.XXXXXXXXXXXXXXXXXXXX.XXXXXXXXXXXXXXXXXXXX.XXXXXXXXXXXXXXXXXXXX.XXXXXXXXXXXXXXXXXXXX.                    .                    .                    .                    .                    .                    .",
".                    .                    .                    .                    .                    .                    .                    .                    .                    .                    .XXXXXXXXXXXXXXXXXXXX.XXXXXXXXXXXXXXXXXXXX.XXXXXXXXXXXXXXXXXXXX.XXXXXXXXXXXXXXXXXXXX.XXXXXXXXXXXXXXXXXXXX.XXXXXXXXXXXXXXXXXXXX.                    .                    .                    .                    .                    .                    .",
".                    .                    .                    .                    .                    .                    .                    .                    .                    .                    .XXXXXXXXXXXXXXXXXXXX.XXXXXXXXXXXXXXXXXXXX.XXXXXXXXXXXXXXXXXXXX.XXXXXXXXXXXXXXXXXXXX.XXXXXXXXXXXXXXXXXXXX.XXXXXXXXXXXXXXXXXXXX.                    .                    .                    .                    .                    .                    .",
".                    .                    .                    .                    .                    .                    .                    .                    .                    .                    .XXXXXXXXXXXXXXXXXXXX.XXXXXXXXXXXXXXXXXXXX.XXXXXXXXXXXXXXXXXXXX.XXXXXXXXXXXXXXXXXXXX.XXXXXXXXXXXXXXXXXXXX.XXXXXXXXXXXXXXXXXXXX.                    .                    .                    .                    .                    .                    .",
".                    .                    .                    .                    .                    .                    .                    .                    .                    .                    .XXXXXXXXXXXXXXXXXXXX.XXXXXXXXXXXXXXXXXXXX.XXXXXXXXXXXXXXXXXXXX.XXXXXXXXXXXXXXXXXXXX.XXXXXXXXXXXXXXXXXXXX.XXXXXXXXXXXXXXXXXXXX.                    .                    .                    .                    .                    .                    .",
".                    .                    .                    .                    .                    .                    .                    .                    .                    .                    .XXXXXXXXXXXXXXXXXXXX.XXXXXXXXXXXXXXXXXXXX.XXXXXXXXXXXXXXXXXXXX.XXXXXXXXXXXXXXXXXXXX.XXXXXXXXXXXXXXXXXXXX.XXXXXXXXXXXXXXXXXXXX.                    .                    .                    .                    .                    .                    .",
".                    .                    .                    .                    .                    .                    .                    .                    .                    .                    .XXXXXXXXXXXXXXXXXXXX.XXXXXXXXXXXXXXXXXXXX.XXXXXXXXXXXXXXXXXXXX.XXXXXXXXXXXXXXXXXXXX.XXXXXXXXXXXXXXXXXXXX.XXXXXXXXXXXXXXXXXXXX.                    .                    .                    .                    .                    .                    .",
".                    .                    .                    .                    .                    .                    .                    .                    .                    .                    .XXXXXXXXXXXXXXXXXXXX.XXXXXXXXXXXXXXXXXXXX.XXXXXXXXXXXXXXXXXXXX.XXXXXXXXXXXXXXXXXXXX.XXXXXXXXXXXXXXXXXXXX.XXXXXXXXXXXXXXXXXXXX.                    .                    .                    .                    .                    .                    .",
".                    .                    .                    .                    .                    .                    .                    .                    .                    .                    .XXXXXXXXXXXXXXXXXXXX.XXXXXXXXXXXXXXXXXXXX.XXXXXXXXXXXXXXXXXXXX.XXXXXXXXXXXXXXXXXXXX.XXXXXXXXXXXXXXXXXXXX.XXXXXXXXXXXXXXXXXXXX.                    .                    .                    .                    .                    .                    .",
".                    .                    .                    .                    .                    .                    .                    .                    .                    .                    .XXXXXXXXXXXXXXXXXXXX.XXXXXXXXXXXXXXXXXXXX.XXXXXXXXXXXXXXXXXXXX.XXXXXXXXXXXXXXXXXXXX.XXXXXXXXXXXXXXXXXXXX.XXXXXXXXXXXXXXXXXXXX.                    .                    .                    .                    .                    .                    .",
".                    .                    .                    .                    .                    .                    .                    .                    .                    .                    .XXXXXXXXXXXXXXXXXXXX.XXXXXXXXXXXXXXXXXXXX.XXXXXXXXXXXXXXXXXXXX.XXXXXXXXXXXXXXXXXXXX.XXXXXXXXXXXXXXXXXXXX.XXXXXXXXXXXXXXXXXXXX.                    .                    .                    .                    .                    .                    .",
".                    .                    .                    .                    .                    .                    .                    .                    .                    .                    .XXXXXXXXXXXXXXXXXXXX.XXXXXXXXXXXXXXXXXXXX.XXXXXXXXXXXXXXXXXXXX.XXXXXXXXXXXXXXXXXXXX.XXXXXXXXXXXXXXXXXXXX.XXXXXXXXXXXXXXXXXXXX.                    .                    .                    .                    .                    .                    .",
".                    .                    .                    .                    .                    .                    .                    .                    .                    .                    .XXXXXXXXXXXXXXXXXXXX.XXXXXXXXXXXXXXXXXXXX.XXXXXXXXXXXXXXXXXXXX.XXXXXXXXXXXXXXXXXXXX.XXXXXXXXXXXXXXXXXXXX.XXXXXXXXXXXXXXXXXXXX.                    .                    .                    .                    .                    .                    .",
".                    .                    .                    .                    .                    .                    .                    .                    .                    .                    .XXXXXXXXXXXXXXXXXXXX.XXXXXXXXXXXXXXXXXXXX.XXXXXXXXXXXXXXXXXXXX.XXXXXXXXXXXXXXXXXXXX.XXXXXXXXXXXXXXXXXXXX.XXXXXXXXXXXXXXXXXXXX.                    .                    .                    .                    .                    .                    .",
".                    .                    .                    .                    .                    .                    .                    .                    .                    .                    .XXXXXXXXXXXXXXXXXXXX.XXXXXXXXXXXXXXXXXXXX.XXXXXXXXXXXXXXXXXXXX.XXXXXXXXXXXXXXXXXXXX.XXXXXXXXXXXXXXXXXXXX.XXXXXXXXXXXXXXXXXXXX.                    .                    .                    .                    .                    .                    .",
".                    .                    .                    .                    .                    .                    .                    .                    .                    .                    .XXXXXXXXXXXXXXXXXXXX.XXXXXXXXXXXXXXXXXXXX.XXXXXXXXXXXXXXXXXXXX.XXXXXXXXXXXXXXXXXXXX.XXXXXXXXXXXXXXXXXXXX.XXXXXXXXXXXXXXXXXXXX.                    .                    .                    .                    .                    .                    .",
".                    .                    .                    .                    .                    .                    .                    .                    .                    .                    .XXXXXXXXXXXXXXXXXXXX.XXXXXXXXXXXXXXXXXXXX.XXXXXXXXXXXXXXXXXXXX.XXXXXXXXXXXXXXXXXXXX.XXXXXXXXXXXXXXXXXXXX.XXXXXXXXXXXXXXXXXXXX.                    .                    .                    .                    .                    .                    .",
".                    .                    .                    .                    .                    .                    .                    .                    .                    .                    .XXXXXXXXXXXXXXXXXXXX.XXXXXXXXXXXXXXXXXXXX.XXXXXXXXXXXXXXXXXXXX.XXXXXXXXXXXXXXXXXXXX.XXXXXXXXXXXXXXXXXXXX.XXXXXXXXXXXXXXXXXXXX.                    .                    .                    .                    .                    .                    .",
".                    .                    .                    .                    .                    .                    .                    .                    .                    .                    .XXXXXXXXXXXXXXXXXXXX.XXXXXXXXXXXXXXXXXXXX.XXXXXXXXXXXXXXXXXXXX.XXXXXXXXXXXXXXXXXXXX.XXXXXXXXXXXXXXXXXXXX.XXXXXXXXXXXXXXXXXXXX.                    .                    .                    .                    .                    .                    .",
"...............................................................................................................................................................................................................................................................................................................................................................................................................................................................................",
".                    .                    .XXXXXXXXXXXXXXXXXXXX.                    .                    .                    .                    .                    .                    .XXXXXXXXXXXXXXXXXXXX.XXXXXXXXXXXXXXXXXXXX.XXXXXXXXXXXXXXXXXXXX.XXXXXXXXXXXXXXXXXXXX.XXXXXXXXXXXXXXXXXXXX.XXXXXXXXXXXXXXXXXXXX.XXXXXXXXXXXXXXXXXXXX.                    .                    .                    .                    .                    .                    .",
".                    .                    .XXXXXXXXXXXXXXXXXXXX.                    .                    .                    .                    .                    .                    .XXXXXXXXXXXXXXXXXXXX.XXXXXXXXXXXXXXXXXXXX.XXXXXXXXXXXXXXXXXXXX.XXXXXXXXXXXXXXXXXXXX.XXXXXXXXXXXXXXXXXXXX.XXXXXXXXXXXXXXXXXXXX.XXXXXXXXXXXXXXXXXXXX.                    .                    .                    .                    .                    .                    .",
".                    .                    .XXXXXXXXXXXXXXXXXXXX.                    .                    .                    .                    .                    .                    .XXXXXXXXXXXXXXXXXXXX.XXXXXXXXXXXXXXXXXXXX.XXXXXXXXXXXXXXXXXXXX.XXXXXXXXXXXXXXXXXXXX.XXXXXXXXXXXXXXXXXXXX.XXXXXXXXXXXXXXXXXXXX.XXXXXXXXXXXXXXXXXXXX.                    .                    .                    .                    .                    .                    .",
".                    .                    .XXXXXXXXXXXXXXXXXXXX.                    .                    .                    .                    .                    .                    .XXXXXXXXXXXXXXXXXXXX.XXXXXXXXXXXXXXXXXXXX.XXXXXXXXXXXXXXXXXXXX.XXXXXXXXXXXXXXXXXXXX.XXXXXXXXXXXXXXXXXXXX.XXXXXXXXXXXXXXXXXXXX.XXXXXXXXXXXXXXXXXXXX.                    .                    .                    .                    .                    .                    .",
".                    .                    .XXXXXXXXXXXXXXXXXXXX.                    .                    .                    .                    .                    .                    .XXXXXXXXXXXXXXXXXXXX.XXXXXXXXXXXXXXXXXXXX.XXXXXXXXXXXXXXXXXXXX.XXXXXXXXXXXXXXXXXXXX.XXXXXXXXXXXXXXXXXXXX.XXXXXXXXXXXXXXXXXXXX.XXXXXXXXXXXXXXXXXXXX.                    .                    .                    .                    .                    .                    .",
".                    .                    .XXXXXXXXXXXXXXXXXXXX.                    .                    .                    .                    .                    .                    .XXXXXXXXXXXXXXXXXXXX.XXXXXXXXXXXXXXXXXXXX.XXXXXXXXXXXXXXXXXXXX.XXXXXXXXXXXXXXXXXXXX.XXXXXXXXXXXXXXXXXXXX.XXXXXXXXXXXXXXXXXXXX.XXXXXXXXXXXXXXXXXXXX.                    .                    .                    .                    .                    .                    .",
".                    .                    .XXXXXXXXXXXXXXXXXXXX.                    .                    .                    .                    .                    .                    .XXXXXXXXXXXXXXXXXXXX.XXXXXXXXXXXXXXXXXXXX.XXXXXXXXXXXXXXXXXXXX.XXXXXXXXXXXXXXXXXXXX.XXXXXXXXXXXXXXXXXXXX.XXXXXXXXXXXXXXXXXXXX.XXXXXXXXXXXXXXXXXXXX.                    .                    .                    .                    .                    .                    .",
".                    .                    .XXXXXXXXXXXXXXXXXXXX.                    .                    .                    .                    .                    .                    .XXXXXXXXXXXXXXXXXXXX.XXXXXXXXXXXXXXXXXXXX.XXXXXXXXXXXXXXXXXXXX.XXXXXXXXXXXXXXXXXXXX.XXXXXXXXXXXXXXXXXXXX.XXXXXXXXXXXXXXXXXXXX.XXXXXXXXXXXXXXXXXXXX.                    .                    .                    .                    .                    .                    .",
".                    .                    .XXXXXXXXXXXXXXXXXXXX.                    .                    .                    .                    .                    .                    .XXXXXXXXXXXXXXXXXXXX.XXXXXXXXXXXXXXXXXXXX.XXXXXXXXXXXXXXXXXXXX.XXXXXXXXXXXXXXXXXXXX.XXXXXXXXXXXXXXXXXXXX.XXXXXXXXXXXXXXXXXXXX.XXXXXXXXXXXXXXXXXXXX.                    .                    .                    .                    .                    .                    .",
".                    .                    .XXXXXXXXXXXXXXXXXXXX.                    .                    .                    .                    .                    .                    .XXXXXXXXXXXXXXXXXXXX.XXXXXXXXXXXXXXXXXXXX.XXXXXXXXXXXXXXXXXXXX.XXXXXXXXXXXXXXXXXXXX.XXXXXXXXXXXXXXXXXXXX.XXXXXXXXXXXXXXXXXXXX.XXXXXXXXXXXXXXXXXXXX.                    .                    .                    .                    .                    .                    .",
".                    .                    .XXXXXXXXXXXXXXXXXXXX.                    .                    .                    .                    .                    .                    .XXXXXXXXXXXXXXXXXXXX.XXXXXXXXXXXXXXXXXXXX.XXXXXXXXXXXXXXXXXXXX.XXXXXXXXXXXXXXXXXXXX.XXXXXXXXXXXXXXXXXXXX.XXXXXXXXXXXXXXXXXXXX.XXXXXXXXXXXXXXXXXXXX.                    .                    .                    .                    .                    .                    .",
".                    .                    .XXXXXXXXXXXXXXXXXXXX.                    .                    .                    .                    .                    .                    .XXXXXXXXXXXXXXXXXXXX.XXXXXXXXXXXXXXXXXXXX.XXXXXXXXXXXXXXXXXXXX.XXXXXXXXXXXXXXXXXXXX.XXXXXXXXXXXXXXXXXXXX.XXXXXXXXXXXXXXXXXXXX.XXXXXXXXXXXXXXXXXXXX.                    .                    .                    .                    .                    .                    .",
".                    .                    .XXXXXXXXXXXXXXXXXXXX.                    .                    .                    .                    .                    .                    .XXXXXXXXXXXXXXXXXXXX.XXXXXXXXXXXXXXXXXXXX.XXXXXXXXXXXXXXXXXXXX.XXXXXXXXXXXXXXXXXXXX.XXXXXXXXXXXXXXXXXXXX.XXXXXXXXXXXXXXXXXXXX.XXXXXXXXXXXXXXXXXXXX.                    .                    .                    .                    .                    .                    .",
".                    .                    .XXXXXXXXXXXXXXXXXXXX.                    .                    .                    .                    .                    .                    .XXXXXXXXXXXXXXXXXXXX.XXXXXXXXXXXXXXXXXXXX.XXXXXXXXXXXXXXXXXXXX.XXXXXXXXXXXXXXXXXXXX.XXXXXXXXXXXXXXXXXXXX.XXXXXXXXXXXXXXXXXXXX.XXXXXXXXXXXXXXXXXXXX.                    .                    .                    .                    .                    .                    .",
".                    .                    .XXXXXXXXXXXXXXXXXXXX.                    .                    .                    .                    .                    .                    .XXXXXXXXXXXXXXXXXXXX.XXXXXXXXXXXXXXXXXXXX.XXXXXXXXXXXXXXXXXXXX.XXXXXXXXXXXXXXXXXXXX.XXXXXXXXXXXXXXXXXXXX.XXXXXXXXXXXXXXXXXXXX.XXXXXXXXXXXXXXXXXXXX.                    .                    .                    .                    .                    .                    .",
".                    .                    .XXXXXXXXXXXXXXXXXXXX.                    .                    .                    .                    .                    .                    .XXXXXXXXXXXXXXXXXXXX.XXXXXXXXXXXXXXXXXXXX.XXXXXXXXXXXXXXXXXXXX.XXXXXXXXXXXXXXXXXXXX.XXXXXXXXXXXXXXXXXXXX.XXXXXXXXXXXXXXXXXXXX.XXXXXXXXXXXXXXXXXXXX.                    .                    .                    .                    .                    .                    .",
".                    .                    .XXXXXXXXXXXXXXXXXXXX.                    .                    .                    .                    .                    .                    .XXXXXXXXXXXXXXXXXXXX.XXXXXXXXXXXXXXXXXXXX.XXXXXXXXXXXXXXXXXXXX.XXXXXXXXXXXXXXXXXXXX.XXXXXXXXXXXXXXXXXXXX.XXXXXXXXXXXXXXXXXXXX.XXXXXXXXXXXXXXXXXXXX.                    .                    .                    .                    .                    .                    .",
".                    .                    .XXXXXXXXXXXXXXXXXXXX.                    .                    .                    .                    .                    .                    .XXXXXXXXXXXXXXXXXXXX.XXXXXXXXXXXXXXXXXXXX.XXXXXXXXXXXXXXXXXXXX.XXXXXXXXXXXXXXXXXXXX.XXXXXXXXXXXXXXXXXXXX.XXXXXXXXXXXXXXXXXXXX.XXXXXXXXXXXXXXXXXXXX.                    .                    .                    .                    .                    .                    .",
".                    .                    .XXXXXXXXXXXXXXXXXXXX.                    .                    .                    .                    .                    .                    .XXXXXXXXXXXXXXXXXXXX.XXXXXXXXXXXXXXXXXXXX.XXXXXXXXXXXXXXXXXXXX.XXXXXXXXXXXXXXXXXXXX.XXXXXXXXXXXXXXXXXXXX.XXXXXXXXXXXXXXXXXXXX.XXXXXXXXXXXXXXXXXXXX.                    .                    .                    .                    .                    .                    .",
".                    .                    .XXXXXXXXXXXXXXXXXXXX.                    .                    .                    .                    .                    .                    .XXXXXXXXXXXXXXXXXXXX.XXXXXXXXXXXXXXXXXXXX.XXXXXXXXXXXXXXXXXXXX.XXXXXXXXXXXXXXXXXXXX.XXXXXXXXXXXXXXXXXXXX.XXXXXXXXXXXXXXXXXXXX.XXXXXXXXXXXXXXXXXXXX.                    .                    .                    .                    .                    .                    .",
"...............................................................................................................................................................................................................................................................................................................................................................................................................................................................................",
".                    .                    .XXXXXXXXXXXXXXXXXXXX.XXXXXXXXXXXXXXXXXXXX.                    .                    .                    .                    .XXXXXXXXXXXXXXXXXXXX.XXXXXXXXXXXXXXXXXXXX.XXXXXXXXXXXXXXXXXXXX.XXXXXXXXXXXXXXXXXXXX.XXXXXXXXXXXXXXXXXXXX.XXXXXXXXXXXXXXXXXXXX.XXXXXXXXXXXXXXXXXXXX.XXXXXXXXXXXXXXXXXXXX.XXXXXXXXXXXXXXXXXXXX.XXXXXXXXXXXXXXXXXXXX.                    .                    .                    .                    .",
".                    .                    .XXXXXXXXXXXXXXXXXXXX.XXXXXXXXXXXXXXXXXXXX.                    .                    .                    .                    .XXXXXXXXXXXXXXXXXXXX.XXXXXXXXXXXXXXXXXXXX.XXXXXXXXXXXXXXXXXXXX.XXXXXXXXXXXXXXXXXXXX.XXXXXXXXXXXXXXXXXXXX.XXXXXXXXXXXXXXXXXXXX.XXXXXXXXXXXXXXXXXXXX.XXXXXXXXXXXXXXXXXXXX.XXXXXXXXXXXXXXXXXXXX.XXXXXXXXXXXXXXXXXXXX.                    .                    .                    .                    .",
".                    .                    .XXXXXXXXXXXXXXXXXXXX.XXXXXXXXXXXXXXXXXXXX.                    .                    .                    .                    .XXXXXXXXXXXXXXXXXXXX.XXXXXXXXXXXXXXXXXXXX.XXXXXXXXXXXXXXXXXXXX.XXXXXXXXXXXXXXXXXXXX.XXXXXXXXXXXXXXXXXXXX.XXXXXXXXXXXXXXXXXXXX.XXXXXXXXXXXXXXXXXXXX.XXXXXXXXXXXXXXXXXXXX.XXXXXXXXXXXXXXXXXXXX.XXXXXXXXXXXXXXXXXXXX.                    .                    .                    .                    .",
".                    .                    .XXXXXXXXXXXXXXXXXXXX.XXXXXXXXXXXXXXXXXXXX.                    .                    .                    .                    .XXXXXXXXXXXXXXXXXXXX.XXXXXXXXXXXXXXXXXXXX.XXXXXXXXXXXXXXXXXXXX.XXXXXXXXXXXXXXXXXXXX.XXXXXXXXXXXXXXXXXXXX.XXXXXXXXXXXXXXXXXXXX.XXXXXXXXXXXXXXXXXXXX.XXXXXXXXXXXXXXXXXXXX.XXXXXXXXXXXXXXXXXXXX.XXXXXXXXXXXXXXXXXXXX.                    .                    .                    .                    .",
".                    .                    .XXXXXXXXXXXXXXXXXXXX.XXXXXXXXXXXXXXXXXXXX.                    .                    .                    .                    .XXXXXXXXXXXXXXXXXXXX.XXXXXXXXXXXXXXXXXXXX.XXXXXXXXXXXXXXXXXXXX.XXXXXXXXXXXXXXXXXXXX.XXXXXXXXXXXXXXXXXXXX.XXXXXXXXXXXXXXXXXXXX.XXXXXXXXXXXXXXXXXXXX.XXXXXXXXXXXXXXXXXXXX.XXXXXXXXXXXXXXXXXXXX.XXXXXXXXXXXXXXXXXXXX.                    .                    .                    .                    .",
".                    .                    .XXXXXXXXXXXXXXXXXXXX.XXXXXXXXXXXXXXXXXXXX.                    .                    .                    .                    .XXXXXXXXXXXXXXXXXXXX.XXXXXXXXXXXXXXXXXXXX.XXXXXXXXXXXXXXXXXXXX.XXXXXXXXXXXXXXXXXXXX.XXXXXXXXXXXXXXXXXXXX.XXXXXXXXXXXXXXXXXXXX.XXXXXXXXXXXXXXXXXXXX.XXXXXXXXXXXXXXXXXXXX.XXXXXXXXXXXXXXXXXXXX.XXXXXXXXXXXXXXXXXXXX.                    .                    .                    .                    .",
".                    .                    .XXXXXXXXXXXXXXXXXXXX.XXXXXXXXXXXXXXXXXXXX.                    .                    .                    .                    .XXXXXXXXXXXXXXXXXXXX.XXXXXXXXXXXXXXXXXXXX.XXXXXXXXXXXXXXXXXXXX.XXXXXXXXXXXXXXXXXXXX.XXXXXXXXXXXXXXXXXXXX.XXXXXXXXXXXXXXXXXXXX.XXXXXXXXXXXXXXXXXXXX.XXXXXXXXXXXXXXXXXXXX.XXXXXXXXXXXXXXXXXXXX.XXXXXXXXXXXXXXXXXXXX.                    .                    .                    .                    .",
".                    .                    .XXXXXXXXXXXXXXXXXXXX.XXXXXXXXXXXXXXXXXXXX.                    .                    .                    .                    .XXXXXXXXXXXXXXXXXXXX.XXXXXXXXXXXXXXXXXXXX.XXXXXXXXXXXXXXXXXXXX.XXXXXXXXXXXXXXXXXXXX.XXXXXXXXXXXXXXXXXXXX.XXXXXXXXXXXXXXXXXXXX.XXXXXXXXXXXXXXXXXXXX.XXXXXXXXXXXXXXXXXXXX.XXXXXXXXXXXXXXXXXXXX.XXXXXXXXXXXXXXXXXXXX.                    .                    .                    .                    .",
".                    .                    .XXXXXXXXXXXXXXXXXXXX.XXXXXXXXXXXXXXXXXXXX.                    .                    .                    .                    .XXXXXXXXXXXXXXXXXXXX.XXXXXXXXXXXXXXXXXXXX.XXXXXXXXXXXXXXXXXXXX.XXXXXXXXXXXXXXXXXXXX.XXXXXXXXXXXXXXXXXXXX.XXXXXXXXXXXXXXXXXXXX.XXXXXXXXXXXXXXXXXXXX.XXXXXXXXXXXXXXXXXXXX.XXXXXXXXXXXXXXXXXXXX.XXXXXXXXXXXXXXXXXXXX.                    .                    .                    .                    .",
".                    .                    .XXXXXXXXXXXXXXXXXXXX.XXXXXXXXXXXXXXXXXXXX.                    .                    .                    .                    .XXXXXXXXXXXXXXXXXXXX.XXXXXXXXXXXXXXXXXXXX.XXXXXXXXXXXXXXXXXXXX.XXXXXXXXXXXXXXXXXXXX.XXXXXXXXXXXXXXXXXXXX.XXXXXXXXXXXXXXXXXXXX.XXXXXXXXXXXXXXXXXXXX.XXXXXXXXXXXXXXXXXXXX.XXXXXXXXXXXXXXXXXXXX.XXXXXXXXXXXXXXXXXXXX.                    .                    .                    .                    .",
".                    .                    .XXXXXXXXXXXXXXXXXXXX.XXXXXXXXXXXXXXXXXXXX.                    .                    .                    .                    .XXXXXXXXXXXXXXXXXXXX.XXXXXXXXXXXXXXXXXXXX.XXXXXXXXXXXXXXXXXXXX.XXXXXXXXXXXXXXXXXXXX.XXXXXXXXXXXXXXXXXXXX.XXXXXXXXXXXXXXXXXXXX.XXXXXXXXXXXXXXXXXXXX.XXXXXXXXXXXXXXXXXXXX.XXXXXXXXXXXXXXXXXXXX.XXXXXXXXXXXXXXXXXXXX.                    .                    .                    .                    .",
".                    .                    .XXXXXXXXXXXXXXXXXXXX.XXXXXXXXXXXXXXXXXXXX.                    .                    .                    .                    .XXXXXXXXXXXXXXXXXXXX.XXXXXXXXXXXXXXXXXXXX.XXXXXXXXXXXXXXXXXXXX.XXXXXXXXXXXXXXXXXXXX.XXXXXXXXXXXXXXXXXXXX.XXXXXXXXXXXXXXXXXXXX.XXXXXXXXXXXXXXXXXXXX.XXXXXXXXXXXXXXXXXXXX.XXXXXXXXXXXXXXXXXXXX.XXXXXXXXXXXXXXXXXXXX.                    .                    .                    .                    .",
".                    .                    .XXXXXXXXXXXXXXXXXXXX.XXXXXXXXXXXXXXXXXXXX.                    .                    .                    .                    .XXXXXXXXXXXXXXXXXXXX.XXXXXXXXXXXXXXXXXXXX.XXXXXXXXXXXXXXXXXXXX.XXXXXXXXXXXXXXXXXXXX.XXXXXXXXXXXXXXXXXXXX.XXXXXXXXXXXXXXXXXXXX.XXXXXXXXXXXXXXXXXXXX.XXXXXXXXXXXXXXXXXXXX.XXXXXXXXXXXXXXXXXXXX.XXXXXXXXXXXXXXXXXXXX.                    .                    .                    .                    .",
".                    .                    .XXXXXXXXXXXXXXXXXXXX.XXXXXXXXXXXXXXXXXXXX.                    .                    .                    .                    .XXXXXXXXXXXXXXXXXXXX.XXXXXXXXXXXXXXXXXXXX.XXXXXXXXXXXXXXXXXXXX.XXXXXXXXXXXXXXXXXXXX.XXXXXXXXXXXXXXXXXXXX.XXXXXXXXXXXXXXXXXXXX.XXXXXXXXXXXXXXXXXXXX.XXXXXXXXXXXXXXXXXXXX.XXXXXXXXXXXXXXXXXXXX.XXXXXXXXXXXXXXXXXXXX.                    .                    .                    .                    .",
".                    .                    .XXXXXXXXXXXXXXXXXXXX.XXXXXXXXXXXXXXXXXXXX.                    .                    .                    .                    .XXXXXXXXXXXXXXXXXXXX.XXXXXXXXXXXXXXXXXXXX.XXXXXXXXXXXXXXXXXXXX.XXXXXXXXXXXXXXXXXXXX.XXXXXXXXXXXXXXXXXXXX.XXXXXXXXXXXXXXXXXXXX.XXXXXXXXXXXXXXXXXXXX.XXXXXXXXXXXXXXXXXXXX.XXXXXXXXXXXXXXXXXXXX.XXXXXXXXXXXXXXXXXXXX.                    .                    .                    .                    .",
".                    .                    .XXXXXXXXXXXXXXXXXXXX.XXXXXXXXXXXXXXXXXXXX.                    .                    .                    .                    .XXXXXXXXXXXXXXXXXXXX.XXXXXXXXXXXXXXXXXXXX.XXXXXXXXXXXXXXXXXXXX.XXXXXXXXXXXXXXXXXXXX.XXXXXXXXXXXXXXXXXXXX.XXXXXXXXXXXXXXXXXXXX.XXXXXXXXXXXXXXXXXXXX.XXXXXXXXXXXXXXXXXXXX.XXXXXXXXXXXXXXXXXXXX.XXXXXXXXXXXXXXXXXXXX.                    .                    .                    .                    .",
".                    .                    .XXXXXXXXXXXXXXXXXXXX.XXXXXXXXXXXXXXXXXXXX.                    .                    .                    .                    .XXXXXXXXXXXXXXXXXXXX.XXXXXXXXXXXXXXXXXXXX.XXXXXXXXXXXXXXXXXXXX.XXXXXXXXXXXXXXXXXXXX.XXXXXXXXXXXXXXXXXXXX.XXXXXXXXXXXXXXXXXXXX.XXXXXXXXXXXXXXXXXXXX.XXXXXXXXXXXXXXXXXXXX.XXXXXXXXXXXXXXXXXXXX.XXXXXXXXXXXXXXXXXXXX.                    .                    .                    .                    .",
".                    .                    .XXXXXXXXXXXXXXXXXXXX.XXXXXXXXXXXXXXXXXXXX.                    .                    .                    .                    .XXXXXXXXXXXXXXXXXXXX.XXXXXXXXXXXXXXXXXXXX.XXXXXXXXXXXXXXXXXXXX.XXXXXXXXXXXXXXXXXXXX.XXXXXXXXXXXXXXXXXXXX.XXXXXXXXXXXXXXXXXXXX.XXXXXXXXXXXXXXXXXXXX.XXXXXXXXXXXXXXXXXXXX.XXXXXXXXXXXXXXXXXXXX.XXXXXXXXXXXXXXXXXXXX.                    .                    .                    .                    .",
".                    .                    .XXXXXXXXXXXXXXXXXXXX.XXXXXXXXXXXXXXXXXXXX.                    .                    .                    .                    .XXXXXXXXXXXXXXXXXXXX.XXXXXXXXXXXXXXXXXXXX.XXXXXXXXXXXXXXXXXXXX.XXXXXXXXXXXXXXXXXXXX.XXXXXXXXXXXXXXXXXXXX.XXXXXXXXXXXXXXXXXXXX.XXXXXXXXXXXXXXXXXXXX.XXXXXXXXXXXXXXXXXXXX.XXXXXXXXXXXXXXXXXXXX.XXXXXXXXXXXXXXXXXXXX.                    .                    .                    .                    .",
".                    .                    .XXXXXXXXXXXXXXXXXXXX.XXXXXXXXXXXXXXXXXXXX.                    .                    .                    .                    .XXXXXXXXXXXXXXXXXXXX.XXXXXXXXXXXXXXXXXXXX.XXXXXXXXXXXXXXXXXXXX.XXXXXXXXXXXXXXXXXXXX.XXXXXXXXXXXXXXXXXXXX.XXXXXXXXXXXXXXXXXXXX.XXXXXXXXXXXXXXXXXXXX.XXXXXXXXXXXXXXXXXXXX.XXXXXXXXXXXXXXXXXXXX.XXXXXXXXXXXXXXXXXXXX.                    .                    .                    .                    .",
"...............................................................................................................................................................................................................................................................................................................................................................................................................................................................................",
".                    .                    .XXXXXXXXXXXXXXXXXXXX.XXXXXXXXXXXXXXXXXXXX.XXXXXXXXXXXXXXXXXXXX.                    .                    .XXXXXXXXXXXXXXXXXXXX.XXXXXXXXXXXXXXXXXXXX.XXXXXXXXXXXXXXXXXXXX.XXXXXXXXXXXXXXXXXXXX.XXXXXXXXXXXXXXXXXXXX.XXXXXXXXXXXXXXXXXXXX.XXXXXXXXXXXXXXXXXXXX.XXXXXXXXXXXXXXXXXXXX.XXXXXXXXXXXXXXXXXXXX.                    .XXXXXXXXXXXXXXXXXXXX.                    .                    .                    .                    .",
".                    .                    .XXXXXXXXXXXXXXXXXXXX.XXXXXXXXXXXXXXXXXXXX.XXXXXXXXXXXXXXXXXXXX.                    .                    .XXXXXXXXXXXXXXXXXXXX.XXXXXXXXXXXXXXXXXXXX.XXXXXXXXXXXXXXXXXXXX.XXXXXXXXXXXXXXXXXXXX.XXXXXXXXXXXXXXXXXXXX.XXXXXXXXXXXXXXXXXXXX.XXXXXXXXXXXXXXXXXXXX.XXXXXXXXXXXXXXXXXXXX.XXXXXXXXXXXXXXXXXXXX.                    .XXXXXXXXXXXXXXXXXXXX.                    .                    .                    .                    .",
".                    .                    .XXXXXXXXXXXXXXXXXXXX.XXXXXXXXXXXXXXXXXXXX.XXXXXXXXXXXXXXXXXXXX.                    .                    .XXXXXXXXXXXXXXXXXXXX.XXXXXXXXXXXXXXXXXXXX.XXXXXXXXXXXXXXXXXXXX.XXXXXXXXXXXXXXXXXXXX.XXXXXXXXXXXXXXXXXXXX.XXXXXXXXXXXXXXXXXXXX.XXXXXXXXXXXXXXXXXXXX.XXXXXXXXXXXXXXXXXXXX.XXXXXXXXXXXXXXXXXXXX.                    .XXXXXXXXXXXXXXXXXXXX.                    .                    .                    .                    .",
".                    .                    .XXXXXXXXXXXXXXXXXXXX.XXXXXXXXXXXXXXXXXXXX.XXXXXXXXXXXXXXXXXXXX.                    .                    .XXXXXXXXXXXXXXXXXXXX.XXXXXXXXXXXXXXXXXXXX.XXXXXXXXXXXXXXXXXXXX.XXXXXXXXXXXXXXXXXXXX.XXXXXXXXXXXXXXXXXXXX.XXXXXXXXXXXXXXXXXXXX.XXXXXXXXXXXXXXXXXXXX.XXXXXXXXXXXXXXXXXXXX.XXXXXXXXXXXXXXXXXXXX.                    .XXXXXXXXXXXXXXXXXXXX.                    .                    .                    .                    .",
".                    .                    .XXXXXXXXXXXXXXXXXXXX.XXXXXXXXXXXXXXXXXXXX.XXXXXXXXXXXXXXXXXXXX.                    .                    .XXXXXXXXXXXXXXXXXXXX.XXXXXXXXXXXXXXXXXXXX.XXXXXXXXXXXXXXXXXXXX.XXXXXXXXXXXXXXXXXXXX.XXXXXXXXXXXXXXXXXXXX.XXXXXXXXXXXXXXXXXXXX.XXXXXXXXXXXXXXXXXXXX.XXXXXXXXXXXXXXXXXXXX.XXXXXXXXXXXXXXXXXXXX.                    .XXXXXXXXXXXXXXXXXXXX.                    .                    .                    .                    .",
".                    .                    .XXXXXXXXXXXXXXXXXXXX.XXXXXXXXXXXXXXXXXXXX.XXXXXXXXXXXXXXXXXXXX.                    .                    .XXXXXXXXXXXXXXXXXXXX.XXXXXXXXXXXXXXXXXXXX.XXXXXXXXXXXXXXXXXXXX.XXXXXXXXXXXXXXXXXXXX.XXXXXXXXXXXXXXXXXXXX.XXXXXXXXXXXXXXXXXXXX.XXXXXXXXXXXXXXXXXXXX.XXXXXXXXXXXXXXXXXXXX.XXXXXXXXXXXXXXXXXXXX.                    .XXXXXXXXXXXXXXXXXXXX.                    .                    .                    .                    .",
".                    .                    .XXXXXXXXXXXXXXXXXXXX.XXXXXXXXXXXXXXXXXXXX.XXXXXXXXXXXXXXXXXXXX.                    .                    .XXXXXXXXXXXXXXXXXXXX.XXXXXXXXXXXXXXXXXXXX.XXXXXXXXXXXXXXXXXXXX.XXXXXXXXXXXXXXXXXXXX.XXXXXXXXXXXXXXXXXXXX.XXXXXXXXXXXXXXXXXXXX.XXXXXXXXXXXXXXXXXXXX.XXXXXXXXXXXXXXXXXXXX.XXXXXXXXXXXXXXXXXXXX.                    .XXXXXXXXXXXXXXXXXXXX.                    .                    .                    .                    .",
".                    .                    .XXXXXXXXXXXXXXXXXXXX.XXXXXXXXXXXXXXXXXXXX.XXXXXXXXXXXXXXXXXXXX.                    .                    .XXXXXXXXXXXXXXXXXXXX.XXXXXXXXXXXXXXXXXXXX.XXXXXXXXXXXXXXXXXXXX.XXXXXXXXXXXXXXXXXXXX.XXXXXXXXXXXXXXXXXXXX.XXXXXXXXXXXXXXXXXXXX.XXXXXXXXXXXXXXXXXXXX.XXXXXXXXXXXXXXXXXXXX.XXXXXXXXXXXXXXXXXXXX.                    .XXXXXXXXXXXXXXXXXXXX.                    .                    .                    .                    .",
".                    .                    .XXXXXXXXXXXXXXXXXXXX.XXXXXXXXXXXXXXXXXXXX.XXXXXXXXXXXXXXXXXXXX.                    .                    .XXXXXXXXXXXXXXXXXXXX.XXXXXXXXXXXXXXXXXXXX.XXXXXXXXXXXXXXXXXXXX.XXXXXXXXXXXXXXXXXXXX.XXXXXXXXXXXXXXXXXXXX.XXXXXXXXXXXXXXXXXXXX.XXXXXXXXXXXXXXXXXXXX.XXXXXXXXXXXXXXXXXXXX.XXXXXXXXXXXXXXXXXXXX.                    .XXXXXXXXXXXXXXXXXXXX.                    .                    .                    .                    .",
".                    .                    .XXXXXXXXXXXXXXXXXXXX.XXXXXXXXXXXXXXXXXXXX.XXXXXXXXXXXXXXXXXXXX.                    .                    .XXXXXXXXXXXXXXXXXXXX.XXXXXXXXXXXXXXXXXXXX.XXXXXXXXXXXXXXXXXXXX.XXXXXXXXXXXXXXXXXXXX.XXXXXXXXXXXXXXXXXXXX.XXXXXXXXXXXXXXXXXXXX.XXXXXXXXXXXXXXXXXXXX.XXXXXXXXXXXXXXXXXXXX.XXXXXXXXXXXXXXXXXXXX.                    .XXXXXXXXXXXXXXXXXXXX.                    .                    .                    .                    .",
".                    .                    .XXXXXXXXXXXXXXXXXXXX.XXXXXXXXXXXXXXXXXXXX.XXXXXXXXXXXXXXXXXXXX.                    .                    .XXXXXXXXXXXXXXXXXXXX.XXXXXXXXXXXXXXXXXXXX.XXXXXXXXXXXXXXXXXXXX.XXXXXXXXXXXXXXXXXXXX.XXXXXXXXXXXXXXXXXXXX.XXXXXXXXXXXXXXXXXXXX.XXXXXXXXXXXXXXXXXXXX.XXXXXXXXXXXXXXXXXXXX.XXXXXXXXXXXXXXXXXXXX.                    .XXXXXXXXXXXXXXXXXXXX.                    .                    .                    .                    .",
".                    .                    .XXXXXXXXXXXXXXXXXXXX.XXXXXXXXXXXXXXXXXXXX.XXXXXXXXXXXXXXXXXXXX.                    .                    .XXXXXXXXXXXXXXXXXXXX.XXXXXXXXXXXXXXXXXXXX.XXXXXXXXXXXXXXXXXXXX.XXXXXXXXXXXXXXXXXXXX.XXXXXXXXXXXXXXXXXXXX.XXXXXXXXXXXXXXXXXXXX.XXXXXXXXXXXXXXXXXXXX.XXXXXXXXXXXXXXXXXXXX.XXXXXXXXXXXXXXXXXXXX.                    .XXXXXXXXXXXXXXXXXXXX.                    .                    .                    .                    .",
".                    .                    .XXXXXXXXXXXXXXXXXXXX.XXXXXXXXXXXXXXXXXXXX.XXXXXXXXXXXXXXXXXXXX.                    .                    .XXXXXXXXXXXXXXXXXXXX.XXXXXXXXXXXXXXXXXXXX.XXXXXXXXXXXXXXXXXXXX.XXXXXXXXXXXXXXXXXXXX.XXXXXXXXXXXXXXXXXXXX.XXXXXXXXXXXXXXXXXXXX.XXXXXXXXXXXXXXXXXXXX.XXXXXXXXXXXXXXXXXXXX.XXXXXXXXXXXXXXXXXXXX.                    .XXXXXXXXXXXXXXXXXXXX.                    .                    .                    .                    .",
".                    .                    .XXXXXXXXXXXXXXXXXXXX.XXXXXXXXXXXXXXXXXXXX.XXXXXXXXXXXXXXXXXXXX.                    .                    .XXXXXXXXXXXXXXXXXXXX.XXXXXXXXXXXXXXXXXXXX.XXXXXXXXXXXXXXXXXXXX.XXXXXXXXXXXXXXXXXXXX.XXXXXXXXXXXXXXXXXXXX.XXXXXXXXXXXXXXXXXXXX.XXXXXXXXXXXXXXXXXXXX.XXXXXXXXXXXXXXXXXXXX.XXXXXXXXXXXXXXXXXXXX.                    .XXXXXXXXXXXXXXXXXXXX.                    .                    .                    .                    .",
".                    .                    .XXXXXXXXXXXXXXXXXXXX.XXXXXXXXXXXXXXXXXXXX.XXXXXXXXXXXXXXXXXXXX.                    .                    .XXXXXXXXXXXXXXXXXXXX.XXXXXXXXXXXXXXXXXXXX.XXXXXXXXXXXXXXXXXXXX.XXXXXXXXXXXXXXXXXXXX.XXXXXXXXXXXXXXXXXXXX.XXXXXXXXXXXXXXXXXXXX.XXXXXXXXXXXXXXXXXXXX.XXXXXXXXXXXXXXXXXXXX.XXXXXXXXXXXXXXXXXXXX.                    .XXXXXXXXXXXXXXXXXXXX.                    .                    .                    .                    .",
".                    .                    .XXXXXXXXXXXXXXXXXXXX.XXXXXXXXXXXXXXXXXXXX.XXXXXXXXXXXXXXXXXXXX.                    .                    .XXXXXXXXXXXXXXXXXXXX.XXXXXXXXXXXXXXXXXXXX.XXXXXXXXXXXXXXXXXXXX.XXXXXXXXXXXXXXXXXXXX.XXXXXXXXXXXXXXXXXXXX.XXXXXXXXXXXXXXXXXXXX.XXXXXXXXXXXXXXXXXXXX.XXXXXXXXXXXXXXXXXXXX.XXXXXXXXXXXXXXXXXXXX.                    .XXXXXXXXXXXXXXXXXXXX.                    .                    .                    .                    .",
".                    .                    .XXXXXXXXXXXXXXXXXXXX.XXXXXXXXXXXXXXXXXXXX.XXXXXXXXXXXXXXXXXXXX.                    .                    .XXXXXXXXXXXXXXXXXXXX.XXXXXXXXXXXXXXXXXXXX.XXXXXXXXXXXXXXXXXXXX.XXXXXXXXXXXXXXXXXXXX.XXXXXXXXXXXXXXXXXXXX.XXXXXXXXXXXXXXXXXXXX.XXXXXXXXXXXXXXXXXXXX.XXXXXXXXXXXXXXXXXXXX.XXXXXXXXXXXXXXXXXXXX.                    .XXXXXXXXXXXXXXXXXXXX.                    .                    .                    .                    .",
".                    .                    .XXXXXXXXXXXXXXXXXXXX.XXXXXXXXXXXXXXXXXXXX.XXXXXXXXXXXXXXXXXXXX.                    .                    .XXXXXXXXXXXXXXXXXXXX.XXXXXXXXXXXXXXXXXXXX.XXXXXXXXXXXXXXXXXXXX.XXXXXXXXXXXXXXXXXXXX.XXXXXXXXXXXXXXXXXXXX.XXXXXXXXXXXXXXXXXXXX.XXXXXXXXXXXXXXXXXXXX.XXXXXXXXXXXXXXXXXXXX.XXXXXXXXXXXXXXXXXXXX.                    .XXXXXXXXXXXXXXXXXXXX.                    .                    .                    .                    .",
".                    .                    .XXXXXXXXXXXXXXXXXXXX.XXXXXXXXXXXXXXXXXXXX.XXXXXXXXXXXXXXXXXXXX.                    .                    .XXXXXXXXXXXXXXXXXXXX.XXXXXXXXXXXXXXXXXXXX.XXXXXXXXXXXXXXXXXXXX.XXXXXXXXXXXXXXXXXXXX.XXXXXXXXXXXXXXXXXXXX.XXXXXXXXXXXXXXXXXXXX.XXXXXXXXXXXXXXXXXXXX.XXXXXXXXXXXXXXXXXXXX.XXXXXXXXXXXXXXXXXXXX.                    .XXXXXXXXXXXXXXXXXXXX.                    .                    .                    .                    .",
".                    .                    .XXXXXXXXXXXXXXXXXXXX.XXXXXXXXXXXXXXXXXXXX.XXXXXXXXXXXXXXXXXXXX.                    .                    .XXXXXXXXXXXXXXXXXXXX.XXXXXXXXXXXXXXXXXXXX.XXXXXXXXXXXXXXXXXXXX.XXXXXXXXXXXXXXXXXXXX.XXXXXXXXXXXXXXXXXXXX.XXXXXXXXXXXXXXXXXXXX.XXXXXXXXXXXXXXXXXXXX.XXXXXXXXXXXXXXXXXXXX.XXXXXXXXXXXXXXXXXXXX.                    .XXXXXXXXXXXXXXXXXXXX.                    .                    .                    .                    .",
"...............................................................................................................................................................................................................................................................................................................................................................................................................................................................................",
".                    .                    .XXXXXXXXXXXXXXXXXXXX.XXXXXXXXXXXXXXXXXXXX.XXXXXXXXXXXXXXXXXXXX.XXXXXXXXXXXXXXXXXXXX.XXXXXXXXXXXXXXXXXXXX.XXXXXXXXXXXXXXXXXXXX.XXXXXXXXXXXXXXXXXXXX.XXXXXXXXXXXXXXXXXXXX.XXXXXXXXXXXXXXXXXXXX.XXXXXXXXXXXXXXXXXXXX.XXXXXXXXXXXXXXXXXXXX.XXXXXXXXXXXXXXXXXXXX.XXXXXXXXXXXXXXXXXXXX.XXXXXXXXXXXXXXXXXXXX.                    .                    .                    .                    .                    .                    .",
".                    .                    .XXXXXXXXXXXXXXXXXXXX.XXXXXXXXXXXXXXXXXXXX.XXXXXXXXXXXXXXXXXXXX.XXXXXXXXXXXXXXXXXXXX.XXXXXXXXXXXXXXXXXXXX.XXXXXXXXXXXXXXXXXXXX.XXXXXXXXXXXXXXXXXXXX.XXXXXXXXXXXXXXXXXXXX.XXXXXXXXXXXXXXXXXXXX.XXXXXXXXXXXXXXXXXXXX.XXXXXXXXXXXXXXXXXXXX.XXXXXXXXXXXXXXXXXXXX.XXXXXXXXXXXXXXXXXXXX.XXXXXXXXXXXXXXXXXXXX.                    .                    .                    .                    .                    .                    .",
".                    .                    .XXXXXXXXXXXXXXXXXXXX.XXXXXXXXXXXXXXXXXXXX.XXXXXXXXXXXXXXXXXXXX.XXXXXXXXXXXXXXXXXXXX.XXXXXXXXXXXXXXXXXXXX.XXXXXXXXXXXXXXXXXXXX.XXXXXXXXXXXXXXXXXXXX.XXXXXXXXXXXXXXXXXXXX.XXXXXXXXXXXXXXXXXXXX.XXXXXXXXXXXXXXXXXXXX.XXXXXXXXXXXXXXXXXXXX.XXXXXXXXXXXXXXXXXXXX.XXXXXXXXXXXXXXXXXXXX.XXXXXXXXXXXXXXXXXXXX.                    .                    .                    .                    .                    .                    .",
".                    .                    .XXXXXXXXXXXXXXXXXXXX.XXXXXXXXXXXXXXXXXXXX.XXXXXXXXXXXXXXXXXXXX.XXXXXXXXXXXXXXXXXXXX.XXXXXXXXXXXXXXXXXXXX.XXXXXXXXXXXXXXXXXXXX.XXXXXXXXXXXXXXXXXXXX.XXXXXXXXXXXXXXXXXXXX.XXXXXXXXXXXXXXXXXXXX.XXXXXXXXXXXXXXXXXXXX.XXXXXXXXXXXXXXXXXXXX.XXXXXXXXXXXXXXXXXXXX.XXXXXXXXXXXXXXXXXXXX.XXXXXXXXXXXXXXXXXXXX.                    .                    .                    .                    .                    .                    .",
".                    .                    .XXXXXXXXXXXXXXXXXXXX.XXXXXXXXXXXXXXXXXXXX.XXXXXXXXXXXXXXXXXXXX.XXXXXXXXXXXXXXXXXXXX.XXXXXXXXXXXXXXXXXXXX.XXXXXXXXXXXXXXXXXXXX.XXXXXXXXXXXXXXXXXXXX.XXXXXXXXXXXXXXXXXXXX.XXXXXXXXXXXXXXXXXXXX.XXXXXXXXXXXXXXXXXXXX.XXXXXXXXXXXXXXXXXXXX.XXXXXXXXXXXXXXXXXXXX.XXXXXXXXXXXXXXXXXXXX.XXXXXXXXXXXXXXXXXXXX.                    .                    .                    .                    .                    .                    .",
".                    .                    .XXXXXXXXXXXXXXXXXXXX.XXXXXXXXXXXXXXXXXXXX.XXXXXXXXXXXXXXXXXXXX.XXXXXXXXXXXXXXXXXXXX.XXXXXXXXXXXXXXXXXXXX.XXXXXXXXXXXXXXXXXXXX.XXXXXXXXXXXXXXXXXXXX.XXXXXXXXXXXXXXXXXXXX.XXXXXXXXXXXXXXXXXXXX.XXXXXXXXXXXXXXXXXXXX.XXXXXXXXXXXXXXXXXXXX.XXXXXXXXXXXXXXXXXXXX.XXXXXXXXXXXXXXXXXXXX.XXXXXXXXXXXXXXXXXXXX.                    .                    .                    .                    .                    .                    .",
".                    .                    .XXXXXXXXXXXXXXXXXXXX.XXXXXXXXXXXXXXXXXXXX.XXXXXXXXXXXXXXXXXXXX.XXXXXXXXXXXXXXXXXXXX.XXXXXXXXXXXXXXXXXXXX.XXXXXXXXXXXXXXXXXXXX.XXXXXXXXXXXXXXXXXXXX.XXXXXXXXXXXXXXXXXXXX.XXXXXXXXXXXXXXXXXXXX.XXXXXXXXXXXXXXXXXXXX.XXXXXXXXXXXXXXXXXXXX.XXXXXXXXXXXXXXXXXXXX.XXXXXXXXXXXXXXXXXXXX.XXXXXXXXXXXXXXXXXXXX.                    .                    .                    .                    .                    .                    .",
".                    .                    .XXXXXXXXXXXXXXXXXXXX.XXXXXXXXXXXXXXXXXXXX.XXXXXXXXXXXXXXXXXXXX.XXXXXXXXXXXXXXXXXXXX.XXXXXXXXXXXXXXXXXXXX.XXXXXXXXXXXXXXXXXXXX.XXXXXXXXXXXXXXXXXXXX.XXXXXXXXXXXXXXXXXXXX.XXXXXXXXXXXXXXXXXXXX.XXXXXXXXXXXXXXXXXXXX.XXXXXXXXXXXXXXXXXXXX.XXXXXXXXXXXXXXXXXXXX.XXXXXXXXXXXXXXXXXXXX.XXXXXXXXXXXXXXXXXXXX.                    .                    .                    .                    .                    .                    .",
".                    .                    .XXXXXXXXXXXXXXXXXXXX.XXXXXXXXXXXXXXXXXXXX.XXXXXXXXXXXXXXXXXXXX.XXXXXXXXXXXXXXXXXXXX.XXXXXXXXXXXXXXXXXXXX.XXXXXXXXXXXXXXXXXXXX.XXXXXXXXXXXXXXXXXXXX.XXXXXXXXXXXXXXXXXXXX.XXXXXXXXXXXXXXXXXXXX.XXXXXXXXXXXXXXXXXXXX.XXXXXXXXXXXXXXXXXXXX.XXXXXXXXXXXXXXXXXXXX.XXXXXXXXXXXXXXXXXXXX.XXXXXXXXXXXXXXXXXXXX.                    .                    .                    .                    .                    .                    .",
".                    .                    .XXXXXXXXXXXXXXXXXXXX.XXXXXXXXXXXXXXXXXXXX.XXXXXXXXXXXXXXXXXXXX.XXXXXXXXXXXXXXXXXXXX.XXXXXXXXXXXXXXXXXXXX.XXXXXXXXXXXXXXXXXXXX.XXXXXXXXXXXXXXXXXXXX.XXXXXXXXXXXXXXXXXXXX.XXXXXXXXXXXXXXXXXXXX.XXXXXXXXXXXXXXXXXXXX.XXXXXXXXXXXXXXXXXXXX.XXXXXXXXXXXXXXXXXXXX.XXXXXXXXXXXXXXXXXXXX.XXXXXXXXXXXXXXXXXXXX.                    .                    .                    .                    .                    .                    .",
".                    .                    .XXXXXXXXXXXXXXXXXXXX.XXXXXXXXXXXXXXXXXXXX.XXXXXXXXXXXXXXXXXXXX.XXXXXXXXXXXXXXXXXXXX.XXXXXXXXXXXXXXXXXXXX.XXXXXXXXXXXXXXXXXXXX.XXXXXXXXXXXXXXXXXXXX.XXXXXXXXXXXXXXXXXXXX.XXXXXXXXXXXXXXXXXXXX.XXXXXXXXXXXXXXXXXXXX.XXXXXXXXXXXXXXXXXXXX.XXXXXXXXXXXXXXXXXXXX.XXXXXXXXXXXXXXXXXXXX.XXXXXXXXXXXXXXXXXXXX.                    .                    .                    .                    .                    .                    .",
".                    .                    .XXXXXXXXXXXXXXXXXXXX.XXXXXXXXXXXXXXXXXXXX.XXXXXXXXXXXXXXXXXXXX.XXXXXXXXXXXXXXXXXXXX.XXXXXXXXXXXXXXXXXXXX.XXXXXXXXXXXXXXXXXXXX.XXXXXXXXXXXXXXXXXXXX.XXXXXXXXXXXXXXXXXXXX.XXXXXXXXXXXXXXXXXXXX.XXXXXXXXXXXXXXXXXXXX.XXXXXXXXXXXXXXXXXXXX.XXXXXXXXXXXXXXXXXXXX.XXXXXXXXXXXXXXXXXXXX.XXXXXXXXXXXXXXXXXXXX.                    .                    .                    .                    .                    .                    .",
".                    .                    .XXXXXXXXXXXXXXXXXXXX.XXXXXXXXXXXXXXXXXXXX.XXXXXXXXXXXXXXXXXXXX.XXXXXXXXXXXXXXXXXXXX.XXXXXXXXXXXXXXXXXXXX.XXXXXXXXXXXXXXXXXXXX.XXXXXXXXXXXXXXXXXXXX.XXXXXXXXXXXXXXXXXXXX.XXXXXXXXXXXXXXXXXXXX.XXXXXXXXXXXXXXXXXXXX.XXXXXXXXXXXXXXXXXXXX.XXXXXXXXXXXXXXXXXXXX.XXXXXXXXXXXXXXXXXXXX.XXXXXXXXXXXXXXXXXXXX.                    .                    .                    .                    .                    .                    .",
".                    .                    .XXXXXXXXXXXXXXXXXXXX.XXXXXXXXXXXXXXXXXXXX.XXXXXXXXXXXXXXXXXXXX.XXXXXXXXXXXXXXXXXXXX.XXXXXXXXXXXXXXXXXXXX.XXXXXXXXXXXXXXXXXXXX.XXXXXXXXXXXXXXXXXXXX.XXXXXXXXXXXXXXXXXXXX.XXXXXXXXXXXXXXXXXXXX.XXXXXXXXXXXXXXXXXXXX.XXXXXXXXXXXXXXXXXXXX.XXXXXXXXXXXXXXXXXXXX.XXXXXXXXXXXXXXXXXXXX.XXXXXXXXXXXXXXXXXXXX.                    .                    .                    .                    .                    .                    .",
".                    .                    .XXXXXXXXXXXXXXXXXXXX.XXXXXXXXXXXXXXXXXXXX.XXXXXXXXXXXXXXXXXXXX.XXXXXXXXXXXXXXXXXXXX.XXXXXXXXXXXXXXXXXXXX.XXXXXXXXXXXXXXXXXXXX.XXXXXXXXXXXXXXXXXXXX.XXXXXXXXXXXXXXXXXXXX.XXXXXXXXXXXXXXXXXXXX.XXXXXXXXXXXXXXXXXXXX.XXXXXXXXXXXXXXXXXXXX.XXXXXXXXXXXXXXXXXXXX.XXXXXXXXXXXXXXXXXXXX.XXXXXXXXXXXXXXXXXXXX.                    .                    .                    .                    .                    .                    .",
".                    .                    .XXXXXXXXXXXXXXXXXXXX.XXXXXXXXXXXXXXXXXXXX.XXXXXXXXXXXXXXXXXXXX.XXXXXXXXXXXXXXXXXXXX.XXXXXXXXXXXXXXXXXXXX.XXXXXXXXXXXXXXXXXXXX.XXXXXXXXXXXXXXXXXXXX.XXXXXXXXXXXXXXXXXXXX.XXXXXXXXXXXXXXXXXXXX.XXXXXXXXXXXXXXXXXXXX.XXXXXXXXXXXXXXXXXXXX.XXXXXXXXXXXXXXXXXXXX.XXXXXXXXXXXXXXXXXXXX.XXXXXXXXXXXXXXXXXXXX.                    .                    .                    .                    .                    .                    .",
".                    .                    .XXXXXXXXXXXXXXXXXXXX.XXXXXXXXXXXXXXXXXXXX.XXXXXXXXXXXXXXXXXXXX.XXXXXXXXXXXXXXXXXXXX.XXXXXXXXXXXXXXXXXXXX.XXXXXXXXXXXXXXXXXXXX.XXXXXXXXXXXXXXXXXXXX.XXXXXXXXXXXXXXXXXXXX.XXXXXXXXXXXXXXXXXXXX.XXXXXXXXXXXXXXXXXXXX.XXXXXXXXXXXXXXXXXXXX.XXXXXXXXXXXXXXXXXXXX.XXXXXXXXXXXXXXXXXXXX.XXXXXXXXXXXXXXXXXXXX.                    .                    .                    .                    .                    .                    .",
".                    .                    .XXXXXXXXXXXXXXXXXXXX.XXXXXXXXXXXXXXXXXXXX.XXXXXXXXXXXXXXXXXXXX.XXXXXXXXXXXXXXXXXXXX.XXXXXXXXXXXXXXXXXXXX.XXXXXXXXXXXXXXXXXXXX.XXXXXXXXXXXXXXXXXXXX.XXXXXXXXXXXXXXXXXXXX.XXXXXXXXXXXXXXXXXXXX.XXXXXXXXXXXXXXXXXXXX.XXXXXXXXXXXXXXXXXXXX.XXXXXXXXXXXXXXXXXXXX.XXXXXXXXXXXXXXXXXXXX.XXXXXXXXXXXXXXXXXXXX.                    .                    .                    .                    .                    .                    .",
".                    .                    .XXXXXXXXXXXXXXXXXXXX.XXXXXXXXXXXXXXXXXXXX.XXXXXXXXXXXXXXXXXXXX.XXXXXXXXXXXXXXXXXXXX.XXXXXXXXXXXXXXXXXXXX.XXXXXXXXXXXXXXXXXXXX.XXXXXXXXXXXXXXXXXXXX.XXXXXXXXXXXXXXXXXXXX.XXXXXXXXXXXXXXXXXXXX.XXXXXXXXXXXXXXXXXXXX.XXXXXXXXXXXXXXXXXXXX.XXXXXXXXXXXXXXXXXXXX.XXXXXXXXXXXXXXXXXXXX.XXXXXXXXXXXXXXXXXXXX.                    .                    .                    .                    .                    .                    .",
".                    .                    .XXXXXXXXXXXXXXXXXXXX.XXXXXXXXXXXXXXXXXXXX.XXXXXXXXXXXXXXXXXXXX.XXXXXXXXXXXXXXXXXXXX.XXXXXXXXXXXXXXXXXXXX.XXXXXXXXXXXXXXXXXXXX.XXXXXXXXXXXXXXXXXXXX.XXXXXXXXXXXXXXXXXXXX.XXXXXXXXXXXXXXXXXXXX.XXXXXXXXXXXXXXXXXXXX.XXXXXXXXXXXXXXXXXXXX.XXXXXXXXXXXXXXXXXXXX.XXXXXXXXXXXXXXXXXXXX.XXXXXXXXXXXXXXXXXXXX.                    .                    .                    .                    .                    .                    .",
"...............................................................................................................................................................................................................................................................................................................................................................................................................................................................................",
".                    .                    .XXXXXXXXXXXXXXXXXXXX.XXXXXXXXXXXXXXXXXXXX.XXXXXXXXXXXXXXXXXXXX.XXXXXXXXXXXXXXXXXXXX.XXXXXXXXXXXXXXXXXXXX.XXXXXXXXXXXXXXXXXXXX.XXXXXXXXXXXXXXXXXXXX.XXXXXXXXXXXXXXXXXXXX.XXXXXXXXXXXXXXXXXXXX.XXXXXXXXXXXXXXXXXXXX.XXXXXXXXXXXXXXXXXXXX.XXXXXXXXXXXXXXXXXXXX.XXXXXXXXXXXXXXXXXXXX.XXXXXXXXXXXXXXXXXXXX.                    .                    .                    .                    .                    .                    .",
".                    .                    .XXXXXXXXXXXXXXXXXXXX.XXXXXXXXXXXXXXXXXXXX.XXXXXXXXXXXXXXXXXXXX.XXXXXXXXXXXXXXXXXXXX.XXXXXXXXXXXXXXXXXXXX.XXXXXXXXXXXXXXXXXXXX.XXXXXXXXXXXXXXXXXXXX.XXXXXXXXXXXXXXXXXXXX.XXXXXXXXXXXXXXXXXXXX.XXXXXXXXXXXXXXXXXXXX.XXXXXXXXXXXXXXXXXXXX.XXXXXXXXXXXXXXXXXXXX.XXXXXXXXXXXXXXXXXXXX.XXXXXXXXXXXXXXXXXXXX.                    .                    .                    .                    .                    .                    .",
".                    .                    .XXXXXXXXXXXXXXXXXXXX.XXXXXXXXXXXXXXXXXXXX.XXXXXXXXXXXXXXXXXXXX.XXXXXXXXXXXXXXXXXXXX.XXXXXXXXXXXXXXXXXXXX.XXXXXXXXXXXXXXXXXXXX.XXXXXXXXXXXXXXXXXXXX.XXXXXXXXXXXXXXXXXXXX.XXXXXXXXXXXXXXXXXXXX.XXXXXXXXXXXXXXXXXXXX.XXXXXXXXXXXXXXXXXXXX.XXXXXXXXXXXXXXXXXXXX.XXXXXXXXXXXXXXXXXXXX.XXXXXXXXXXXXXXXXXXXX.                    .                    .                    .                    .                    .                    .",
".                    .                    .XXXXXXXXXXXXXXXXXXXX.XXXXXXXXXXXXXXXXXXXX.XXXXXXXXXXXXXXXXXXXX.XXXXXXXXXXXXXXXXXXXX.XXXXXXXXXXXXXXXXXXXX.XXXXXXXXXXXXXXXXXXXX.XXXXXXXXXXXXXXXXXXXX.XXXXXXXXXXXXXXXXXXXX.XXXXXXXXXXXXXXXXXXXX.XXXXXXXXXXXXXXXXXXXX.XXXXXXXXXXXXXXXXXXXX.XXXXXXXXXXXXXXXXXXXX.XXXXXXXXXXXXXXXXXXXX.XXXXXXXXXXXXXXXXXXXX.                    .                    .                    .                    .                    .                    .",
".                    .                    .XXXXXXXXXXXXXXXXXXXX.XXXXXXXXXXXXXXXXXXXX.XXXXXXXXXXXXXXXXXXXX.XXXXXXXXXXXXXXXXXXXX.XXXXXXXXXXXXXXXXXXXX.XXXXXXXXXXXXXXXXXXXX.XXXXXXXXXXXXXXXXXXXX.XXXXXXXXXXXXXXXXXXXX.XXXXXXXXXXXXXXXXXXXX.XXXXXXXXXXXXXXXXXXXX.XXXXXXXXXXXXXXXXXXXX.XXXXXXXXXXXXXXXXXXXX.XXXXXXXXXXXXXXXXXXXX.XXXXXXXXXXXXXXXXXXXX.                    .                    .                    .                    .                    .                    .",
".                    .                    .XXXXXXXXXXXXXXXXXXXX.XXXXXXXXXXXXXXXXXXXX.XXXXXXXXXXXXXXXXXXXX.XXXXXXXXXXXXXXXXXXXX.XXXXXXXXXXXXXXXXXXXX.XXXXXXXXXXXXXXXXXXXX.XXXXXXXXXXXXXXXXXXXX.XXXXXXXXXXXXXXXXXXXX.XXXXXXXXXXXXXXXXXXXX.XXXXXXXXXXXXXXXXXXXX.XXXXXXXXXXXXXXXXXXXX.XXXXXXXXXXXXXXXXXXXX.XXXXXXXXXXXXXXXXXXXX.XXXXXXXXXXXXXXXXXXXX.                    .                    .                    .                    .                    .                    .",
".                    .                    .XXXXXXXXXXXXXXXXXXXX.XXXXXXXXXXXXXXXXXXXX.XXXXXXXXXXXXXXXXXXXX.XXXXXXXXXXXXXXXXXXXX.XXXXXXXXXXXXXXXXXXXX.XXXXXXXXXXXXXXXXXXXX.XXXXXXXXXXXXXXXXXXXX.XXXXXXXXXXXXXXXXXXXX.XXXXXXXXXXXXXXXXXXXX.XXXXXXXXXXXXXXXXXXXX.XXXXXXXXXXXXXXXXXXXX.XXXXXXXXXXXXXXXXXXXX.XXXXXXXXXXXXXXXXXXXX.XXXXXXXXXXXXXXXXXXXX.                    .                    .                    .                    .                    .                    .",
".                    .                    .XXXXXXXXXXXXXXXXXXXX.XXXXXXXXXXXXXXXXXXXX.XXXXXXXXXXXXXXXXXXXX.XXXXXXXXXXXXXXXXXXXX.XXXXXXXXXXXXXXXXXXXX.XXXXXXXXXXXXXXXXXXXX.XXXXXXXXXXXXXXXXXXXX.XXXXXXXXXXXXXXXXXXXX.XXXXXXXXXXXXXXXXXXXX.XXXXXXXXXXXXXXXXXXXX.XXXXXXXXXXXXXXXXXXXX.XXXXXXXXXXXXXXXXXXXX.XXXXXXXXXXXXXXXXXXXX.XXXXXXXXXXXXXXXXXXXX.                    .                    .                    .                    .                    .                    .",
".                    .                    .XXXXXXXXXXXXXXXXXXXX.XXXXXXXXXXXXXXXXXXXX.XXXXXXXXXXXXXXXXXXXX.XXXXXXXXXXXXXXXXXXXX.XXXXXXXXXXXXXXXXXXXX.XXXXXXXXXXXXXXXXXXXX.XXXXXXXXXXXXXXXXXXXX.XXXXXXXXXXXXXXXXXXXX.XXXXXXXXXXXXXXXXXXXX.XXXXXXXXXXXXXXXXXXXX.XXXXXXXXXXXXXXXXXXXX.XXXXXXXXXXXXXXXXXXXX.XXXXXXXXXXXXXXXXXXXX.XXXXXXXXXXXXXXXXXXXX.                    .                    .                    .                    .                    .                    .",
".                    .                    .XXXXXXXXXXXXXXXXXXXX.XXXXXXXXXXXXXXXXXXXX.XXXXXXXXXXXXXXXXXXXX.XXXXXXXXXXXXXXXXXXXX.XXXXXXXXXXXXXXXXXXXX.XXXXXXXXXXXXXXXXXXXX.XXXXXXXXXXXXXXXXXXXX.XXXXXXXXXXXXXXXXXXXX.XXXXXXXXXXXXXXXXXXXX.XXXXXXXXXXXXXXXXXXXX.XXXXXXXXXXXXXXXXXXXX.XXXXXXXXXXXXXXXXXXXX.XXXXXXXXXXXXXXXXXXXX.XXXXXXXXXXXXXXXXXXXX.                    .                    .                    .                    .                    .                    .",
".                    .                    .XXXXXXXXXXXXXXXXXXXX.XXXXXXXXXXXXXXXXXXXX.XXXXXXXXXXXXXXXXXXXX.XXXXXXXXXXXXXXXXXXXX.XXXXXXXXXXXXXXXXXXXX.XXXXXXXXXXXXXXXXXXXX.XXXXXXXXXXXXXXXXXXXX.XXXXXXXXXXXXXXXXXXXX.XXXXXXXXXXXXXXXXXXXX.XXXXXXXXXXXXXXXXXXXX.XXXXXXXXXXXXXXXXXXXX.XXXXXXXXXXXXXXXXXXXX.XXXXXXXXXXXXXXXXXXXX.XXXXXXXXXXXXXXXXXXXX.                    .                    .                    .                    .                    .                    .",
".                    .                    .XXXXXXXXXXXXXXXXXXXX.XXXXXXXXXXXXXXXXXXXX.XXXXXXXXXXXXXXXXXXXX.XXXXXXXXXXXXXXXXXXXX.XXXXXXXXXXXXXXXXXXXX.XXXXXXXXXXXXXXXXXXXX.XXXXXXXXXXXXXXXXXXXX.XXXXXXXXXXXXXXXXXXXX.XXXXXXXXXXXXXXXXXXXX.XXXXXXXXXXXXXXXXXXXX.XXXXXXXXXXXXXXXXXXXX.XXXXXXXXXXXXXXXXXXXX.XXXXXXXXXXXXXXXXXXXX.XXXXXXXXXXXXXXXXXXXX.                    .                    .                    .                    .                    .                    .",
".                    .                    .XXXXXXXXXXXXXXXXXXXX.XXXXXXXXXXXXXXXXXXXX.XXXXXXXXXXXXXXXXXXXX.XXXXXXXXXXXXXXXXXXXX.XXXXXXXXXXXXXXXXXXXX.XXXXXXXXXXXXXXXXXXXX.XXXXXXXXXXXXXXXXXXXX.XXXXXXXXXXXXXXXXXXXX.XXXXXXXXXXXXXXXXXXXX.XXXXXXXXXXXXXXXXXXXX.XXXXXXXXXXXXXXXXXXXX.XXXXXXXXXXXXXXXXXXXX.XXXXXXXXXXXXXXXXXXXX.XXXXXXXXXXXXXXXXXXXX.                    .                    .                    .                    .                    .                    .",
".                    .                    .XXXXXXXXXXXXXXXXXXXX.XXXXXXXXXXXXXXXXXXXX.XXXXXXXXXXXXXXXXXXXX.XXXXXXXXXXXXXXXXXXXX.XXXXXXXXXXXXXXXXXXXX.XXXXXXXXXXXXXXXXXXXX.XXXXXXXXXXXXXXXXXXXX.XXXXXXXXXXXXXXXXXXXX.XXXXXXXXXXXXXXXXXXXX.XXXXXXXXXXXXXXXXXXXX.XXXXXXXXXXXXXXXXXXXX.XXXXXXXXXXXXXXXXXXXX.XXXXXXXXXXXXXXXXXXXX.XXXXXXXXXXXXXXXXXXXX.                    .                    .                    .                    .                    .                    .",
".                    .                    .XXXXXXXXXXXXXXXXXXXX.XXXXXXXXXXXXXXXXXXXX.XXXXXXXXXXXXXXXXXXXX.XXXXXXXXXXXXXXXXXXXX.XXXXXXXXXXXXXXXXXXXX.XXXXXXXXXXXXXXXXXXXX.XXXXXXXXXXXXXXXXXXXX.XXXXXXXXXXXXXXXXXXXX.XXXXXXXXXXXXXXXXXXXX.XXXXXXXXXXXXXXXXXXXX.XXXXXXXXXXXXXXXXXXXX.XXXXXXXXXXXXXXXXXXXX.XXXXXXXXXXXXXXXXXXXX.XXXXXXXXXXXXXXXXXXXX.                    .                    .                    .                    .                    .                    .",
".                    .                    .XXXXXXXXXXXXXXXXXXXX.XXXXXXXXXXXXXXXXXXXX.XXXXXXXXXXXXXXXXXXXX.XXXXXXXXXXXXXXXXXXXX.XXXXXXXXXXXXXXXXXXXX.XXXXXXXXXXXXXXXXXXXX.XXXXXXXXXXXXXXXXXXXX.XXXXXXXXXXXXXXXXXXXX.XXXXXXXXXXXXXXXXXXXX.XXXXXXXXXXXXXXXXXXXX.XXXXXXXXXXXXXXXXXXXX.XXXXXXXXXXXXXXXXXXXX.XXXXXXXXXXXXXXXXXXXX.XXXXXXXXXXXXXXXXXXXX.                    .                    .                    .                    .                    .                    .",
".                    .                    .XXXXXXXXXXXXXXXXXXXX.XXXXXXXXXXXXXXXXXXXX.XXXXXXXXXXXXXXXXXXXX.XXXXXXXXXXXXXXXXXXXX.XXXXXXXXXXXXXXXXXXXX.XXXXXXXXXXXXXXXXXXXX.XXXXXXXXXXXXXXXXXXXX.XXXXXXXXXXXXXXXXXXXX.XXXXXXXXXXXXXXXXXXXX.XXXXXXXXXXXXXXXXXXXX.XXXXXXXXXXXXXXXXXXXX.XXXXXXXXXXXXXXXXXXXX.XXXXXXXXXXXXXXXXXXXX.XXXXXXXXXXXXXXXXXXXX.                    .                    .                    .                    .                    .                    .",
".                    .                    .XXXXXXXXXXXXXXXXXXXX.XXXXXXXXXXXXXXXXXXXX.XXXXXXXXXXXXXXXXXXXX.XXXXXXXXXXXXXXXXXXXX.XXXXXXXXXXXXXXXXXXXX.XXXXXXXXXXXXXXXXXXXX.XXXXXXXXXXXXXXXXXXXX.XXXXXXXXXXXXXXXXXXXX.XXXXXXXXXXXXXXXXXXXX.XXXXXXXXXXXXXXXXXXXX.XXXXXXXXXXXXXXXXXXXX.XXXXXXXXXXXXXXXXXXXX.XXXXXXXXXXXXXXXXXXXX.XXXXXXXXXXXXXXXXXXXX.                    .                    .                    .                    .                    .                    .",
".                    .                    .XXXXXXXXXXXXXXXXXXXX.XXXXXXXXXXXXXXXXXXXX.XXXXXXXXXXXXXXXXXXXX.XXXXXXXXXXXXXXXXXXXX.XXXXXXXXXXXXXXXXXXXX.XXXXXXXXXXXXXXXXXXXX.XXXXXXXXXXXXXXXXXXXX.XXXXXXXXXXXXXXXXXXXX.XXXXXXXXXXXXXXXXXXXX.XXXXXXXXXXXXXXXXXXXX.XXXXXXXXXXXXXXXXXXXX.XXXXXXXXXXXXXXXXXXXX.XXXXXXXXXXXXXXXXXXXX.XXXXXXXXXXXXXXXXXXXX.                    .                    .                    .                    .                    .                    .",
".                    .                    .XXXXXXXXXXXXXXXXXXXX.XXXXXXXXXXXXXXXXXXXX.XXXXXXXXXXXXXXXXXXXX.XXXXXXXXXXXXXXXXXXXX.XXXXXXXXXXXXXXXXXXXX.XXXXXXXXXXXXXXXXXXXX.XXXXXXXXXXXXXXXXXXXX.XXXXXXXXXXXXXXXXXXXX.XXXXXXXXXXXXXXXXXXXX.XXXXXXXXXXXXXXXXXXXX.XXXXXXXXXXXXXXXXXXXX.XXXXXXXXXXXXXXXXXXXX.XXXXXXXXXXXXXXXXXXXX.XXXXXXXXXXXXXXXXXXXX.                    .                    .                    .                    .                    .                    .",
"...............................................................................................................................................................................................................................................................................................................................................................................................................................................................................",
".                    .                    .                    .XXXXXXXXXXXXXXXXXXXX.XXXXXXXXXXXXXXXXXXXX.XXXXXXXXXXXXXXXXXXXX.XXXXXXXXXXXXXXXXXXXX.XXXXXXXXXXXXXXXXXXXX.XXXXXXXXXXXXXXXXXXXX.XXXXXXXXXXXXXXXXXXXX.XXXXXXXXXXXXXXXXXXXX.XXXXXXXXXXXXXXXXXXXX.XXXXXXXXXXXXXXXXXXXX.XXXXXXXXXXXXXXXXXXXX.XXXXXXXXXXXXXXXXXXXX.                    .                    .                    .                    .                    .                    .                    .",
".                    .                    .                    .XXXXXXXXXXXXXXXXXXXX.XXXXXXXXXXXXXXXXXXXX.XXXXXXXXXXXXXXXXXXXX.XXXXXXXXXXXXXXXXXXXX.XXXXXXXXXXXXXXXXXXXX.XXXXXXXXXXXXXXXXXXXX.XXXXXXXXXXXXXXXXXXXX.XXXXXXXXXXXXXXXXXXXX.XXXXXXXXXXXXXXXXXXXX.XXXXXXXXXXXXXXXXXXXX.XXXXXXXXXXXXXXXXXXXX.XXXXXXXXXXXXXXXXXXXX.                    .                    .                    .                    .                    .                    .                    .",
".                    .                    .                    .XXXXXXXXXXXXXXXXXXXX.XXXXXXXXXXXXXXXXXXXX.XXXXXXXXXXXXXXXXXXXX.XXXXXXXXXXXXXXXXXXXX.XXXXXXXXXXXXXXXXXXXX.XXXXXXXXXXXXXXXXXXXX.XXXXXXXXXXXXXXXXXXXX.XXXXXXXXXXXXXXXXXXXX.XXXXXXXXXXXXXXXXXXXX.XXXXXXXXXXXXXXXXXXXX.XXXXXXXXXXXXXXXXXXXX.XXXXXXXXXXXXXXXXXXXX.                    .                    .                    .                    .                    .                    .                    .",
".                    .                    .                    .XXXXXXXXXXXXXXXXXXXX.XXXXXXXXXXXXXXXXXXXX.XXXXXXXXXXXXXXXXXXXX.XXXXXXXXXXXXXXXXXXXX.XXXXXXXXXXXXXXXXXXXX.XXXXXXXXXXXXXXXXXXXX.XXXXXXXXXXXXXXXXXXXX.XXXXXXXXXXXXXXXXXXXX.XXXXXXXXXXXXXXXXXXXX.XXXXXXXXXXXXXXXXXXXX.XXXXXXXXXXXXXXXXXXXX.XXXXXXXXXXXXXXXXXXXX.                    .                    .                    .                    .                    .                    .                    .",
".                    .                    .                    .XXXXXXXXXXXXXXXXXXXX.XXXXXXXXXXXXXXXXXXXX.XXXXXXXXXXXXXXXXXXXX.XXXXXXXXXXXXXXXXXXXX.XXXXXXXXXXXXXXXXXXXX.XXXXXXXXXXXXXXXXXXXX.XXXXXXXXXXXXXXXXXXXX.XXXXXXXXXXXXXXXXXXXX.XXXXXXXXXXXXXXXXXXXX.XXXXXXXXXXXXXXXXXXXX.XXXXXXXXXXXXXXXXXXXX.XXXXXXXXXXXXXXXXXXXX.                    .                    .                    .                    .                    .                    .                    .",
".                    .                    .                    .XXXXXXXXXXXXXXXXXXXX.XXXXXXXXXXXXXXXXXXXX.XXXXXXXXXXXXXXXXXXXX.XXXXXXXXXXXXXXXXXXXX.XXXXXXXXXXXXXXXXXXXX.XXXXXXXXXXXXXXXXXXXX.XXXXXXXXXXXXXXXXXXXX.XXXXXXXXXXXXXXXXXXXX.XXXXXXXXXXXXXXXXXXXX.XXXXXXXXXXXXXXXXXXXX.XXXXXXXXXXXXXXXXXXXX.XXXXXXXXXXXXXXXXXXXX.                    .                    .                    .                    .                    .                    .                    .",
".                    .                    .                    .XXXXXXXXXXXXXXXXXXXX.XXXXXXXXXXXXXXXXXXXX.XXXXXXXXXXXXXXXXXXXX.XXXXXXXXXXXXXXXXXXXX.XXXXXXXXXXXXXXXXXXXX.XXXXXXXXXXXXXXXXXXXX.XXXXXXXXXXXXXXXXXXXX.XXXXXXXXXXXXXXXXXXXX.XXXXXXXXXXXXXXXXXXXX.XXXXXXXXXXXXXXXXXXXX.XXXXXXXXXXXXXXXXXXXX.XXXXXXXXXXXXXXXXXXXX.                    .                    .                    .                    .                    .                    .                    .",
".                    .                    .                    .XXXXXXXXXXXXXXXXXXXX.XXXXXXXXXXXXXXXXXXXX.XXXXXXXXXXXXXXXXXXXX.XXXXXXXXXXXXXXXXXXXX.XXXXXXXXXXXXXXXXXXXX.XXXXXXXXXXXXXXXXXXXX.XXXXXXXXXXXXXXXXXXXX.XXXXXXXXXXXXXXXXXXXX.XXXXXXXXXXXXXXXXXXXX.XXXXXXXXXXXXXXXXXXXX.XXXXXXXXXXXXXXXXXXXX.XXXXXXXXXXXXXXXXXXXX.                    .                    .                    .                    .                    .                    .                    .",
".                    .                    .                    .XXXXXXXXXXXXXXXXXXXX.XXXXXXXXXXXXXXXXXXXX.XXXXXXXXXXXXXXXXXXXX.XXXXXXXXXXXXXXXXXXXX.XXXXXXXXXXXXXXXXXXXX.XXXXXXXXXXXXXXXXXXXX.XXXXXXXXXXXXXXXXXXXX.XXXXXXXXXXXXXXXXXXXX.XXXXXXXXXXXXXXXXXXXX.XXXXXXXXXXXXXXXXXXXX.XXXXXXXXXXXXXXXXXXXX.XXXXXXXXXXXXXXXXXXXX.                    .                    .                    .                    .                    .                    .                    .",
".                    .                    .                    .XXXXXXXXXXXXXXXXXXXX.XXXXXXXXXXXXXXXXXXXX.XXXXXXXXXXXXXXXXXXXX.XXXXXXXXXXXXXXXXXXXX.XXXXXXXXXXXXXXXXXXXX.XXXXXXXXXXXXXXXXXXXX.XXXXXXXXXXXXXXXXXXXX.XXXXXXXXXXXXXXXXXXXX.XXXXXXXXXXXXXXXXXXXX.XXXXXXXXXXXXXXXXXXXX.XXXXXXXXXXXXXXXXXXXX.XXXXXXXXXXXXXXXXXXXX.                    .                    .                    .                    .                    .                    .                    .",
".                    .                    .                    .XXXXXXXXXXXXXXXXXXXX.XXXXXXXXXXXXXXXXXXXX.XXXXXXXXXXXXXXXXXXXX.XXXXXXXXXXXXXXXXXXXX.XXXXXXXXXXXXXXXXXXXX.XXXXXXXXXXXXXXXXXXXX.XXXXXXXXXXXXXXXXXXXX.XXXXXXXXXXXXXXXXXXXX.XXXXXXXXXXXXXXXXXXXX.XXXXXXXXXXXXXXXXXXXX.XXXXXXXXXXXXXXXXXXXX.XXXXXXXXXXXXXXXXXXXX.                    .                    .                    .                    .                    .                    .                    .",
".                    .                    .                    .XXXXXXXXXXXXXXXXXXXX.XXXXXXXXXXXXXXXXXXXX.XXXXXXXXXXXXXXXXXXXX.XXXXXXXXXXXXXXXXXXXX.XXXXXXXXXXXXXXXXXXXX.XXXXXXXXXXXXXXXXXXXX.XXXXXXXXXXXXXXXXXXXX.XXXXXXXXXXXXXXXXXXXX.XXXXXXXXXXXXXXXXXXXX.XXXXXXXXXXXXXXXXXXXX.XXXXXXXXXXXXXXXXXXXX.XXXXXXXXXXXXXXXXXXXX.                    .                    .                    .                    .                    .                    .                    .",
".                    .                    .                    .XXXXXXXXXXXXXXXXXXXX.XXXXXXXXXXXXXXXXXXXX.XXXXXXXXXXXXXXXXXXXX.XXXXXXXXXXXXXXXXXXXX.XXXXXXXXXXXXXXXXXXXX.XXXXXXXXXXXXXXXXXXXX.XXXXXXXXXXXXXXXXXXXX.XXXXXXXXXXXXXXXXXXXX.XXXXXXXXXXXXXXXXXXXX.XXXXXXXXXXXXXXXXXXXX.XXXXXXXXXXXXXXXXXXXX.XXXXXXXXXXXXXXXXXXXX.                    .                    .                    .                    .                    .                    .                    .",
".                    .                    .                    .XXXXXXXXXXXXXXXXXXXX.XXXXXXXXXXXXXXXXXXXX.XXXXXXXXXXXXXXXXXXXX.XXXXXXXXXXXXXXXXXXXX.XXXXXXXXXXXXXXXXXXXX.XXXXXXXXXXXXXXXXXXXX.XXXXXXXXXXXXXXXXXXXX.XXXXXXXXXXXXXXXXXXXX.XXXXXXXXXXXXXXXXXXXX.XXXXXXXXXXXXXXXXXXXX.XXXXXXXXXXXXXXXXXXXX.XXXXXXXXXXXXXXXXXXXX.                    .                    .                    .                    .                    .                    .                    .",
".                    .                    .                    .XXXXXXXXXXXXXXXXXXXX.XXXXXXXXXXXXXXXXXXXX.XXXXXXXXXXXXXXXXXXXX.XXXXXXXXXXXXXXXXXXXX.XXXXXXXXXXXXXXXXXXXX.XXXXXXXXXXXXXXXXXXXX.XXXXXXXXXXXXXXXXXXXX.XXXXXXXXXXXXXXXXXXXX.XXXXXXXXXXXXXXXXXXXX.XXXXXXXXXXXXXXXXXXXX.XXXXXXXXXXXXXXXXXXXX.XXXXXXXXXXXXXXXXXXXX.                    .                    .                    .                    .                    .                    .                    .",
".                    .                    .                    .XXXXXXXXXXXXXXXXXXXX.XXXXXXXXXXXXXXXXXXXX.XXXXXXXXXXXXXXXXXXXX.XXXXXXXXXXXXXXXXXXXX.XXXXXXXXXXXXXXXXXXXX.XXXXXXXXXXXXXXXXXXXX.XXXXXXXXXXXXXXXXXXXX.XXXXXXXXXXXXXXXXXXXX.XXXXXXXXXXXXXXXXXXXX.XXXXXXXXXXXXXXXXXXXX.XXXXXXXXXXXXXXXXXXXX.XXXXXXXXXXXXXXXXXXXX.                    .                    .                    .                    .                    .                    .                    .",
".                    .                    .                    .XXXXXXXXXXXXXXXXXXXX.XXXXXXXXXXXXXXXXXXXX.XXXXXXXXXXXXXXXXXXXX.XXXXXXXXXXXXXXXXXXXX.XXXXXXXXXXXXXXXXXXXX.XXXXXXXXXXXXXXXXXXXX.XXXXXXXXXXXXXXXXXXXX.XXXXXXXXXXXXXXXXXXXX.XXXXXXXXXXXXXXXXXXXX.XXXXXXXXXXXXXXXXXXXX.XXXXXXXXXXXXXXXXXXXX.XXXXXXXXXXXXXXXXXXXX.                    .                    .                    .                    .                    .                    .                    .",
".                    .                    .                    .XXXXXXXXXXXXXXXXXXXX.XXXXXXXXXXXXXXXXXXXX.XXXXXXXXXXXXXXXXXXXX.XXXXXXXXXXXXXXXXXXXX.XXXXXXXXXXXXXXXXXXXX.XXXXXXXXXXXXXXXXXXXX.XXXXXXXXXXXXXXXXXXXX.XXXXXXXXXXXXXXXXXXXX.XXXXXXXXXXXXXXXXXXXX.XXXXXXXXXXXXXXXXXXXX.XXXXXXXXXXXXXXXXXXXX.XXXXXXXXXXXXXXXXXXXX.                    .                    .                    .                    .                    .                    .                    .",
".                    .                    .                    .XXXXXXXXXXXXXXXXXXXX.XXXXXXXXXXXXXXXXXXXX.XXXXXXXXXXXXXXXXXXXX.XXXXXXXXXXXXXXXXXXXX.XXXXXXXXXXXXXXXXXXXX.XXXXXXXXXXXXXXXXXXXX.XXXXXXXXXXXXXXXXXXXX.XXXXXXXXXXXXXXXXXXXX.XXXXXXXXXXXXXXXXXXXX.XXXXXXXXXXXXXXXXXXXX.XXXXXXXXXXXXXXXXXXXX.XXXXXXXXXXXXXXXXXXXX.                    .                    .                    .                    .                    .                    .                    .",
".                    .                    .                    .XXXXXXXXXXXXXXXXXXXX.XXXXXXXXXXXXXXXXXXXX.XXXXXXXXXXXXXXXXXXXX.XXXXXXXXXXXXXXXXXXXX.XXXXXXXXXXXXXXXXXXXX.XXXXXXXXXXXXXXXXXXXX.XXXXXXXXXXXXXXXXXXXX.XXXXXXXXXXXXXXXXXXXX.XXXXXXXXXXXXXXXXXXXX.XXXXXXXXXXXXXXXXXXXX.XXXXXXXXXXXXXXXXXXXX.XXXXXXXXXXXXXXXXXXXX.                    .                    .                    .                    .                    .                    .                    .",
"...............................................................................................................................................................................................................................................................................................................................................................................................................................................................................",
".                    .                    .                    .                    .XXXXXXXXXXXXXXXXXXXX.XXXXXXXXXXXXXXXXXXXX.XXXXXXXXXXXXXXXXXXXX.XXXXXXXXXXXXXXXXXXXX.XXXXXXXXXXXXXXXXXXXX.XXXXXXXXXXXXXXXXXXXX.XXXXXXXXXXXXXXXXXXXX.XXXXXXXXXXXXXXXXXXXX.XXXXXXXXXXXXXXXXXXXX.XXXXXXXXXXXXXXXXXXXX.XXXXXXXXXXXXXXXXXXXX.                    .                    .                    .                    .                    .                    .                    .",
".                    .                    .                    .                    .XXXXXXXXXXXXXXXXXXXX.XXXXXXXXXXXXXXXXXXXX.XXXXXXXXXXXXXXXXXXXX.XXXXXXXXXXXXXXXXXXXX.XXXXXXXXXXXXXXXXXXXX.XXXXXXXXXXXXXXXXXXXX.XXXXXXXXXXXXXXXXXXXX.XXXXXXXXXXXXXXXXXXXX.XXXXXXXXXXXXXXXXXXXX.XXXXXXXXXXXXXXXXXXXX.XXXXXXXXXXXXXXXXXXXX.                    .                    .                    .                    .                    .                    .                    .",
".                    .                    .                    .                    .XXXXXXXXXXXXXXXXXXXX.XXXXXXXXXXXXXXXXXXXX.XXXXXXXXXXXXXXXXXXXX.XXXXXXXXXXXXXXXXXXXX.XXXXXXXXXXXXXXXXXXXX.XXXXXXXXXXXXXXXXXXXX.XXXXXXXXXXXXXXXXXXXX.XXXXXXXXXXXXXXXXXXXX.XXXXXXXXXXXXXXXXXXXX.XXXXXXXXXXXXXXXXXXXX.XXXXXXXXXXXXXXXXXXXX.                    .                    .                    .                    .                    .                    .                    .",
".                    .                    .                    .                    .XXXXXXXXXXXXXXXXXXXX.XXXXXXXXXXXXXXXXXXXX.XXXXXXXXXXXXXXXXXXXX.XXXXXXXXXXXXXXXXXXXX.XXXXXXXXXXXXXXXXXXXX.XXXXXXXXXXXXXXXXXXXX.XXXXXXXXXXXXXXXXXXXX.XXXXXXXXXXXXXXXXXXXX.XXXXXXXXXXXXXXXXXXXX.XXXXXXXXXXXXXXXXXXXX.XXXXXXXXXXXXXXXXXXXX.                    .                    .                    .                    .                    .                    .                    .",
".                    .                    .                    .                    .XXXXXXXXXXXXXXXXXXXX.XXXXXXXXXXXXXXXXXXXX.XXXXXXXXXXXXXXXXXXXX.XXXXXXXXXXXXXXXXXXXX.XXXXXXXXXXXXXXXXXXXX.XXXXXXXXXXXXXXXXXXXX.XXXXXXXXXXXXXXXXXXXX.XXXXXXXXXXXXXXXXXXXX.XXXXXXXXXXXXXXXXXXXX.XXXXXXXXXXXXXXXXXXXX.XXXXXXXXXXXXXXXXXXXX.                    .                    .                    .                    .                    .                    .                    .",
".                    .                    .                    .                    .XXXXXXXXXXXXXXXXXXXX.XXXXXXXXXXXXXXXXXXXX.XXXXXXXXXXXXXXXXXXXX.XXXXXXXXXXXXXXXXXXXX.XXXXXXXXXXXXXXXXXXXX.XXXXXXXXXXXXXXXXXXXX.XXXXXXXXXXXXXXXXXXXX.XXXXXXXXXXXXXXXXXXXX.XXXXXXXXXXXXXXXXXXXX.XXXXXXXXXXXXXXXXXXXX.XXXXXXXXXXXXXXXXXXXX.                    .                    .                    .                    .                    .                    .                    .",
".                    .                    .                    .                    .XXXXXXXXXXXXXXXXXXXX.XXXXXXXXXXXXXXXXXXXX.XXXXXXXXXXXXXXXXXXXX.XXXXXXXXXXXXXXXXXXXX.XXXXXXXXXXXXXXXXXXXX.XXXXXXXXXXXXXXXXXXXX.XXXXXXXXXXXXXXXXXXXX.XXXXXXXXXXXXXXXXXXXX.XXXXXXXXXXXXXXXXXXXX.XXXXXXXXXXXXXXXXXXXX.XXXXXXXXXXXXXXXXXXXX.                    .                    .                    .                    .                    .                    .                    .",
".                    .                    .                    .                    .XXXXXXXXXXXXXXXXXXXX.XXXXXXXXXXXXXXXXXXXX.XXXXXXXXXXXXXXXXXXXX.XXXXXXXXXXXXXXXXXXXX.XXXXXXXXXXXXXXXXXXXX.XXXXXXXXXXXXXXXXXXXX.XXXXXXXXXXXXXXXXXXXX.XXXXXXXXXXXXXXXXXXXX.XXXXXXXXXXXXXXXXXXXX.XXXXXXXXXXXXXXXXXXXX.XXXXXXXXXXXXXXXXXXXX.                    .                    .                    .                    .                    .                    .                    .",
".                    .                    .                    .                    .XXXXXXXXXXXXXXXXXXXX.XXXXXXXXXXXXXXXXXXXX.XXXXXXXXXXXXXXXXXXXX.XXXXXXXXXXXXXXXXXXXX.XXXXXXXXXXXXXXXXXXXX.XXXXXXXXXXXXXXXXXXXX.XXXXXXXXXXXXXXXXXXXX.XXXXXXXXXXXXXXXXXXXX.XXXXXXXXXXXXXXXXXXXX.XXXXXXXXXXXXXXXXXXXX.XXXXXXXXXXXXXXXXXXXX.                    .                    .                    .                    .                    .                    .                    .",
".                    .                    .                    .                    .XXXXXXXXXXXXXXXXXXXX.XXXXXXXXXXXXXXXXXXXX.XXXXXXXXXXXXXXXXXXXX.XXXXXXXXXXXXXXXXXXXX.XXXXXXXXXXXXXXXXXXXX.XXXXXXXXXXXXXXXXXXXX.XXXXXXXXXXXXXXXXXXXX.XXXXXXXXXXXXXXXXXXXX.XXXXXXXXXXXXXXXXXXXX.XXXXXXXXXXXXXXXXXXXX.XXXXXXXXXXXXXXXXXXXX.                    .                    .                    .                    .                    .                    .                    .",
".                    .                    .                    .                    .XXXXXXXXXXXXXXXXXXXX.XXXXXXXXXXXXXXXXXXXX.XXXXXXXXXXXXXXXXXXXX.XXXXXXXXXXXXXXXXXXXX.XXXXXXXXXXXXXXXXXXXX.XXXXXXXXXXXXXXXXXXXX.XXXXXXXXXXXXXXXXXXXX.XXXXXXXXXXXXXXXXXXXX.XXXXXXXXXXXXXXXXXXXX.XXXXXXXXXXXXXXXXXXXX.XXXXXXXXXXXXXXXXXXXX.                    .                    .                    .                    .                    .                    .                    .",
".                    .                    .                    .                    .XXXXXXXXXXXXXXXXXXXX.XXXXXXXXXXXXXXXXXXXX.XXXXXXXXXXXXXXXXXXXX.XXXXXXXXXXXXXXXXXXXX.XXXXXXXXXXXXXXXXXXXX.XXXXXXXXXXXXXXXXXXXX.XXXXXXXXXXXXXXXXXXXX.XXXXXXXXXXXXXXXXXXXX.XXXXXXXXXXXXXXXXXXXX.XXXXXXXXXXXXXXXXXXXX.XXXXXXXXXXXXXXXXXXXX.                    .                    .                    .                    .                    .                    .                    .",
".                    .                    .                    .                    .XXXXXXXXXXXXXXXXXXXX.XXXXXXXXXXXXXXXXXXXX.XXXXXXXXXXXXXXXXXXXX.XXXXXXXXXXXXXXXXXXXX.XXXXXXXXXXXXXXXXXXXX.XXXXXXXXXXXXXXXXXXXX.XXXXXXXXXXXXXXXXXXXX.XXXXXXXXXXXXXXXXXXXX.XXXXXXXXXXXXXXXXXXXX.XXXXXXXXXXXXXXXXXXXX.XXXXXXXXXXXXXXXXXXXX.                    .                    .                    .                    .                    .                    .                    .",
".                    .                    .                    .                    .XXXXXXXXXXXXXXXXXXXX.XXXXXXXXXXXXXXXXXXXX.XXXXXXXXXXXXXXXXXXXX.XXXXXXXXXXXXXXXXXXXX.XXXXXXXXXXXXXXXXXXXX.XXXXXXXXXXXXXXXXXXXX.XXXXXXXXXXXXXXXXXXXX.XXXXXXXXXXXXXXXXXXXX.XXXXXXXXXXXXXXXXXXXX.XXXXXXXXXXXXXXXXXXXX.XXXXXXXXXXXXXXXXXXXX.                    .                    .                    .                    .                    .                    .                    .",
".                    .                    .                    .                    .XXXXXXXXXXXXXXXXXXXX.XXXXXXXXXXXXXXXXXXXX.XXXXXXXXXXXXXXXXXXXX.XXXXXXXXXXXXXXXXXXXX.XXXXXXXXXXXXXXXXXXXX.XXXXXXXXXXXXXXXXXXXX.XXXXXXXXXXXXXXXXXXXX.XXXXXXXXXXXXXXXXXXXX.XXXXXXXXXXXXXXXXXXXX.XXXXXXXXXXXXXXXXXXXX.XXXXXXXXXXXXXXXXXXXX.                    .                    .                    .                    .                    .                    .                    .",
".                    .                    .                    .                    .XXXXXXXXXXXXXXXXXXXX.XXXXXXXXXXXXXXXXXXXX.XXXXXXXXXXXXXXXXXXXX.XXXXXXXXXXXXXXXXXXXX.XXXXXXXXXXXXXXXXXXXX.XXXXXXXXXXXXXXXXXXXX.XXXXXXXXXXXXXXXXXXXX.XXXXXXXXXXXXXXXXXXXX.XXXXXXXXXXXXXXXXXXXX.XXXXXXXXXXXXXXXXXXXX.XXXXXXXXXXXXXXXXXXXX.                    .                    .                    .                    .                    .                    .                    .",
".                    .                    .                    .                    .XXXXXXXXXXXXXXXXXXXX.XXXXXXXXXXXXXXXXXXXX.XXXXXXXXXXXXXXXXXXXX.XXXXXXXXXXXXXXXXXXXX.XXXXXXXXXXXXXXXXXXXX.XXXXXXXXXXXXXXXXXXXX.XXXXXXXXXXXXXXXXXXXX.XXXXXXXXXXXXXXXXXXXX.XXXXXXXXXXXXXXXXXXXX.XXXXXXXXXXXXXXXXXXXX.XXXXXXXXXXXXXXXXXXXX.                    .                    .                    .                    .                    .                    .                    .",
".                    .                    .                    .                    .XXXXXXXXXXXXXXXXXXXX.XXXXXXXXXXXXXXXXXXXX.XXXXXXXXXXXXXXXXXXXX.XXXXXXXXXXXXXXXXXXXX.XXXXXXXXXXXXXXXXXXXX.XXXXXXXXXXXXXXXXXXXX.XXXXXXXXXXXXXXXXXXXX.XXXXXXXXXXXXXXXXXXXX.XXXXXXXXXXXXXXXXXXXX.XXXXXXXXXXXXXXXXXXXX.XXXXXXXXXXXXXXXXXXXX.                    .                    .                    .                    .                    .                    .                    .",
".                    .                    .                    .                    .XXXXXXXXXXXXXXXXXXXX.XXXXXXXXXXXXXXXXXXXX.XXXXXXXXXXXXXXXXXXXX.XXXXXXXXXXXXXXXXXXXX.XXXXXXXXXXXXXXXXXXXX.XXXXXXXXXXXXXXXXXXXX.XXXXXXXXXXXXXXXXXXXX.XXXXXXXXXXXXXXXXXXXX.XXXXXXXXXXXXXXXXXXXX.XXXXXXXXXXXXXXXXXXXX.XXXXXXXXXXXXXXXXXXXX.                    .                    .                    .                    .                    .                    .                    .",
".                    .                    .                    .                    .XXXXXXXXXXXXXXXXXXXX.XXXXXXXXXXXXXXXXXXXX.XXXXXXXXXXXXXXXXXXXX.XXXXXXXXXXXXXXXXXXXX.XXXXXXXXXXXXXXXXXXXX.XXXXXXXXXXXXXXXXXXXX.XXXXXXXXXXXXXXXXXXXX.XXXXXXXXXXXXXXXXXXXX.XXXXXXXXXXXXXXXXXXXX.XXXXXXXXXXXXXXXXXXXX.XXXXXXXXXXXXXXXXXXXX.                    .                    .                    .                    .                    .                    .                    .",
"...............................................................................................................................................................................................................................................................................................................................................................................................................................................................................",
".                    .                    .                    .                    .                    .XXXXXXXXXXXXXXXXXXXX.XXXXXXXXXXXXXXXXXXXX.XXXXXXXXXXXXXXXXXXXX.XXXXXXXXXXXXXXXXXXXX.XXXXXXXXXXXXXXXXXXXX.XXXXXXXXXXXXXXXXXXXX.XXXXXXXXXXXXXXXXXXXX.XXXXXXXXXXXXXXXXXXXX.XXXXXXXXXXXXXXXXXXXX.                    .                    .                    .                    .                    .                    .                    .                    .",
".                    .                    .                    .                    .                    .XXXXXXXXXXXXXXXXXXXX.XXXXXXXXXXXXXXXXXXXX.XXXXXXXXXXXXXXXXXXXX.XXXXXXXXXXXXXXXXXXXX.XXXXXXXXXXXXXXXXXXXX.XXXXXXXXXXXXXXXXXXXX.XXXXXXXXXXXXXXXXXXXX.XXXXXXXXXXXXXXXXXXXX.XXXXXXXXXXXXXXXXXXXX.                    .                    .                    .                    .                    .                    .                    .                    .",
".                    .                    .                    .                    .                    .XXXXXXXXXXXXXXXXXXXX.XXXXXXXXXXXXXXXXXXXX.XXXXXXXXXXXXXXXXXXXX.XXXXXXXXXXXXXXXXXXXX.XXXXXXXXXXXXXXXXXXXX.XXXXXXXXXXXXXXXXXXXX.XXXXXXXXXXXXXXXXXXXX.XXXXXXXXXXXXXXXXXXXX.XXXXXXXXXXXXXXXXXXXX.                    .                    .                    .                    .                    .                    .                    .                    .",
".                    .                    .                    .                    .                    .XXXXXXXXXXXXXXXXXXXX.XXXXXXXXXXXXXXXXXXXX.XXXXXXXXXXXXXXXXXXXX.XXXXXXXXXXXXXXXXXXXX.XXXXXXXXXXXXXXXXXXXX.XXXXXXXXXXXXXXXXXXXX.XXXXXXXXXXXXXXXXXXXX.XXXXXXXXXXXXXXXXXXXX.XXXXXXXXXXXXXXXXXXXX.                    .                    .                    .                    .                    .                    .                    .                    .",
".                    .                    .                    .                    .                    .XXXXXXXXXXXXXXXXXXXX.XXXXXXXXXXXXXXXXXXXX.XXXXXXXXXXXXXXXXXXXX.XXXXXXXXXXXXXXXXXXXX.XXXXXXXXXXXXXXXXXXXX.XXXXXXXXXXXXXXXXXXXX.XXXXXXXXXXXXXXXXXXXX.XXXXXXXXXXXXXXXXXXXX.XXXXXXXXXXXXXXXXXXXX.                    .                    .                    .                    .                    .                    .                    .                    .",
".                    .                    .                    .                    .                    .XXXXXXXXXXXXXXXXXXXX.XXXXXXXXXXXXXXXXXXXX.XXXXXXXXXXXXXXXXXXXX.XXXXXXXXXXXXXXXXXXXX.XXXXXXXXXXXXXXXXXXXX.XXXXXXXXXXXXXXXXXXXX.XXXXXXXXXXXXXXXXXXXX.XXXXXXXXXXXXXXXXXXXX.XXXXXXXXXXXXXXXXXXXX.                    .                    .                    .                    .                    .                    .                    .                    .",
".                    .                    .                    .                    .                    .XXXXXXXXXXXXXXXXXXXX.XXXXXXXXXXXXXXXXXXXX.XXXXXXXXXXXXXXXXXXXX.XXXXXXXXXXXXXXXXXXXX.XXXXXXXXXXXXXXXXXXXX.XXXXXXXXXXXXXXXXXXXX.XXXXXXXXXXXXXXXXXXXX.XXXXXXXXXXXXXXXXXXXX.XXXXXXXXXXXXXXXXXXXX.                    .                    .                    .                    .                    .                    .                    .                    .",
".                    .                    .                    .                    .                    .XXXXXXXXXXXXXXXXXXXX.XXXXXXXXXXXXXXXXXXXX.XXXXXXXXXXXXXXXXXXXX.XXXXXXXXXXXXXXXXXXXX.XXXXXXXXXXXXXXXXXXXX.XXXXXXXXXXXXXXXXXXXX.XXXXXXXXXXXXXXXXXXXX.XXXXXXXXXXXXXXXXXXXX.XXXXXXXXXXXXXXXXXXXX.                    .                    .                    .                    .                    .                    .                    .                    .",
".                    .                    .                    .                    .                    .XXXXXXXXXXXXXXXXXXXX.XXXXXXXXXXXXXXXXXXXX.XXXXXXXXXXXXXXXXXXXX.XXXXXXXXXXXXXXXXXXXX.XXXXXXXXXXXXXXXXXXXX.XXXXXXXXXXXXXXXXXXXX.XXXXXXXXXXXXXXXXXXXX.XXXXXXXXXXXXXXXXXXXX.XXXXXXXXXXXXXXXXXXXX.                    .                    .                    .                    .                    .                    .                    .                    .",
".                    .                    .                    .                    .                    .XXXXXXXXXXXXXXXXXXXX.XXXXXXXXXXXXXXXXXXXX.XXXXXXXXXXXXXXXXXXXX.XXXXXXXXXXXXXXXXXXXX.XXXXXXXXXXXXXXXXXXXX.XXXXXXXXXXXXXXXXXXXX.XXXXXXXXXXXXXXXXXXXX.XXXXXXXXXXXXXXXXXXXX.XXXXXXXXXXXXXXXXXXXX.                    .                    .                    .                    .                    .                    .                    .                    .",
".                    .                    .                    .                    .                    .XXXXXXXXXXXXXXXXXXXX.XXXXXXXXXXXXXXXXXXXX.XXXXXXXXXXXXXXXXXXXX.XXXXXXXXXXXXXXXXXXXX.XXXXXXXXXXXXXXXXXXXX.XXXXXXXXXXXXXXXXXXXX.XXXXXXXXXXXXXXXXXXXX.XXXXXXXXXXXXXXXXXXXX.XXXXXXXXXXXXXXXXXXXX.                    .                    .                    .                    .                    .                    .                    .                    .",
".                    .                    .                    .                    .                    .XXXXXXXXXXXXXXXXXXXX.XXXXXXXXXXXXXXXXXXXX.XXXXXXXXXXXXXXXXXXXX.XXXXXXXXXXXXXXXXXXXX.XXXXXXXXXXXXXXXXXXXX.XXXXXXXXXXXXXXXXXXXX.XXXXXXXXXXXXXXXXXXXX.XXXXXXXXXXXXXXXXXXXX.XXXXXXXXXXXXXXXXXXXX.                    .                    .                    .                    .                    .                    .                    .                    .",
".                    .                    .                    .                    .                    .XXXXXXXXXXXXXXXXXXXX.XXXXXXXXXXXXXXXXXXXX.XXXXXXXXXXXXXXXXXXXX.XXXXXXXXXXXXXXXXXXXX.XXXXXXXXXXXXXXXXXXXX.XXXXXXXXXXXXXXXXXXXX.XXXXXXXXXXXXXXXXXXXX.XXXXXXXXXXXXXXXXXXXX.XXXXXXXXXXXXXXXXXXXX.                    .                    .                    .                    .                    .                    .                    .                    .",
".                    .                    .                    .                    .                    .XXXXXXXXXXXXXXXXXXXX.XXXXXXXXXXXXXXXXXXXX.XXXXXXXXXXXXXXXXXXXX.XXXXXXXXXXXXXXXXXXXX.XXXXXXXXXXXXXXXXXXXX.XXXXXXXXXXXXXXXXXXXX.XXXXXXXXXXXXXXXXXXXX.XXXXXXXXXXXXXXXXXXXX.XXXXXXXXXXXXXXXXXXXX.                    .                    .                    .                    .                    .                    .                    .                    .",
".                    .                    .                    .                    .                    .XXXXXXXXXXXXXXXXXXXX.XXXXXXXXXXXXXXXXXXXX.XXXXXXXXXXXXXXXXXXXX.XXXXXXXXXXXXXXXXXXXX.XXXXXXXXXXXXXXXXXXXX.XXXXXXXXXXXXXXXXXXXX.XXXXXXXXXXXXXXXXXXXX.XXXXXXXXXXXXXXXXXXXX.XXXXXXXXXXXXXXXXXXXX.                    .                    .                    .                    .                    .                    .                    .                    .",
".                    .                    .                    .                    .                    .XXXXXXXXXXXXXXXXXXXX.XXXXXXXXXXXXXXXXXXXX.XXXXXXXXXXXXXXXXXXXX.XXXXXXXXXXXXXXXXXXXX.XXXXXXXXXXXXXXXXXXXX.XXXXXXXXXXXXXXXXXXXX.XXXXXXXXXXXXXXXXXXXX.XXXXXXXXXXXXXXXXXXXX.XXXXXXXXXXXXXXXXXXXX.                    .                    .                    .                    .                    .                    .                    .                    .",
".                    .                    .                    .                    .                    .XXXXXXXXXXXXXXXXXXXX.XXXXXXXXXXXXXXXXXXXX.XXXXXXXXXXXXXXXXXXXX.XXXXXXXXXXXXXXXXXXXX.XXXXXXXXXXXXXXXXXXXX.XXXXXXXXXXXXXXXXXXXX.XXXXXXXXXXXXXXXXXXXX.XXXXXXXXXXXXXXXXXXXX.XXXXXXXXXXXXXXXXXXXX.                    .                    .                    .                    .                    .                    .                    .                    .",
".                    .                    .                    .                    .                    .XXXXXXXXXXXXXXXXXXXX.XXXXXXXXXXXXXXXXXXXX.XXXXXXXXXXXXXXXXXXXX.XXXXXXXXXXXXXXXXXXXX.XXXXXXXXXXXXXXXXXXXX.XXXXXXXXXXXXXXXXXXXX.XXXXXXXXXXXXXXXXXXXX.XXXXXXXXXXXXXXXXXXXX.XXXXXXXXXXXXXXXXXXXX.                    .                    .                    .                    .                    .                    .                    .                    .",
".                    .                    .                    .                    .                    .XXXXXXXXXXXXXXXXXXXX.XXXXXXXXXXXXXXXXXXXX.XXXXXXXXXXXXXXXXXXXX.XXXXXXXXXXXXXXXXXXXX.XXXXXXXXXXXXXXXXXXXX.XXXXXXXXXXXXXXXXXXXX.XXXXXXXXXXXXXXXXXXXX.XXXXXXXXXXXXXXXXXXXX.XXXXXXXXXXXXXXXXXXXX.                    .                    .                    .                    .                    .                    .                    .                    .",
".                    .                    .                    .                    .                    .XXXXXXXXXXXXXXXXXXXX.XXXXXXXXXXXXXXXXXXXX.XXXXXXXXXXXXXXXXXXXX.XXXXXXXXXXXXXXXXXXXX.XXXXXXXXXXXXXXXXXXXX.XXXXXXXXXXXXXXXXXXXX.XXXXXXXXXXXXXXXXXXXX.XXXXXXXXXXXXXXXXXXXX.XXXXXXXXXXXXXXXXXXXX.                    .                    .                    .                    .                    .                    .                    .                    .",
"...............................................................................................................................................................................................................................................................................................................................................................................................................................................................................",
".                    .                    .                    .                    .                    .                    .XXXXXXXXXXXXXXXXXXXX.XXXXXXXXXXXXXXXXXXXX.XXXXXXXXXXXXXXXXXXXX.XXXXXXXXXXXXXXXXXXXX.XXXXXXXXXXXXXXXXXXXX.XXXXXXXXXXXXXXXXXXXX.XXXXXXXXXXXXXXXXXXXX.                    .                    .                    .                    .                    .                    .                    .                    .                    .",
".                    .                    .                    .                    .                    .                    .XXXXXXXXXXXXXXXXXXXX.XXXXXXXXXXXXXXXXXXXX.XXXXXXXXXXXXXXXXXXXX.XXXXXXXXXXXXXXXXXXXX.XXXXXXXXXXXXXXXXXXXX.XXXXXXXXXXXXXXXXXXXX.XXXXXXXXXXXXXXXXXXXX.                    .                    .                    .                    .                    .                    .                    .                    .                    .",
".                    .                    .                    .                    .                    .                    .XXXXXXXXXXXXXXXXXXXX.XXXXXXXXXXXXXXXXXXXX.XXXXXXXXXXXXXXXXXXXX.XXXXXXXXXXXXXXXXXXXX.XXXXXXXXXXXXXXXXXXXX.XXXXXXXXXXXXXXXXXXXX.XXXXXXXXXXXXXXXXXXXX.                    .                    .                    .                    .                    .                    .                    .                    .                    .",
".                    .                    .                    .                    .                    .                    .XXXXXXXXXXXXXXXXXXXX.XXXXXXXXXXXXXXXXXXXX.XXXXXXXXXXXXXXXXXXXX.XXXXXXXXXXXXXXXXXXXX.XXXXXXXXXXXXXXXXXXXX.XXXXXXXXXXXXXXXXXXXX.XXXXXXXXXXXXXXXXXXXX.                    .                    .                    .                    .                    .                    .                    .                    .                    .",
".                    .                    .                    .                    .                    .                    .XXXXXXXXXXXXXXXXXXXX.XXXXXXXXXXXXXXXXXXXX.XXXXXXXXXXXXXXXXXXXX.XXXXXXXXXXXXXXXXXXXX.XXXXXXXXXXXXXXXXXXXX.XXXXXXXXXXXXXXXXXXXX.XXXXXXXXXXXXXXXXXXXX.                    .                    .                    .                    .                    .                    .                    .                    .                    .",
".                    .                    .                    .                    .                    .                    .XXXXXXXXXXXXXXXXXXXX.XXXXXXXXXXXXXXXXXXXX.XXXXXXXXXXXXXXXXXXXX.XXXXXXXXXXXXXXXXXXXX.XXXXXXXXXXXXXXXXXXXX.XXXXXXXXXXXXXXXXXXXX.XXXXXXXXXXXXXXXXXXXX.                    .                    .                    .                    .                    .                    .                    .                    .                    .",
".                    .                    .                    .                    .                    .                    .XXXXXXXXXXXXXXXXXXXX.XXXXXXXXXXXXXXXXXXXX.XXXXXXXXXXXXXXXXXXXX.XXXXXXXXXXXXXXXXXXXX.XXXXXXXXXXXXXXXXXXXX.XXXXXXXXXXXXXXXXXXXX.XXXXXXXXXXXXXXXXXXXX.                    .                    .                    .                    .                    .                    .                    .                    .                    .",
".                    .                    .                    .                    .                    .                    .XXXXXXXXXXXXXXXXXXXX.XXXXXXXXXXXXXXXXXXXX.XXXXXXXXXXXXXXXXXXXX.XXXXXXXXXXXXXXXXXXXX.XXXXXXXXXXXXXXXXXXXX.XXXXXXXXXXXXXXXXXXXX.XXXXXXXXXXXXXXXXXXXX.                    .                    .                    .                    .                    .                    .                    .                    .                    .",
".                    .                    .                    .                    .                    .                    .XXXXXXXXXXXXXXXXXXXX.XXXXXXXXXXXXXXXXXXXX.XXXXXXXXXXXXXXXXXXXX.XXXXXXXXXXXXXXXXXXXX.XXXXXXXXXXXXXXXXXXXX.XXXXXXXXXXXXXXXXXXXX.XXXXXXXXXXXXXXXXXXXX.                    .                    .                    .                    .                    .                    .                    .                    .                    .",
".                    .                    .                    .                    .                    .                    .XXXXXXXXXXXXXXXXXXXX.XXXXXXXXXXXXXXXXXXXX.XXXXXXXXXXXXXXXXXXXX.XXXXXXXXXXXXXXXXXXXX.XXXXXXXXXXXXXXXXXXXX.XXXXXXXXXXXXXXXXXXXX.XXXXXXXXXXXXXXXXXXXX.                    .                    .                    .                    .                    .                    .                    .                    .                    .",
".                    .                    .                    .                    .                    .                    .XXXXXXXXXXXXXXXXXXXX.XXXXXXXXXXXXXXXXXXXX.XXXXXXXXXXXXXXXXXXXX.XXXXXXXXXXXXXXXXXXXX.XXXXXXXXXXXXXXXXXXXX.XXXXXXXXXXXXXXXXXXXX.XXXXXXXXXXXXXXXXXXXX.                    .                    .                    .                    .                    .                    .                    .                    .                    .",
".                    .                    .                    .                    .                    .                    .XXXXXXXXXXXXXXXXXXXX.XXXXXXXXXXXXXXXXXXXX.XXXXXXXXXXXXXXXXXXXX.XXXXXXXXXXXXXXXXXXXX.XXXXXXXXXXXXXXXXXXXX.XXXXXXXXXXXXXXXXXXXX.XXXXXXXXXXXXXXXXXXXX.                    .                    .                    .                    .                    .                    .                    .                    .                    .",
".                    .                    .                    .                    .                    .                    .XXXXXXXXXXXXXXXXXXXX.XXXXXXXXXXXXXXXXXXXX.XXXXXXXXXXXXXXXXXXXX.XXXXXXXXXXXXXXXXXXXX.XXXXXXXXXXXXXXXXXXXX.XXXXXXXXXXXXXXXXXXXX.XXXXXXXXXXXXXXXXXXXX.                    .                    .                    .                    .                    .                    .                    .                    .                    .",
".                    .                    .                    .                    .                    .                    .XXXXXXXXXXXXXXXXXXXX.XXXXXXXXXXXXXXXXXXXX.XXXXXXXXXXXXXXXXXXXX.XXXXXXXXXXXXXXXXXXXX.XXXXXXXXXXXXXXXXXXXX.XXXXXXXXXXXXXXXXXXXX.XXXXXXXXXXXXXXXXXXXX.                    .                    .                    .                    .                    .                    .                    .                    .                    .",
".                    .                    .                    .                    .                    .                    .XXXXXXXXXXXXXXXXXXXX.XXXXXXXXXXXXXXXXXXXX.XXXXXXXXXXXXXXXXXXXX.XXXXXXXXXXXXXXXXXXXX.XXXXXXXXXXXXXXXXXXXX.XXXXXXXXXXXXXXXXXXXX.XXXXXXXXXXXXXXXXXXXX.                    .                    .                    .                    .                    .                    .                    .                    .                    .",
".                    .                    .                    .                    .                    .                    .XXXXXXXXXXXXXXXXXXXX.XXXXXXXXXXXXXXXXXXXX.XXXXXXXXXXXXXXXXXXXX.XXXXXXXXXXXXXXXXXXXX.XXXXXXXXXXXXXXXXXXXX.XXXXXXXXXXXXXXXXXXXX.XXXXXXXXXXXXXXXXXXXX.                    .                    .                    .                    .                    .                    .                    .                    .                    .",
".                    .                    .                    .                    .                    .                    .XXXXXXXXXXXXXXXXXXXX.XXXXXXXXXXXXXXXXXXXX.XXXXXXXXXXXXXXXXXXXX.XXXXXXXXXXXXXXXXXXXX.XXXXXXXXXXXXXXXXXXXX.XXXXXXXXXXXXXXXXXXXX.XXXXXXXXXXXXXXXXXXXX.                    .                    .                    .                    .                    .                    .                    .                    .                    .",
".                    .                    .                    .                    .                    .                    .XXXXXXXXXXXXXXXXXXXX.XXXXXXXXXXXXXXXXXXXX.XXXXXXXXXXXXXXXXXXXX.XXXXXXXXXXXXXXXXXXXX.XXXXXXXXXXXXXXXXXXXX.XXXXXXXXXXXXXXXXXXXX.XXXXXXXXXXXXXXXXXXXX.                    .                    .                    .                    .                    .                    .                    .                    .                    .",
".                    .                    .                    .                    .                    .                    .XXXXXXXXXXXXXXXXXXXX.XXXXXXXXXXXXXXXXXXXX.XXXXXXXXXXXXXXXXXXXX.XXXXXXXXXXXXXXXXXXXX.XXXXXXXXXXXXXXXXXXXX.XXXXXXXXXXXXXXXXXXXX.XXXXXXXXXXXXXXXXXXXX.                    .                    .                    .                    .                    .                    .                    .                    .                    .",
".                    .                    .                    .                    .                    .                    .XXXXXXXXXXXXXXXXXXXX.XXXXXXXXXXXXXXXXXXXX.XXXXXXXXXXXXXXXXXXXX.XXXXXXXXXXXXXXXXXXXX.XXXXXXXXXXXXXXXXXXXX.XXXXXXXXXXXXXXXXXXXX.XXXXXXXXXXXXXXXXXXXX.                    .                    .                    .                    .                    .                    .                    .                    .                    .",
"...............................................................................................................................................................................................................................................................................................................................................................................................................................................................................",
".XXXXXXXXXXXXXXXXXXXX.XXXXXXXXXXXXXXXXXXXX.XXXXXXXXXXXXXXXXXXXX.XXXXXXXXXXXXXXXXXXXX.XXXXXXXXXXXXXXXXXXXX.                    .                    .XXXXXXXXXXXXXXXXXXXX.XXXXXXXXXXXXXXXXXXXX.XXXXXXXXXXXXXXXXXXXX.                    .XXXXXXXXXXXXXXXXXXXX.XXXXXXXXXXXXXXXXXXXX.                    .                    .XXXXXXXXXXXXXXXXXXXX.XXXXXXXXXXXXXXXXXXXX.XXXXXXXXXXXXXXXXXXXX.XXXXXXXXXXXXXXXXXXXX.XXXXXXXXXXXXXXXXXXXX.XXXXXXXXXXXXXXXXXXXX.XXXXXXXXXXXXXXXXXXXX.",
".XXXXXXXXXXXXXXXXXXXX.XXXXXXXXXXXXXXXXXXXX.XXXXXXXXXXXXXXXXXXXX.XXXXXXXXXXXXXXXXXXXX.XXXXXXXXXXXXXXXXXXXX.                    .                    .XXXXXXXXXXXXXXXXXXXX.XXXXXXXXXXXXXXXXXXXX.XXXXXXXXXXXXXXXXXXXX.                    .XXXXXXXXXXXXXXXXXXXX.XXXXXXXXXXXXXXXXXXXX.                    .                    .XXXXXXXXXXXXXXXXXXXX.XXXXXXXXXXXXXXXXXXXX.XXXXXXXXXXXXXXXXXXXX.XXXXXXXXXXXXXXXXXXXX.XXXXXXXXXXXXXXXXXXXX.XXXXXXXXXXXXXXXXXXXX.XXXXXXXXXXXXXXXXXXXX.",
".XXXXXXXXXXXXXXXXXXXX.XXXXXXXXXXXXXXXXXXXX.XXXXXXXXXXXXXXXXXXXX.XXXXXXXXXXXXXXXXXXXX.XXXXXXXXXXXXXXXXXXXX.                    .                    .XXXXXXXXXXXXXXXXXXXX.XXXXXXXXXXXXXXXXXXXX.XXXXXXXXXXXXXXXXXXXX.                    .XXXXXXXXXXXXXXXXXXXX.XXXXXXXXXXXXXXXXXXXX.                    .                    .XXXXXXXXXXXXXXXXXXXX.XXXXXXXXXXXXXXXXXXXX.XXXXXXXXXXXXXXXXXXXX.XXXXXXXXXXXXXXXXXXXX.XXXXXXXXXXXXXXXXXXXX.XXXXXXXXXXXXXXXXXXXX.XXXXXXXXXXXXXXXXXXXX.",
".XXXXXXXXXXXXXXXXXXXX.XXXXXXXXXXXXXXXXXXXX.XXXXXXXXXXXXXXXXXXXX.XXXXXXXXXXXXXXXXXXXX.XXXXXXXXXXXXXXXXXXXX.                    .                    .XXXXXXXXXXXXXXXXXXXX.XXXXXXXXXXXXXXXXXXXX.XXXXXXXXXXXXXXXXXXXX.                    .XXXXXXXXXXXXXXXXXXXX.XXXXXXXXXXXXXXXXXXXX.                    .                    .XXXXXXXXXXXXXXXXXXXX.XXXXXXXXXXXXXXXXXXXX.XXXXXXXXXXXXXXXXXXXX.XXXXXXXXXXXXXXXXXXXX.XXXXXXXXXXXXXXXXXXXX.XXXXXXXXXXXXXXXXXXXX.XXXXXXXXXXXXXXXXXXXX.",
".XXXXXXXXXXXXXXXXXXXX.XXXXXXXXXXXXXXXXXXXX.XXXXXXXXXXXXXXXXXXXX.XXXXXXXXXXXXXXXXXXXX.XXXXXXXXXXXXXXXXXXXX.                    .                    .XXXXXXXXXXXXXXXXXXXX.XXXXXXXXXXXXXXXXXXXX.XXXXXXXXXXXXXXXXXXXX.                    .XXXXXXXXXXXXXXXXXXXX.XXXXXXXXXXXXXXXXXXXX.                    .                    .XXXXXXXXXXXXXXXXXXXX.XXXXXXXXXXXXXXXXXXXX.XXXXXXXXXXXXXXXXXXXX.XXXXXXXXXXXXXXXXXXXX.XXXXXXXXXXXXXXXXXXXX.XXXXXXXXXXXXXXXXXXXX.XXXXXXXXXXXXXXXXXXXX.",
".XXXXXXXXXXXXXXXXXXXX.XXXXXXXXXXXXXXXXXXXX.XXXXXXXXXXXXXXXXXXXX.XXXXXXXXXXXXXXXXXXXX.XXXXXXXXXXXXXXXXXXXX.                    .                    .XXXXXXXXXXXXXXXXXXXX.XXXXXXXXXXXXXXXXXXXX.XXXXXXXXXXXXXXXXXXXX.                    .XXXXXXXXXXXXXXXXXXXX.XXXXXXXXXXXXXXXXXXXX.                    .                    .XXXXXXXXXXXXXXXXXXXX.XXXXXXXXXXXXXXXXXXXX.XXXXXXXXXXXXXXXXXXXX.XXXXXXXXXXXXXXXXXXXX.XXXXXXXXXXXXXXXXXXXX.XXXXXXXXXXXXXXXXXXXX.XXXXXXXXXXXXXXXXXXXX.",
".XXXXXXXXXXXXXXXXXXXX.XXXXXXXXXXXXXXXXXXXX.XXXXXXXXXXXXXXXXXXXX.XXXXXXXXXXXXXXXXXXXX.XXXXXXXXXXXXXXXXXXXX.                    .                    .XXXXXXXXXXXXXXXXXXXX.XXXXXXXXXXXXXXXXXXXX.XXXXXXXXXXXXXXXXXXXX.                    .XXXXXXXXXXXXXXXXXXXX.XXXXXXXXXXXXXXXXXXXX.                    .                    .XXXXXXXXXXXXXXXXXXXX.XXXXXXXXXXXXXXXXXXXX.XXXXXXXXXXXXXXXXXXXX.XXXXXXXXXXXXXXXXXXXX.XXXXXXXXXXXXXXXXXXXX.XXXXXXXXXXXXXXXXXXXX.XXXXXXXXXXXXXXXXXXXX.",
".XXXXXXXXXXXXXXXXXXXX.XXXXXXXXXXXXXXXXXXXX.XXXXXXXXXXXXXXXXXXXX.XXXXXXXXXXXXXXXXXXXX.XXXXXXXXXXXXXXXXXXXX.                    .                    .XXXXXXXXXXXXXXXXXXXX.XXXXXXXXXXXXXXXXXXXX.XXXXXXXXXXXXXXXXXXXX.                    .XXXXXXXXXXXXXXXXXXXX.XXXXXXXXXXXXXXXXXXXX.                    .                    .XXXXXXXXXXXXXXXXXXXX.XXXXXXXXXXXXXXXXXXXX.XXXXXXXXXXXXXXXXXXXX.XXXXXXXXXXXXXXXXXXXX.XXXXXXXXXXXXXXXXXXXX.XXXXXXXXXXXXXXXXXXXX.XXXXXXXXXXXXXXXXXXXX.",
".XXXXXXXXXXXXXXXXXXXX.XXXXXXXXXXXXXXXXXXXX.XXXXXXXXXXXXXXXXXXXX.XXXXXXXXXXXXXXXXXXXX.XXXXXXXXXXXXXXXXXXXX.                    .                    .XXXXXXXXXXXXXXXXXXXX.XXXXXXXXXXXXXXXXXXXX.XXXXXXXXXXXXXXXXXXXX.                    .XXXXXXXXXXXXXXXXXXXX.XXXXXXXXXXXXXXXXXXXX.                    .                    .XXXXXXXXXXXXXXXXXXXX.XXXXXXXXXXXXXXXXXXXX.XXXXXXXXXXXXXXXXXXXX.XXXXXXXXXXXXXXXXXXXX.XXXXXXXXXXXXXXXXXXXX.XXXXXXXXXXXXXXXXXXXX.XXXXXXXXXXXXXXXXXXXX.",
".XXXXXXXXXXXXXXXXXXXX.XXXXXXXXXXXXXXXXXXXX.XXXXXXXXXXXXXXXXXXXX.XXXXXXXXXXXXXXXXXXXX.XXXXXXXXXXXXXXXXXXXX.                    .                    .XXXXXXXXXXXXXXXXXXXX.XXXXXXXXXXXXXXXXXXXX.XXXXXXXXXXXXXXXXXXXX.                    .XXXXXXXXXXXXXXXXXXXX.XXXXXXXXXXXXXXXXXXXX.                    .                    .XXXXXXXXXXXXXXXXXXXX.XXXXXXXXXXXXXXXXXXXX.XXXXXXXXXXXXXXXXXXXX.XXXXXXXXXXXXXXXXXXXX.XXXXXXXXXXXXXXXXXXXX.XXXXXXXXXXXXXXXXXXXX.XXXXXXXXXXXXXXXXXXXX.",
".XXXXXXXXXXXXXXXXXXXX.XXXXXXXXXXXXXXXXXXXX.XXXXXXXXXXXXXXXXXXXX.XXXXXXXXXXXXXXXXXXXX.XXXXXXXXXXXXXXXXXXXX.                    .                    .XXXXXXXXXXXXXXXXXXXX.XXXXXXXXXXXXXXXXXXXX.XXXXXXXXXXXXXXXXXXXX.                    .XXXXXXXXXXXXXXXXXXXX.XXXXXXXXXXXXXXXXXXXX.                    .                    .XXXXXXXXXXXXXXXXXXXX.XXXXXXXXXXXXXXXXXXXX.XXXXXXXXXXXXXXXXXXXX.XXXXXXXXXXXXXXXXXXXX.XXXXXXXXXXXXXXXXXXXX.XXXXXXXXXXXXXXXXXXXX.XXXXXXXXXXXXXXXXXXXX.",
".XXXXXXXXXXXXXXXXXXXX.XXXXXXXXXXXXXXXXXXXX.XXXXXXXXXXXXXXXXXXXX.XXXXXXXXXXXXXXXXXXXX.XXXXXXXXXXXXXXXXXXXX.                    .                    .XXXXXXXXXXXXXXXXXXXX.XXXXXXXXXXXXXXXXXXXX.XXXXXXXXXXXXXXXXXXXX.                    .XXXXXXXXXXXXXXXXXXXX.XXXXXXXXXXXXXXXXXXXX.                    .                    .XXXXXXXXXXXXXXXXXXXX.XXXXXXXXXXXXXXXXXXXX.XXXXXXXXXXXXXXXXXXXX.XXXXXXXXXXXXXXXXXXXX.XXXXXXXXXXXXXXXXXXXX.XXXXXXXXXXXXXXXXXXXX.XXXXXXXXXXXXXXXXXXXX.",
".XXXXXXXXXXXXXXXXXXXX.XXXXXXXXXXXXXXXXXXXX.XXXXXXXXXXXXXXXXXXXX.XXXXXXXXXXXXXXXXXXXX.XXXXXXXXXXXXXXXXXXXX.                    .                    .XXXXXXXXXXXXXXXXXXXX.XXXXXXXXXXXXXXXXXXXX.XXXXXXXXXXXXXXXXXXXX.                    .XXXXXXXXXXXXXXXXXXXX.XXXXXXXXXXXXXXXXXXXX.                    .                    .XXXXXXXXXXXXXXXXXXXX.XXXXXXXXXXXXXXXXXXXX.XXXXXXXXXXXXXXXXXXXX.XXXXXXXXXXXXXXXXXXXX.XXXXXXXXXXXXXXXXXXXX.XXXXXXXXXXXXXXXXXXXX.XXXXXXXXXXXXXXXXXXXX.",
".XXXXXXXXXXXXXXXXXXXX.XXXXXXXXXXXXXXXXXXXX.XXXXXXXXXXXXXXXXXXXX.XXXXXXXXXXXXXXXXXXXX.XXXXXXXXXXXXXXXXXXXX.                    .                    .XXXXXXXXXXXXXXXXXXXX.XXXXXXXXXXXXXXXXXXXX.XXXXXXXXXXXXXXXXXXXX.                    .XXXXXXXXXXXXXXXXXXXX.XXXXXXXXXXXXXXXXXXXX.                    .                    .XXXXXXXXXXXXXXXXXXXX.XXXXXXXXXXXXXXXXXXXX.XXXXXXXXXXXXXXXXXXXX.XXXXXXXXXXXXXXXXXXXX.XXXXXXXXXXXXXXXXXXXX.XXXXXXXXXXXXXXXXXXXX.XXXXXXXXXXXXXXXXXXXX.",
".XXXXXXXXXXXXXXXXXXXX.XXXXXXXXXXXXXXXXXXXX.XXXXXXXXXXXXXXXXXXXX.XXXXXXXXXXXXXXXXXXXX.XXXXXXXXXXXXXXXXXXXX.                    .                    .XXXXXXXXXXXXXXXXXXXX.XXXXXXXXXXXXXXXXXXXX.XXXXXXXXXXXXXXXXXXXX.                    .XXXXXXXXXXXXXXXXXXXX.XXXXXXXXXXXXXXXXXXXX.                    .                    .XXXXXXXXXXXXXXXXXXXX.XXXXXXXXXXXXXXXXXXXX.XXXXXXXXXXXXXXXXXXXX.XXXXXXXXXXXXXXXXXXXX.XXXXXXXXXXXXXXXXXXXX.XXXXXXXXXXXXXXXXXXXX.XXXXXXXXXXXXXXXXXXXX.",
".XXXXXXXXXXXXXXXXXXXX.XXXXXXXXXXXXXXXXXXXX.XXXXXXXXXXXXXXXXXXXX.XXXXXXXXXXXXXXXXXXXX.XXXXXXXXXXXXXXXXXXXX.                    .                    .XXXXXXXXXXXXXXXXXXXX.XXXXXXXXXXXXXXXXXXXX.XXXXXXXXXXXXXXXXXXXX.                    .XXXXXXXXXXXXXXXXXXXX.XXXXXXXXXXXXXXXXXXXX.                    .                    .XXXXXXXXXXXXXXXXXXXX.XXXXXXXXXXXXXXXXXXXX.XXXXXXXXXXXXXXXXXXXX.XXXXXXXXXXXXXXXXXXXX.XXXXXXXXXXXXXXXXXXXX.XXXXXXXXXXXXXXXXXXXX.XXXXXXXXXXXXXXXXXXXX.",
".XXXXXXXXXXXXXXXXXXXX.XXXXXXXXXXXXXXXXXXXX.XXXXXXXXXXXXXXXXXXXX.XXXXXXXXXXXXXXXXXXXX.XXXXXXXXXXXXXXXXXXXX.                    .                    .XXXXXXXXXXXXXXXXXXXX.XXXXXXXXXXXXXXXXXXXX.XXXXXXXXXXXXXXXXXXXX.                    .XXXXXXXXXXXXXXXXXXXX.XXXXXXXXXXXXXXXXXXXX.                    .                    .XXXXXXXXXXXXXXXXXXXX.XXXXXXXXXXXXXXXXXXXX.XXXXXXXXXXXXXXXXXXXX.XXXXXXXXXXXXXXXXXXXX.XXXXXXXXXXXXXXXXXXXX.XXXXXXXXXXXXXXXXXXXX.XXXXXXXXXXXXXXXXXXXX.",
".XXXXXXXXXXXXXXXXXXXX.XXXXXXXXXXXXXXXXXXXX.XXXXXXXXXXXXXXXXXXXX.XXXXXXXXXXXXXXXXXXXX.XXXXXXXXXXXXXXXXXXXX.                    .                    .XXXXXXXXXXXXXXXXXXXX.XXXXXXXXXXXXXXXXXXXX.XXXXXXXXXXXXXXXXXXXX.                    .XXXXXXXXXXXXXXXXXXXX.XXXXXXXXXXXXXXXXXXXX.                    .                    .XXXXXXXXXXXXXXXXXXXX.XXXXXXXXXXXXXXXXXXXX.XXXXXXXXXXXXXXXXXXXX.XXXXXXXXXXXXXXXXXXXX.XXXXXXXXXXXXXXXXXXXX.XXXXXXXXXXXXXXXXXXXX.XXXXXXXXXXXXXXXXXXXX.",
".XXXXXXXXXXXXXXXXXXXX.XXXXXXXXXXXXXXXXXXXX.XXXXXXXXXXXXXXXXXXXX.XXXXXXXXXXXXXXXXXXXX.XXXXXXXXXXXXXXXXXXXX.                    .                    .XXXXXXXXXXXXXXXXXXXX.XXXXXXXXXXXXXXXXXXXX.XXXXXXXXXXXXXXXXXXXX.                    .XXXXXXXXXXXXXXXXXXXX.XXXXXXXXXXXXXXXXXXXX.                    .                    .XXXXXXXXXXXXXXXXXXXX.XXXXXXXXXXXXXXXXXXXX.XXXXXXXXXXXXXXXXXXXX.XXXXXXXXXXXXXXXXXXXX.XXXXXXXXXXXXXXXXXXXX.XXXXXXXXXXXXXXXXXXXX.XXXXXXXXXXXXXXXXXXXX.",
".XXXXXXXXXXXXXXXXXXXX.XXXXXXXXXXXXXXXXXXXX.XXXXXXXXXXXXXXXXXXXX.XXXXXXXXXXXXXXXXXXXX.XXXXXXXXXXXXXXXXXXXX.                    .                    .XXXXXXXXXXXXXXXXXXXX.XXXXXXXXXXXXXXXXXXXX.XXXXXXXXXXXXXXXXXXXX.                    .XXXXXXXXXXXXXXXXXXXX.XXXXXXXXXXXXXXXXXXXX.                    .                    .XXXXXXXXXXXXXXXXXXXX.XXXXXXXXXXXXXXXXXXXX.XXXXXXXXXXXXXXXXXXXX.XXXXXXXXXXXXXXXXXXXX.XXXXXXXXXXXXXXXXXXXX.XXXXXXXXXXXXXXXXXXXX.XXXXXXXXXXXXXXXXXXXX.",
"...............................................................................................................................................................................................................................................................................................................................................................................................................................................................................",
".                    .                    .                    .                    .                    .                    .                    .XXXXXXXXXXXXXXXXXXXX.XXXXXXXXXXXXXXXXXXXX.                    .                    .                    .XXXXXXXXXXXXXXXXXXXX.                    .                    .                    .                    .                    .                    .                    .                    .                    .",
".                    .                    .                    .                    .                    .                    .                    .XXXXXXXXXXXXXXXXXXXX.XXXXXXXXXXXXXXXXXXXX.                    .                    .                    .XXXXXXXXXXXXXXXXXXXX.                    .                    .                    .                    .                    .                    .                    .                    .                    .",
".                    .                    .                    .                    .                    .                    .                    .XXXXXXXXXXXXXXXXXXXX.XXXXXXXXXXXXXXXXXXXX.                    .                    .                    .XXXXXXXXXXXXXXXXXXXX.                    .                    .                    .                    .                    .                    .                    .                    .                    .",
".                    .                    .                    .                    .                    .                    .                    .XXXXXXXXXXXXXXXXXXXX.XXXXXXXXXXXXXXXXXXXX.                    .                    .                    .XXXXXXXXXXXXXXXXXXXX.                    .                    .                    .                    .                    .                    .                    .                    .                    .",
".                    .                    .                    .                    .                    .                    .                    .XXXXXXXXXXXXXXXXXXXX.XXXXXXXXXXXXXXXXXXXX.                    .                    .                    .XXXXXXXXXXXXXXXXXXXX.                    .                    .                    .                    .                    .                    .                    .                    .                    .",
".                    .                    .                    .                    .                    .                    .                    .XXXXXXXXXXXXXXXXXXXX.XXXXXXXXXXXXXXXXXXXX.                    .                    .                    .XXXXXXXXXXXXXXXXXXXX.                    .                    .                    .                    .                    .                    .                    .                    .                    .",
".                    .                    .                    .                    .                    .                    .                    .XXXXXXXXXXXXXXXXXXXX.XXXXXXXXXXXXXXXXXXXX.                    .                    .                    .XXXXXXXXXXXXXXXXXXXX.                    .                    .                    .                    .                    .                    .                    .                    .                    .",
".                    .                    .                    .                    .                    .                    .                    .XXXXXXXXXXXXXXXXXXXX.XXXXXXXXXXXXXXXXXXXX.                    .                    .                    .XXXXXXXXXXXXXXXXXXXX.                    .                    .                    .                    .                    .                    .                    .                    .                    .",
".                    .                    .                    .                    .                    .                    .                    .XXXXXXXXXXXXXXXXXXXX.XXXXXXXXXXXXXXXXXXXX.                    .                    .                    .XXXXXXXXXXXXXXXXXXXX.                    .                    .                    .                    .                    .                    .                    .                    .                    .",
".                    .                    .                    .                    .                    .                    .                    .XXXXXXXXXXXXXXXXXXXX.XXXXXXXXXXXXXXXXXXXX.                    .                    .                    .XXXXXXXXXXXXXXXXXXXX.                    .                    .                    .                    .                    .                    .                    .                    .                    .",
".                    .                    .                    .                    .                    .                    .                    .XXXXXXXXXXXXXXXXXXXX.XXXXXXXXXXXXXXXXXXXX.                    .                    .                    .XXXXXXXXXXXXXXXXXXXX.                    .                    .                    .                    .                    .                    .                    .                    .                    .",
".                    .                    .                    .                    .                    .                    .                    .XXXXXXXXXXXXXXXXXXXX.XXXXXXXXXXXXXXXXXXXX.                    .                    .                    .XXXXXXXXXXXXXXXXXXXX.                    .                    .                    .                    .                    .                    .                    .                    .                    .",
".                    .                    .                    .                    .                    .                    .                    .XXXXXXXXXXXXXXXXXXXX.XXXXXXXXXXXXXXXXXXXX.                    .                    .                    .XXXXXXXXXXXXXXXXXXXX.                    .                    .                    .                    .                    .                    .                    .                    .                    .",
".                    .                    .                    .                    .                    .                    .                    .XXXXXXXXXXXXXXXXXXXX.XXXXXXXXXXXXXXXXXXXX.                    .                    .                    .XXXXXXXXXXXXXXXXXXXX.                    .                    .                    .                    .                    .                    .                    .                    .                    .",
".                    .                    .                    .                    .                    .                    .                    .XXXXXXXXXXXXXXXXXXXX.XXXXXXXXXXXXXXXXXXXX.                    .                    .                    .XXXXXXXXXXXXXXXXXXXX.                    .                    .                    .                    .                    .                    .                    .                    .                    .",
".                    .                    .                    .                    .                    .                    .                    .XXXXXXXXXXXXXXXXXXXX.XXXXXXXXXXXXXXXXXXXX.                    .                    .                    .XXXXXXXXXXXXXXXXXXXX.                    .                    .                    .                    .                    .                    .                    .                    .                    .",
".                    .                    .                    .                    .                    .                    .                    .XXXXXXXXXXXXXXXXXXXX.XXXXXXXXXXXXXXXXXXXX.                    .                    .                    .XXXXXXXXXXXXXXXXXXXX.                    .                    .                    .                    .                    .                    .                    .                    .                    .",
".                    .                    .                    .                    .                    .                    .                    .XXXXXXXXXXXXXXXXXXXX.XXXXXXXXXXXXXXXXXXXX.                    .                    .                    .XXXXXXXXXXXXXXXXXXXX.                    .                    .                    .                    .                    .                    .                    .                    .                    .",
".                    .                    .                    .                    .                    .                    .                    .XXXXXXXXXXXXXXXXXXXX.XXXXXXXXXXXXXXXXXXXX.                    .                    .                    .XXXXXXXXXXXXXXXXXXXX.                    .                    .                    .                    .                    .                    .                    .                    .                    .",
".                    .                    .                    .                    .                    .                    .                    .XXXXXXXXXXXXXXXXXXXX.XXXXXXXXXXXXXXXXXXXX.                    .                    .                    .XXXXXXXXXXXXXXXXXXXX.                    .                    .                    .                    .                    .                    .                    .                    .                    .",
"...............................................................................................................................................................................................................................................................................................................................................................................................................................................................................",
".                    .                    .                    .                    .XXXXXXXXXXXXXXXXXXXX.XXXXXXXXXXXXXXXXXXXX.                    .XXXXXXXXXXXXXXXXXXXX.                    .                    .                    .                    .XXXXXXXXXXXXXXXXXXXX.                    .                    .                    .                    .XXXXXXXXXXXXXXXXXXXX.                    .                    .                    .                    .",
".                    .                    .                    .                    .XXXXXXXXXXXXXXXXXXXX.XXXXXXXXXXXXXXXXXXXX.                    .XXXXXXXXXXXXXXXXXXXX.                    .                    .                    .                    .XXXXXXXXXXXXXXXXXXXX.                    .                    .                    .                    .XXXXXXXXXXXXXXXXXXXX.                    .                    .                    .                    .",
".                    .                    .                    .                    .XXXXXXXXXXXXXXXXXXXX.XXXXXXXXXXXXXXXXXXXX.                    .XXXXXXXXXXXXXXXXXXXX.                    .                    .                    .                    .XXXXXXXXXXXXXXXXXXXX.                    .                    .                    .                    .XXXXXXXXXXXXXXXXXXXX.                    .                    .                    .                    .",
".                    .                    .                    .                    .XXXXXXXXXXXXXXXXXXXX.XXXXXXXXXXXXXXXXXXXX.                    .XXXXXXXXXXXXXXXXXXXX.                    .                    .                    .                    .XXXXXXXXXXXXXXXXXXXX.                    .                    .                    .                    .XXXXXXXXXXXXXXXXXXXX.                    .                    .                    .                    .",
".                    .                    .                    .                    .XXXXXXXXXXXXXXXXXXXX.XXXXXXXXXXXXXXXXXXXX.                    .XXXXXXXXXXXXXXXXXXXX.                    .                    .                    .                    .XXXXXXXXXXXXXXXXXXXX.                    .                    .                    .                    .XXXXXXXXXXXXXXXXXXXX.                    .                    .                    .                    .",
".                    .                    .                    .                    .XXXXXXXXXXXXXXXXXXXX.XXXXXXXXXXXXXXXXXXXX.                    .XXXXXXXXXXXXXXXXXXXX.                    .                    .                    .                    .XXXXXXXXXXXXXXXXXXXX.                    .                    .                    .                    .XXXXXXXXXXXXXXXXXXXX.                    .                    .                    .                    .",
".                    .                    .                    .                    .XXXXXXXXXXXXXXXXXXXX.XXXXXXXXXXXXXXXXXXXX.                    .XXXXXXXXXXXXXXXXXXXX.                    .                    .                    .                    .XXXXXXXXXXXXXXXXXXXX.                    .                    .                    .                    .XXXXXXXXXXXXXXXXXXXX.                    .                    .                    .                    .",
".                    .                    .                    .                    .XXXXXXXXXXXXXXXXXXXX.XXXXXXXXXXXXXXXXXXXX.                    .XXXXXXXXXXXXXXXXXXXX.                    .                    .                    .                    .XXXXXXXXXXXXXXXXXXXX.                    .                    .                    .                    .XXXXXXXXXXXXXXXXXXXX.                    .                    .                    .                    .",
".                    .                    .                    .                    .XXXXXXXXXXXXXXXXXXXX.XXXXXXXXXXXXXXXXXXXX.                    .XXXXXXXXXXXXXXXXXXXX.                    .                    .                    .                    .XXXXXXXXXXXXXXXXXXXX.                    .                    .                    .                    .XXXXXXXXXXXXXXXXXXXX.                    .                    .                    .                    .",
".                    .                    .                    .                    .XXXXXXXXXXXXXXXXXXXX.XXXXXXXXXXXXXXXXXXXX.                    .XXXXXXXXXXXXXXXXXXXX.                    .                    .                    .                    .XXXXXXXXXXXXXXXXXXXX.                    .                    .                    .                    .XXXXXXXXXXXXXXXXXXXX.                    .                    .                    .                    .",
".                    .                    .                    .                    .XXXXXXXXXXXXXXXXXXXX.XXXXXXXXXXXXXXXXXXXX.                    .XXXXXXXXXXXXXXXXXXXX.                    .                    .                    .                    .XXXXXXXXXXXXXXXXXXXX.                    .                    .                    .                    .XXXXXXXXXXXXXXXXXXXX.                    .                    .                    .                    .",
".                    .                    .                    .                    .XXXXXXXXXXXXXXXXXXXX.XXXXXXXXXXXXXXXXXXXX.                    .XXXXXXXXXXXXXXXXXXXX.                    .                    .                    .                    .XXXXXXXXXXXXXXXXXXXX.                    .                    .                    .                    .XXXXXXXXXXXXXXXXXXXX.                    .                    .                    .                    .",
".                    .                    .                    .                    .XXXXXXXXXXXXXXXXXXXX.XXXXXXXXXXXXXXXXXXXX.                    .XXXXXXXXXXXXXXXXXXXX.                    .                    .                    .                    .XXXXXXXXXXXXXXXXXXXX.                    .                    .                    .                    .XXXXXXXXXXXXXXXXXXXX.                    .                    .                    .                    .",
".                    .                    .                    .                    .XXXXXXXXXXXXXXXXXXXX.XXXXXXXXXXXXXXXXXXXX.                    .XXXXXXXXXXXXXXXXXXXX.                    .                    .                    .                    .XXXXXXXXXXXXXXXXXXXX.                    .                    .                    .                    .XXXXXXXXXXXXXXXXXXXX.                    .                    .                    .                    .",
".                    .                    .                    .                    .XXXXXXXXXXXXXXXXXXXX.XXXXXXXXXXXXXXXXXXXX.                    .XXXXXXXXXXXXXXXXXXXX.                    .                    .                    .                    .XXXXXXXXXXXXXXXXXXXX.                    .                    .                    .                    .XXXXXXXXXXXXXXXXXXXX.                    .                    .                    .                    .",
".                    .                    .                    .                    .XXXXXXXXXXXXXXXXXXXX.XXXXXXXXXXXXXXXXXXXX.                    .XXXXXXXXXXXXXXXXXXXX.                    .                    .                    .                    .XXXXXXXXXXXXXXXXXXXX.                    .                    .                    .                    .XXXXXXXXXXXXXXXXXXXX.                    .                    .                    .                    .",
".                    .                    .                    .                    .XXXXXXXXXXXXXXXXXXXX.XXXXXXXXXXXXXXXXXXXX.                    .XXXXXXXXXXXXXXXXXXXX.                    .                    .                    .                    .XXXXXXXXXXXXXXXXXXXX.                    .                    .                    .                    .XXXXXXXXXXXXXXXXXXXX.                    .                    .                    .                    .",
".                    .                    .                    .                    .XXXXXXXXXXXXXXXXXXXX.XXXXXXXXXXXXXXXXXXXX.                    .XXXXXXXXXXXXXXXXXXXX.                    .                    .                    .                    .XXXXXXXXXXXXXXXXXXXX.                    .                    .                    .                    .XXXXXXXXXXXXXXXXXXXX.                    .                    .                    .                    .",
".                    .                    .                    .                    .XXXXXXXXXXXXXXXXXXXX.XXXXXXXXXXXXXXXXXXXX.                    .XXXXXXXXXXXXXXXXXXXX.                    .                    .                    .                    .XXXXXXXXXXXXXXXXXXXX.                    .                    .                    .                    .XXXXXXXXXXXXXXXXXXXX.                    .                    .                    .                    .",
".                    .                    .                    .                    .XXXXXXXXXXXXXXXXXXXX.XXXXXXXXXXXXXXXXXXXX.                    .XXXXXXXXXXXXXXXXXXXX.                    .                    .                    .                    .XXXXXXXXXXXXXXXXXXXX.                    .                    .                    .                    .XXXXXXXXXXXXXXXXXXXX.                    .                    .                    .                    .",
"...............................................................................................................................................................................................................................................................................................................................................................................................................................................................................",
".                    .                    .                    .                    .                    .                    .                    .XXXXXXXXXXXXXXXXXXXX.XXXXXXXXXXXXXXXXXXXX.                    .                    .                    .XXXXXXXXXXXXXXXXXXXX.XXXXXXXXXXXXXXXXXXXX.                    .                    .                    .                    .                    .                    .XXXXXXXXXXXXXXXXXXXX.XXXXXXXXXXXXXXXXXXXX.",
".                    .                    .                    .                    .                    .                    .                    .XXXXXXXXXXXXXXXXXXXX.XXXXXXXXXXXXXXXXXXXX.                    .                    .                    .XXXXXXXXXXXXXXXXXXXX.XXXXXXXXXXXXXXXXXXXX.                    .                    .                    .                    .                    .                    .XXXXXXXXXXXXXXXXXXXX.XXXXXXXXXXXXXXXXXXXX.",
".                    .                    .                    .                    .                    .                    .                    .XXXXXXXXXXXXXXXXXXXX.XXXXXXXXXXXXXXXXXXXX.                    .                    .                    .XXXXXXXXXXXXXXXXXXXX.XXXXXXXXXXXXXXXXXXXX.                    .                    .                    .                    .                    .                    .XXXXXXXXXXXXXXXXXXXX.XXXXXXXXXXXXXXXXXXXX.",
".                    .                    .                    .                    .                    .                    .                    .XXXXXXXXXXXXXXXXXXXX.XXXXXXXXXXXXXXXXXXXX.                    .                    .                    .XXXXXXXXXXXXXXXXXXXX.XXXXXXXXXXXXXXXXXXXX.                    .                    .                    .                    .                    .                    .XXXXXXXXXXXXXXXXXXXX.XXXXXXXXXXXXXXXXXXXX.",
".                    .                    .                    .                    .                    .                    .                    .XXXXXXXXXXXXXXXXXXXX.XXXXXXXXXXXXXXXXXXXX.                    .                    .                    .XXXXXXXXXXXXXXXXXXXX.XXXXXXXXXXXXXXXXXXXX.                    .                    .                    .                    .                    .                    .XXXXXXXXXXXXXXXXXXXX.XXXXXXXXXXXXXXXXXXXX.",
".                    .                    .                    .                    .                    .                    .                    .XXXXXXXXXXXXXXXXXXXX.XXXXXXXXXXXXXXXXXXXX.                    .                    .                    .XXXXXXXXXXXXXXXXXXXX.XXXXXXXXXXXXXXXXXXXX.                    .                    .                    .                    .                    .                    .XXXXXXXXXXXXXXXXXXXX.XXXXXXXXXXXXXXXXXXXX.",
".                    .                    .                    .                    .                    .                    .                    .XXXXXXXXXXXXXXXXXXXX.XXXXXXXXXXXXXXXXXXXX.                    .                    .                    .XXXXXXXXXXXXXXXXXXXX.XXXXXXXXXXXXXXXXXXXX.                    .                    .                    .                    .                    .                    .XXXXXXXXXXXXXXXXXXXX.XXXXXXXXXXXXXXXXXXXX.",
".                    .                    .                    .                    .                    .                    .                    .XXXXXXXXXXXXXXXXXXXX.XXXXXXXXXXXXXXXXXXXX.                    .                    .                    .XXXXXXXXXXXXXXXXXXXX.XXXXXXXXXXXXXXXXXXXX.                    .                    .                    .                    .                    .                    .XXXXXXXXXXXXXXXXXXXX.XXXXXXXXXXXXXXXXXXXX.",
".                    .                    .                    .                    .                    .                    .                    .XXXXXXXXXXXXXXXXXXXX.XXXXXXXXXXXXXXXXXXXX.                    .                    .                    .XXXXXXXXXXXXXXXXXXXX.XXXXXXXXXXXXXXXXXXXX.                    .                    .                    .                    .                    .                    .XXXXXXXXXXXXXXXXXXXX.XXXXXXXXXXXXXXXXXXXX.",
".                    .                    .                    .                    .                    .                    .                    .XXXXXXXXXXXXXXXXXXXX.XXXXXXXXXXXXXXXXXXXX.                    .                    .                    .XXXXXXXXXXXXXXXXXXXX.XXXXXXXXXXXXXXXXXXXX.                    .                    .                    .                    .                    .                    .XXXXXXXXXXXXXXXXXXXX.XXXXXXXXXXXXXXXXXXXX.",
".                    .                    .                    .                    .                    .                    .                    .XXXXXXXXXXXXXXXXXXXX.XXXXXXXXXXXXXXXXXXXX.                    .                    .                    .XXXXXXXXXXXXXXXXXXXX.XXXXXXXXXXXXXXXXXXXX.                    .                    .                    .                    .                    .                    .XXXXXXXXXXXXXXXXXXXX.XXXXXXXXXXXXXXXXXXXX.",
".                    .                    .                    .                    .                    .                    .                    .XXXXXXXXXXXXXXXXXXXX.XXXXXXXXXXXXXXXXXXXX.                    .                    .                    .XXXXXXXXXXXXXXXXXXXX.XXXXXXXXXXXXXXXXXXXX.                    .                    .                    .                    .                    .                    .XXXXXXXXXXXXXXXXXXXX.XXXXXXXXXXXXXXXXXXXX.",
".                    .                    .                    .                    .                    .                    .                    .XXXXXXXXXXXXXXXXXXXX.XXXXXXXXXXXXXXXXXXXX.                    .                    .                    .XXXXXXXXXXXXXXXXXXXX.XXXXXXXXXXXXXXXXXXXX.                    .                    .                    .                    .                    .                    .XXXXXXXXXXXXXXXXXXXX.XXXXXXXXXXXXXXXXXXXX.",
".                    .                    .                    .                    .                    .                    .                    .XXXXXXXXXXXXXXXXXXXX.XXXXXXXXXXXXXXXXXXXX.                    .                    .                    .XXXXXXXXXXXXXXXXXXXX.XXXXXXXXXXXXXXXXXXXX.                    .                    .                    .                    .                    .                    .XXXXXXXXXXXXXXXXXXXX.XXXXXXXXXXXXXXXXXXXX.",
".                    .                    .                    .                    .                    .                    .                    .XXXXXXXXXXXXXXXXXXXX.XXXXXXXXXXXXXXXXXXXX.                    .                    .                    .XXXXXXXXXXXXXXXXXXXX.XXXXXXXXXXXXXXXXXXXX.                    .                    .                    .                    .                    .                    .XXXXXXXXXXXXXXXXXXXX.XXXXXXXXXXXXXXXXXXXX.",
".                    .                    .                    .                    .                    .                    .                    .XXXXXXXXXXXXXXXXXXXX.XXXXXXXXXXXXXXXXXXXX.                    .                    .                    .XXXXXXXXXXXXXXXXXXXX.XXXXXXXXXXXXXXXXXXXX.                    .                    .                    .                    .                    .                    .XXXXXXXXXXXXXXXXXXXX.XXXXXXXXXXXXXXXXXXXX.",
".                    .                    .                    .                    .                    .                    .                    .XXXXXXXXXXXXXXXXXXXX.XXXXXXXXXXXXXXXXXXXX.                    .                    .                    .XXXXXXXXXXXXXXXXXXXX.XXXXXXXXXXXXXXXXXXXX.                    .                    .                    .                    .                    .                    .XXXXXXXXXXXXXXXXXXXX.XXXXXXXXXXXXXXXXXXXX.",
".                    .                    .                    .                    .                    .                    .                    .XXXXXXXXXXXXXXXXXXXX.XXXXXXXXXXXXXXXXXXXX.                    .                    .                    .XXXXXXXXXXXXXXXXXXXX.XXXXXXXXXXXXXXXXXXXX.                    .                    .                    .                    .                    .                    .XXXXXXXXXXXXXXXXXXXX.XXXXXXXXXXXXXXXXXXXX.",
".                    .                    .                    .                    .                    .                    .                    .XXXXXXXXXXXXXXXXXXXX.XXXXXXXXXXXXXXXXXXXX.                    .                    .                    .XXXXXXXXXXXXXXXXXXXX.XXXXXXXXXXXXXXXXXXXX.                    .                    .                    .                    .                    .                    .XXXXXXXXXXXXXXXXXXXX.XXXXXXXXXXXXXXXXXXXX.",
".                    .                    .                    .                    .                    .                    .                    .XXXXXXXXXXXXXXXXXXXX.XXXXXXXXXXXXXXXXXXXX.                    .                    .                    .XXXXXXXXXXXXXXXXXXXX.XXXXXXXXXXXXXXXXXXXX.                    .                    .                    .                    .                    .                    .XXXXXXXXXXXXXXXXXXXX.XXXXXXXXXXXXXXXXXXXX.",
"...............................................................................................................................................................................................................................................................................................................................................................................................................................................................................",
".                    .XXXXXXXXXXXXXXXXXXXX.XXXXXXXXXXXXXXXXXXXX.                    .                    .                    .                    .                    .                    .                    .                    .                    .                    .                    .                    .                    .                    .                    .                    .                    .                    .                    .",
".                    .XXXXXXXXXXXXXXXXXXXX.XXXXXXXXXXXXXXXXXXXX.                    .                    .                    .                    .                    .                    .                    .                    .                    .                    .                    .                    .                    .                    .                    .                    .                    .                    .                    .",
".                    .XXXXXXXXXXXXXXXXXXXX.XXXXXXXXXXXXXXXXXXXX.                    .                    .                    .                    .                    .                    .                    .                    .                    .                    .                    .                    .                    .                    .                    .                    .                    .                    .                    .",
".                    .XXXXXXXXXXXXXXXXXXXX.XXXXXXXXXXXXXXXXXXXX.                    .                    .                    .                    .                    .                    .                    .                    .                    .                    .                    .                    .                    .                    .                    .                    .                    .                    .                    .",
".                    .XXXXXXXXXXXXXXXXXXXX.XXXXXXXXXXXXXXXXXXXX.                    .                    .                    .                    .                    .                    .                    .                    .                    .                    .                    .                    .                    .                    .                    .                    .                    .                    .                    .",
".                    .XXXXXXXXXXXXXXXXXXXX.XXXXXXXXXXXXXXXXXXXX.                    .                    .                    .                    .                    .                    .                    .                    .                    .                    .                    .                    .                    .                    .                    .                    .                    .                    .                    .",
".                    .XXXXXXXXXXXXXXXXXXXX.XXXXXXXXXXXXXXXXXXXX.                    .                    .                    .                    .                    .                    .                    .                    .                    .                    .                    .                    .                    .                    .                    .                    .                    .                    .                    .",
".                    .XXXXXXXXXXXXXXXXXXXX.XXXXXXXXXXXXXXXXXXXX.                    .                    .                    .                    .                    .                    .                    .                    .                    .                    .                    .                    .                    .                    .                    .                    .                    .                    .                    .",
".                    .XXXXXXXXXXXXXXXXXXXX.XXXXXXXXXXXXXXXXXXXX.                    .                    .                    .                    .                    .                    .                    .                    .                    .                    .                    .                    .                    .                    .                    .                    .                    .                    .                    .",
".                    .XXXXXXXXXXXXXXXXXXXX.XXXXXXXXXXXXXXXXXXXX.                    .                    .                    .                    .                    .                    .                    .                    .                    .                    .                    .                    .                    .                    .                    .                    .                    .                    .                    .",
".                    .XXXXXXXXXXXXXXXXXXXX.XXXXXXXXXXXXXXXXXXXX.                    .                    .                    .                    .                    .                    .                    .                    .                    .                    .                    .                    .                    .                    .                    .                    .                    .                    .                    .",
".                    .XXXXXXXXXXXXXXXXXXXX.XXXXXXXXXXXXXXXXXXXX.                    .                    .                    .                    .                    .                    .                    .                    .                    .                    .                    .                    .                    .                    .                    .                    .                    .                    .                    .",
".                    .XXXXXXXXXXXXXXXXXXXX.XXXXXXXXXXXXXXXXXXXX.                    .                    .                    .                    .                    .                    .                    .                    .                    .                    .                    .                    .                    .                    .                    .                    .                    .                    .                    .",
".                    .XXXXXXXXXXXXXXXXXXXX.XXXXXXXXXXXXXXXXXXXX.                    .                    .                    .                    .                    .                    .                    .                    .                    .                    .                    .                    .                    .                    .                    .                    .                    .                    .                    .",
".                    .XXXXXXXXXXXXXXXXXXXX.XXXXXXXXXXXXXXXXXXXX.                    .                    .                    .                    .                    .                    .                    .                    .                    .                    .                    .                    .                    .                    .                    .                    .                    .                    .                    .",
".                    .XXXXXXXXXXXXXXXXXXXX.XXXXXXXXXXXXXXXXXXXX.                    .                    .                    .                    .                    .                    .                    .                    .                    .                    .                    .                    .                    .                    .                    .                    .                    .                    .                    .",
".                    .XXXXXXXXXXXXXXXXXXXX.XXXXXXXXXXXXXXXXXXXX.                    .                    .                    .                    .                    .                    .                    .                    .                    .                    .                    .                    .                    .                    .                    .                    .                    .                    .                    .",
".                    .XXXXXXXXXXXXXXXXXXXX.XXXXXXXXXXXXXXXXXXXX.                    .                    .                    .                    .                    .                    .                    .                    .                    .                    .                    .                    .                    .                    .                    .                    .                    .                    .                    .",
".                    .XXXXXXXXXXXXXXXXXXXX.XXXXXXXXXXXXXXXXXXXX.                    .                    .                    .                    .                    .                    .                    .                    .                    .                    .                    .                    .                    .                    .                    .                    .                    .                    .                    .",
".                    .XXXXXXXXXXXXXXXXXXXX.XXXXXXXXXXXXXXXXXXXX.                    .                    .                    .                    .                    .                    .                    .                    .                    .                    .                    .                    .                    .                    .                    .                    .                    .                    .                    .",
"..............................................................................................................................................................................................................................................................................................................................................................................................................................................................................."
};
