/* XPM */
static char *_436e19952eb42d28c674128eff3ae123WbKzHtOI4ohmQ7V[] = {
/* columns rows colors chars-per-pixel */
"78 93 256 2 ",
"   c None",
".  c #030301",
"X  c #0B0300",
"o  c #060901",
"O  c #0B0B03",
"+  c #0C0C0A",
"@  c #03050A",
"#  c #140A04",
"$  c #0E1105",
"%  c #13130C",
"&  c #181708",
"*  c #141412",
"=  c #1A1B13",
"-  c #1C1C1B",
";  c #181811",
":  c #0B1014",
">  c #281806",
",  c #351C06",
"<  c #281C14",
"1  c #28140D",
"2  c #1E2116",
"3  c #1C200F",
"4  c #29220A",
"5  c #392409",
"6  c #222516",
"7  c #23241C",
"8  c #292A1B",
"9  c #342512",
"0  c #382A18",
"q  c #3F3214",
"w  c #242423",
"e  c #2B2B24",
"r  c #2C2B2B",
"t  c #282624",
"y  c #2E3124",
"u  c #33332C",
"i  c #373629",
"p  c #3C3C3A",
"a  c #383734",
"s  c #2F2D2C",
"d  c #1A252C",
"f  c #46290B",
"g  c #442C15",
"h  c #49341A",
"j  c #573919",
"k  c #512F0A",
"l  c #663A17",
"z  c #6C3612",
"x  c #493825",
"c  c #553C23",
"v  c #463F37",
"b  c #623F24",
"n  c #3E4137",
"m  c #3B402D",
"M  c #5B421D",
"N  c #6A441B",
"B  c #76451C",
"V  c #5C4327",
"C  c #42433C",
"Z  c #594936",
"A  c #4F432D",
"S  c #634424",
"D  c #6A4828",
"F  c #7A4B25",
"G  c #734C2C",
"H  c #7B4D2B",
"J  c #764823",
"K  c #7A522B",
"L  c #664B34",
"P  c #6C5438",
"I  c #795636",
"U  c #754F30",
"Y  c #3E3D41",
"T  c #4A4B43",
"R  c #494846",
"E  c #55534C",
"W  c #585855",
"Q  c #4F4C48",
"!  c #685848",
"~  c #765A43",
"^  c #615953",
"/  c #65675D",
"(  c #796B5B",
")  c #6B6A67",
"_  c #75746B",
"`  c #787875",
"'  c #5F6058",
"]  c #3A4851",
"[  c #971614",
"{  c #B11011",
"}  c #B31E26",
"|  c #932F30",
" . c #AF2F31",
".. c #A52419",
"X. c #C90707",
"o. c #D50404",
"O. c #D11413",
"+. c #E80709",
"@. c #F7080A",
"#. c #E6160B",
"$. c #E81716",
"%. c #F91919",
"&. c #EF1010",
"*. c #E8251B",
"=. c #F9241B",
"-. c #F22D15",
";. c #D21625",
":. c #FC1A25",
">. c #E81B2D",
",. c #D1302E",
"<. c #E92325",
"1. c #F92626",
"2. c #E43727",
"3. c #F63627",
"4. c #ED3835",
"5. c #F93735",
"6. c #FE2334",
"7. c #D42A17",
"8. c #854D25",
"9. c #88562B",
"0. c #97572A",
"q. c #845B34",
"w. c #8C5B34",
"e. c #845C3B",
"r. c #875835",
"t. c #935C34",
"y. c #9B5D34",
"u. c #945D39",
"i. c #A55434",
"p. c #8B623A",
"a. c #93633B",
"s. c #9C643B",
"d. c #996438",
"f. c #A46335",
"g. c #A4653B",
"h. c #A5693D",
"j. c #AC6A3C",
"k. c #AB6639",
"l. c #B46B3A",
"z. c #B7713E",
"x. c #9E481E",
"c. c #D24334",
"v. c #FB4739",
"b. c #F74D34",
"n. c #A13B42",
"m. c #FA3D43",
"M. c #DD3B40",
"N. c #8F5446",
"B. c #AE5450",
"V. c #886445",
"C. c #9C6B43",
"Z. c #986844",
"A. c #9C7249",
"S. c #9B7455",
"D. c #8B6D55",
"F. c #A46C43",
"G. c #AB6D43",
"H. c #A46B47",
"J. c #B36D45",
"K. c #AC7145",
"L. c #AC734B",
"P. c #A7754B",
"I. c #B47245",
"U. c #BB7444",
"Y. c #B3754B",
"T. c #BC7A4C",
"R. c #B7774C",
"E. c #AA7853",
"W. c #BC7D52",
"Q. c #B57A54",
"!. c #B06654",
"~. c #897A6B",
"^. c #B17068",
"/. c #CE4F4B",
"(. c #FD4947",
"). c #EB574A",
"_. c #FB5757",
"`. c #F5554D",
"'. c #C57B49",
"]. c #C47C53",
"[. c #C36652",
"{. c #FC6457",
"}. c #EE6554",
"|. c #C9706D",
" X c #FC6768",
".X c #FB7875",
"XX c #F4766D",
"oX c #7E837E",
"OX c #BB8258",
"+X c #A7815D",
"@X c #8E8579",
"#X c #BA8862",
"$X c #B18975",
"%X c #9E8156",
"&X c #C4845C",
"*X c #C98659",
"=X c #D38859",
"-X c #D18652",
";X c #CD8C63",
":X c #C68B66",
">X c #D48D62",
",X c #CA926A",
"<X c #DD9B6C",
"1X c #D89467",
"2X c #D69A76",
"3X c #CD9273",
"4X c #E59A69",
"5X c #FE857A",
"6X c #E59A75",
"7X c #E9A476",
"8X c #F5AB79",
"9X c #F1A771",
"0X c #D79766",
"qX c #7D7C82",
"wX c #FF7885",
"eX c #888884",
"rX c #93938C",
"tX c #9A9998",
"yX c #938E88",
"uX c #B59289",
"iX c #B2A592",
"pX c #A9A9A6",
"aX c #B6B3AC",
"sX c #B8B7B5",
"dX c #B2ABAB",
"fX c #A29EA3",
"gX c #CF928F",
"hX c #FC9898",
"jX c #F99188",
"kX c #CAAC9A",
"lX c #FCB98A",
"zX c #FDA599",
"xX c #EEB08A",
"cX c #CABBAD",
"vX c #F9B6A9",
"bX c #FDBAB7",
"nX c #EBB2AA",
"mX c #FFC196",
"MX c #D5C8B8",
"NX c #C7C2B9",
"BX c #FDC6B9",
"VX c #E9C5B9",
"CX c #C8C8C5",
"ZX c #DBDBD8",
"AX c #D5D2CC",
"SX c #EAC6C4",
"DX c #FBC9C6",
"FX c #FDD6C9",
"GX c #FBD8D2",
"HX c #EAD7CE",
"JX c #FCE6D8",
"KX c #F1E6D8",
"LX c #E6E7E3",
"PX c #FEF5E4",
"IX c #F7EDE9",
"UX c #EFE0DF",
/* pixels */
"                                                                                                                                                            ",
"                                                                                                  DXBXDXgX| |  .N.BXVXHX    GXDXHX                          ",
"                                                                                          GXSXJXFXgX^.|./. .{ ,. .!.^.$XbXDX|.^.uX                          ",
"                                                                                          $XD.nXjXB.B.i.,.;.;.>.,. .i.!.|.XX .| B.                          ",
"                                                                                        DXN.[ ).).7.).2.2.*.<.<.<.2.c.).,.,. ./.| BX                        ",
"                                                                                    HXVXvXc.;.%.=.-.b.-.3.3.<.<.1.5.3.v.#.-.b.).}.|.bX      IX              ",
"                                                                                  GXgX!.zX/.4.*.#.b.b.3.(.(.5.4.m.(.3.3.-.3.2.,.zX .|.bXnX                  ",
"                                                                                  gX| [ /.,.7.O.*.2.`.4.(._. X X_.(.4.*.v.3.7.} ).[ | B.^.SX                ",
"                                                                              IXDX/.[ { { O.X.*.*.2.{.).}.XXhXhX.X X).v.v.3.*.X.X.{ { [  .^.                ",
"                                                                            SXbX|.} { O.X.$.o.1.o.5.{..XjXhXbXbXzXhX.X X4.*.1.o.#.o.X.{ } i.bX              ",
"                                                                          HX$XB..X} { X.o.+.&.%.$.4. XzXBXFXFXGXGXDXhXjX(.3.1.&.+.+.o.X.O. .[.bXSX          ",
"                                                                        HXuXB.[ .X,.X.X.o.+.%.:.6.m..XvXJXPXPXPX  JXvX.X_._.1.:.@.@.+.&.o.{ } B.^.SX        ",
"                                                                        gXn...{ <.$.$.$.#.&.5.(._. X5XbXJXPXPX    JXBXjXXX X_.5.&.+.&.%.#.X.{ [ N.uX        ",
"                                                                      GX|. .{ o.+.+.=.=.%.1._..X5XjXzXBXFXPXZXR ` JXGXnXhXjX.X_.5.1.1.=.%.o.X.{  .^.SX      ",
"                                                                      kX!./.;.o.:.@.%.%.=.5.{.jXzXbXBXBXZXpXrXo C tXsXBXBXzXjX X(.v.5.=.%.%.o.{ ,.B.uX      ",
"                                                                      VX^./.,.O.:.@.@.%.1.(.XXzXBXDXZXrXfXE n O - 7 W pXNXbXzX5X).v.4.$.%.%.$.O.} B.^.      ",
"                                                                      PX3X/.,.<.%.&.@.%.1.`.jXbXDXLX` u _ ) n + % = a u W CXBXhX}.(.v.5.#.1.1.4.}.!.nX      ",
"                                                                    PXPX3X/.c.<.%.=.=.1.4.}.hXBXGXCX- E W _ R t w a n e % @XBXzXXX_.(.(.<.5.1.4.5X[.JX      ",
"                                                                    nXvX|./.4.<.$.3.v.`.{.5XvXFXJX` r E v u r e 7 a u u % T CXBXjX.X`.(.5.1.<.2.}.!.vXnXSX  ",
"                                                                    ^.^.[._.m.1.1.2.{.XX5XzXBXFXCX* R u 7 O $ % O = ; 6 2 $ @XJXvXjX.X_.5.1.<.c.}.!.^.^.gX  ",
"                                                                    N.!.[.}.(.1.=.3.{.XX5XzXDXGXCXO R ; % % % % $ ; $ $ 6 o ` JXzXjX.X_.5.=.3.b.}.[.!.N.uX  ",
"                                                                    gX:Xl.x.b.=.#.-.v.`.).XXzXHX) e u % 7 u a u 2 2 ; $ % o Q CX.X_.(.5.=.#.#.b.c.c.].gXMX  ",
"                                                                      gXi...7.#.o.#.*.1.5.M.LX` % a 7 p R T T p 2 2 7 6 $ o & E CX4.1.1.+.#.O.7.[ i.^.JX    ",
"                                                                      BX!.} X.O.o.$.$.1.6.>.AX+ u u - W _ ' E n e 8 y i 3 & o O rX<.6.%.$.O.X.{ [ B.nXPX    ",
"                                                                        vX/.} { _.,.;.6.:.LX` = u 7 p ) rX/ E C a 8 6 m y & o O R CX>.;.;. X[ XXz gX        ",
"                                                                          gXn.[.DXjX,.$.6.AX* u 7 7 W ) dX@XC a T T 8 a n 3 o % + tX;.} wXDX| vXuX          ",
"                                                                          SXgXGXPXbX .;.LX) ; u 7 u W ` eXW t p a n 2 i m & O O + Q CX .IXJXgXnX            ",
"                                                                                  VXB.wXZX. e t 7 a E ) R . * w + o o 6 y & 3 + + + tXB.                    ",
"                                                                                    |.LX` % u 7 7 C W R = . + . . . . % y 6 7 w + - R CX                    ",
"                                                                                    gXZXO y u 7 t _ aX` r t - - ; $ % 3 n y 6 u - r . eX                    ",
"                                                                                    SXLX% a u u e tXZXtX` ` R Y r - 7 6 u y 8 C r - . eX                    ",
"                                                                                    yXdXT yX/ e t eXpXtXfXqXW Y r w 7 2 6 8 8 R R w . eX                    ",
"                                                                                  yXe T W yX/ e p ` tXsXrX) Q p w w 2 ; $ 8 e E R W W W CX                  ",
"                                                                                LXu < 6 e u e e E tXCXtXW a e - % % % O . ; y W u Q _ 7 W ZX                ",
"                                                                                  rXX + C W t t W aXsX/ / 8 y 6 3 ; % O . o = T u ; w w + dX                ",
"                                                                                  ZXO e Q ` t u W aXyXu rXC C a y 6 = = + . O 6 u ; % ; * tX                ",
"                                                                                  ) u u w Q r r Q pXeX+ _ 6 t 2 % O O ; * . . $ e 7 o ; O tX                ",
"                                                                                  % p < % r R t R eX` % p % % + . . . * * . . % ; e % ; O tX                ",
"                                                                                  rXeX% O % R r Q _ ) - t @ . . . . . + + . . o $ e 2 O Q AX                ",
"                                                                                    LX* % * R r W ) W t * . . . . . . . . . . % o 6 t . eX                  ",
"                                                                                    ZX7 t t a a eX) W t . . . . . . . . . . . = o 6 8 . yX                  ",
"                                                                                  UXrXe 7 t w u CX` / p t 7 - * + . . . . . O 8 & 6 7 . yX                  ",
"                                                                                KXyXi y a t w u ZX` W n a e t - O . . . . o % i = & 8 . oX                  ",
"                                                                            JXuXiX! 9 0 a r p u sX/ T y 7 8 % o . . . . . $ = i = O ; . p CX                ",
"                                                                          GXuX~ D.L 0 v T a a = ` W T u t 7 ; O . o $ % $ = 8 8 ; O o . . eX                ",
"                                                                        JX$XV.S.V.j g 0 Q v t * C E W Q R u u - ; ; 6 6 6 8 8 6 % O O o . p AX              ",
"                                                                      JX$XV.C.E.P.K j X < r r w 2 p R W / p R a r t t 8 6 3 3 & O . . . . O dX              ",
"                                                                    KX^.V.Z.L.R.L.A.S > # w s p 7 - - w p w r w - ; % ; % $ $ o . . . . . . dX              ",
"                                                                LXIX@X~ A.F.G.I.R.P.G c # * r R Q a w @ + @ + @ . . . . . . . . . . O % O + fX  LXLX        ",
"                                                              KX@X$XI S.C.F.h.K.&XL.Z.D f # > x ^ ~.) : r w @ d : @ . . . . X X X # 9 h g x D.@X~.( aX      ",
"                                                            KX$XF 9.H.s.F.F.h.h.&X&XQ.a.F k , g x @X@X* W W : ] d @ @ . . . X # > f D U r.w.J J l j ~ MX    ",
"                                                            @XI r.Z.s.F.L.h.f.k.W.*X:X:XE.r.J j , Z ! # Q Q % p ; . X X X X > 5 b I Z.C.C.s.t.a.H I ~ ! cX  ",
"                                                            Z V.w.Z.F.K.Y.k.f.k.I.&X*X2X2X:XQ.V.b V c , x 0 # 1 X X X # > 0 c V.+X#X,X:XOXW.R.F.a.e.S.Z Z AX",
"                                                            L e.w.P.L.F.K.I.j.k.j.I.R.2X2X2X3X:XS.Z.I D L c g , , , , k G V.E.3XxXxXxX7X>X*X*XY.H.e.D.D.> cX",
"                                                            L H s.L.F.G.I.j.J.j.k.k.k.&X*X;X,X2X:X#XQ.P.A.V.U G I e.Z.E.OX3X7XxXmXlXlX9X=X-X'.I.F.F G V.5 cX",
"                                                          HXc H Z.P.s.G.G.k.W.I.G.k.f.j.J.R.*X*X1XW.L.Q.E.u.u.Z.H.Q.,X<X1X1X6X7XlXlXlX8X-X'.z.h.t.l l ~ g iX",
"                                                        HX~.j K r.H.F.s.g.h.R.R.W.I.I.k.g.y.I.j.].j.k.j.k.0.y.I.W.*X=X=X-X-X-X4X4X8XlX9X'.U.j.d.B k k c L Z ",
"                                                      HX~.L j K H Z.H.a.d.s.d.Y.W.W.&XR.G.y.y.y.f.0.f.f.k.j.j.].*X-X-X'.'.-X-X-X=X4X8X1XT.I.h.t.F j > g ! > ",
"                                                      ~.P P h G H q.a.a.a.a.d.F.L.W.OXOXY.g.0.0.0.f.k.j.j.U.U.U.U.'.-X'.'.-X'.'.=X>X<X*XR.G.s.p.G f > 0 Z 6 ",
"                                                      ! ( Z 5 N D K q.p.q.w.a.a.C.L.Q.R.K.s.y.y.j.U.R.I.I.U.T.'.'.=X=X'.U.'.U.'.=X=X>XW.F.C.a.e.U , # > i 7 ",
"                                                      ~.! h 5 j N G K I I q.p.w.a.C.H.H.h.s.d.K.I.I.I.I.R.T.*X1X<X4X4X-XU.U.J.'.=X*X*XR.Z.Z.e.I V 9 & & < C ",
"                                                      ~.x q f k j S D G K q.q.w.a.a.a.u.d.h.G.L.Y.I.G.j.I.*X=X<X7X7X7X1X].G.j.U.*X&XW.L.a.p.I I x < & ; a tX",
"                                                      ( h > 5 f j D S N D K K q.w.w.w.9.y.F.Y.F.L.R.Y.G.j.I.R.T.*X>X<X1XW.g.y.J.].W.W.H.a.e.U L x > i T tX  ",
"                                                      Z x > , f j U G S D G H F 9.u.u.u.y.h.G.F.F.K.Y.R.R.I.j.j.j.I.OX*XY.t.0.k.T.T.R.H.e.I D L h X yXcXLX  ",
"                                                      _ 9 > , f D V.e.G G G H r.u.Z.H.F.F.J.R.Q.L.F.G.I.R.T.T.T.I.g.j.R.h.8.8.f.U.I.K.s.q.G j h q X pX      ",
"                                                      HX9 4 5 k I A.Z.r.r.w.u.s.F.G.K.K.Y.OX&X>X*X*XR.g.k.I.I.].W.I.s.s.w.J N y.G.H.C.e.G S h 0 < i CX      ",
"                                                        0 9 g k e.E.H.s.h.h.g.y.h.G.G.K.L.E.R.-X-X=X=X].W.I.y.k.Y.W.s.q.D j k q.s.a.e.U V x 0 & + ~.        ",
"                                                        0 9 h j V.E.P.P.F.u.y.G.I.R.R.W.&XW.I.l.z.U.'.&X;XW.G.y.u.F.C.q.l f j q.w.K G S h 0 > X a CX        ",
"                                                        ( 0 h S D.%XA.A.w.9.h.*X=X=X*X*X=X*X*X].-X].J.I.R.W.&XL.9.9.a.V.D f V K K D S c h 0 & X `           ",
"                                                        MXx h S P.P.w.d.F.Y.;X1X*XR.G.f.y.s.I.T.>X;X&XOXQ.L.Q.Q.d.9.F K I c j G G S c h 9 > # e sX          ",
"                                                          x h z g.y.8.G.*X;X;XR.f.0.9.9.B B 9.d.j.G.L.E.L.P.L.F.F.w.l j U Z c V V h g 9 & # X `             ",
"                                                          x j B 8.8.t.Y.W.G.k.f.h.R.OXY.g.s.K.d.d.u.w.r.r.t.a.C.H.a.N k h h V h h 9 < > # O X ` LX          ",
"                                                          V V J F w.F.L.K.G.R.;X6X7X<X&XI.I.R.G.s.C.Z.w.r.9.F w.w.p.e.D g , h x 0 > & # X + X w aX          ",
"                                                      iXkXc G p.a.C.P.L.L.OX;XxXxXxX1X&XT.G.0.9.9.w.C.A.A.p.r.F B F I I L 9 > 0 i & X X X + . . tX          ",
"                                                  NXcXZ ~ U V.C.p.9.9.9.9.t.d.Y.&X1X>X*X*X*XY.9.9.F H p.C.C.C.u.F l k S P x 4 & e # . + + + . . pX          ",
"                                              NXcX! ! L P S.P.E.h.u.s.h.h.u.u.t.9.t.s.d.s.Q.:XOXP.a.H J H w.a.H.a.J k h L A i = + X + + . . + p cX          ",
"                                            NXE E x h P V.a.F.R.R.W.&X;X,X,X3X:XE.Z.w.K K q.q.C.C.E.E.r.J F 8.s.C.Z.N k c x i w + . + . . + u aX            ",
"                                          MX! 0 9 g g l K B 9.9.9.w.t.t.C.Q.:X2X2X2X,XQ.F.y.B 8.B 9.P.E.H.u.8.9.C.E.I k 5 9 y - + + + . p _ fX              ",
"                                          ( > 9 , f j l B 8.B N N J J N B H r.H.C.W.xX6X].Y.R.s.F z B s.OXOXF.9.H.#XZ.V 5 & & + . . + . eXZX                ",
"                                          x > 9 , j D q.L.T.d.9.w.a.C.Z.r.8.J z z F Z.L.Y.OX:XOXQ.u.B B u.L.Q.R.OX#XZ.S q & O o . . . . rX                  ",
"                                          Z > x L V.q.C.&X<X*Xy.G.OX:X#XE.Z.r.H J l z z F Z.E.OX,X:XF.8.z 8.s.OX&XOXp.S h & . . . . + . rX                  ",
"                                        kXL f I E.E.a.G.OX<X*X0.L.&X,X&X&XF.0.t.t.8.B l k l G Z.E.OX:XY.8.z z t.E.E.e.D c & . . . . * . rX                  ",
"                                    cXkXL l r.s.W.;Xg.j.T.*X=Xy.K.&X;XR.>XU.0.y.R.s.H J j k f M I C.Q.:XR.8.z N a.Z.r.D c # . . . . + p CX                  ",
"                                  MX~ V D G F.Y.W.7Xj.j.I.j.<Xj.k.=X1X*X1X*Xy.k.*XE.u.K D j f 5 M I u.E.:XP.F l D q.I L h $ . . a ` _ dX                    ",
"                              aXiXD.V S Z.E.Q.*XT.6XU.U.z.0.<XR.k.*X<X>X1X=Xg.h.&XE.Z.e.K D j 5 5 j G Z.+X#XA.k k D L L 0 O . u aX                          ",
"                            MXP D G H u.OXW.*X>X-X1X'.=Xz.x.>X>XR.].<X>X1XT.y.u.L.H.Z.e.G D S g > 5 j G I S.+XG k j x x > . . )                             ",
"                PX  JXPXkXiXD.D B d.d.R.>X-X'.4X4X=X-X9X'.l.4X9X=XU.4X<X6Xk.0.u.C.a.Z.q.D D L x > > 4 h M V.S.I g 5 9 8 O . . `                             ",
"                    cXiXP L S H Z.C.L.,X*X<XT.'.4X>X>XlX>XR.4X4X].'.6X<X<Xg.8.t.w.r.e.I D G L x < > # q j I p.V.h 4 4 = . @ a sX                            ",
"                MXiXD.L L G I e.H.u.OX3XOX,X,XF.1X*X&XlX2X:XxX'.l.=X7X;XOXd.B 9.9.F K H G G S g < > . 0 h U G I h 4 6 o . a dX                              ",
"              cXD.L U D r.e.Z.L.I.I.*X4X*XR.>XI.T.U.I.7X<X;XmXj.0.<XxXOXs.9.N B K K G U I G j 1 < < X 4 q S S V c > $ u oXpX                                ",
"        MXiXkXD.G e.r.8.9.L.I.l.'.4X4X9X=Xl.4Xl.l.z.l.=X4X>XmXj.0.<XxXL.d.K N N D D U I I S 5 1 < 6 O & q V j j 5 Z _ pX                                    ",
"  PXMXuXD.I V.e.H a.L.h.R.R.].z.=X8X8XlX4X-X7Xl.k.l.k.'.1X1XlXF.9.:X2XA.p.K S S V S P I L f > < 0 0 & & 9 c c g h cX                                        ",
"MXiX%Xj j I e.C.H.R.;X].1X*X<X>X4X8X8XlXlX>X<X*Xj.k.h.I.W.*XxXA.q.+X+Xp.P S j c c Z P Z g , > < 0 y 4 4 0 x c > ~.                                          "
};
