/* XPM */
static char *out[] = {
/* columns rows colors chars-per-pixel */
"150 89 251 2 ",
"   c None",
".  c #020202",
"X  c #0A0402",
"o  c #0C0A04",
"O  c #020409",
"+  c #0A060A",
"@  c #0C0B0B",
"#  c #060906",
"$  c #120301",
"%  c #120B04",
"&  c #110E0C",
"*  c #1B0802",
"=  c #14120C",
"-  c #1A140D",
";  c #181608",
":  c #060813",
">  c #141313",
",  c #191614",
"<  c #1C1A14",
"1  c #1C1B1B",
"2  c #16151A",
"3  c #0F1010",
"4  c #250C01",
"5  c #291707",
"6  c #341805",
"7  c #221C15",
"8  c #221E1C",
"9  c #271B16",
"0  c #331910",
"q  c #1F201A",
"w  c #38240C",
"e  c #24221C",
"r  c #2B251A",
"t  c #382917",
"y  c #392E18",
"u  c #1C1A22",
"i  c #1F2323",
"p  c #242323",
"a  c #282625",
"s  c #2C2A25",
"d  c #2C2B2B",
"f  c #252826",
"g  c #312E2B",
"h  c #362C24",
"j  c #33332C",
"k  c #3A372B",
"l  c #343433",
"z  c #3C3B35",
"x  c #3C3B3A",
"c  c #383737",
"v  c #2E3030",
"b  c #211F23",
"n  c #472809",
"m  c #472B14",
"M  c #49351A",
"N  c #5C3C1B",
"B  c #563719",
"V  c #52310E",
"C  c #653D19",
"Z  c #493626",
"A  c #533C22",
"S  c #593D27",
"D  c #443E39",
"F  c #4C342D",
"G  c #663B23",
"H  c #3A403D",
"J  c #59431A",
"K  c #65431D",
"L  c #774519",
"P  c #5C4223",
"I  c #5B4529",
"U  c #43423E",
"Y  c #484438",
"T  c #594638",
"R  c #5E5322",
"E  c #644523",
"W  c #6C4C2A",
"Q  c #664728",
"!  c #734C2A",
"~  c #7A4D2B",
"^  c #754A24",
"/  c #77522D",
"(  c #664A37",
")  c #7C5333",
"_  c #775639",
"`  c #705137",
"'  c #3E3C41",
"]  c #3F4144",
"[  c #444342",
"{  c #4C4C4C",
"}  c #494845",
"|  c #544D49",
" . c #56544C",
".. c #555454",
"X. c #5C5B5B",
"o. c #5A5955",
"O. c #524E53",
"+. c #6A5646",
"@. c #785946",
"#. c #635E58",
"$. c #5D615A",
"%. c #63635B",
"&. c #7A654B",
"*. c #646363",
"=. c #6C6C6B",
"-. c #696966",
";. c #726F6D",
":. c #747473",
">. c #7C7B7B",
",. c #787875",
"<. c #72736B",
"1. c #5F5C61",
"2. c #473F53",
"3. c #B77711",
"4. c #854E27",
"5. c #84542D",
"6. c #8A562C",
"7. c #94592B",
"8. c #845532",
"9. c #855A33",
"0. c #8B5B33",
"q. c #895936",
"w. c #925C34",
"e. c #965D37",
"r. c #804F30",
"t. c #A15C33",
"y. c #8A613C",
"u. c #94633B",
"i. c #9C643B",
"p. c #996437",
"a. c #936F33",
"s. c #A4693C",
"d. c #AB6C3D",
"f. c #A66539",
"g. c #B7763B",
"h. c #B07530",
"j. c #C2792B",
"k. c #845E44",
"l. c #896547",
"z. c #9C6A43",
"x. c #966947",
"c. c #98734D",
"v. c #8A6954",
"b. c #9D7758",
"n. c #986F52",
"m. c #A46B44",
"M. c #AB6E43",
"N. c #A46B47",
"B. c #B46E43",
"V. c #AD744A",
"C. c #A97549",
"Z. c #B37345",
"A. c #B3744B",
"S. c #BC7B4D",
"D. c #B87849",
"F. c #A87857",
"G. c #BC7C53",
"H. c #B37B53",
"J. c #917A6B",
"K. c #AA7D63",
"L. c #C37B4C",
"P. c #C77A48",
"I. c #D27E4B",
"U. c #C47E52",
"Y. c #7D8178",
"T. c #A88833",
"R. c #BA8459",
"E. c #B1894D",
"W. c #84847C",
"Q. c #97806D",
"!. c #B78768",
"~. c #AD8D74",
"^. c #AF9A62",
"/. c #D5834D",
"(. c #C58254",
"). c #CB8453",
"_. c #CC8A5C",
"`. c #C68659",
"'. c #D38454",
"]. c #D48B5B",
"[. c #D98959",
"{. c #D8915C",
"}. c #C68D50",
"|. c #E3915A",
" X c #C98B64",
".X c #D68C61",
"XX c #D49363",
"oX c #DA9668",
"OX c #D79C75",
"+X c #C9936F",
"@X c #E49C6C",
"#X c #E59668",
"$X c #E79E76",
"%X c #D7A27B",
"&X c #E9A676",
"*X c #F8A878",
"=X c #F4A974",
"-X c #C5A45A",
";X c #C1803C",
":X c #7D7C82",
">X c #817E86",
",X c #7C8B8C",
"<X c #848484",
"1X c #8C8C8B",
"2X c #888A87",
"3X c #94938E",
"4X c #999588",
"5X c #939392",
"6X c #9A9A96",
"7X c #9B9B9A",
"8X c #979998",
"9X c #908F8F",
"0X c #B19B8B",
"qX c #AAA399",
"wX c #A9A8A6",
"eX c #B1AEAC",
"rX c #B5B4AC",
"tX c #B5B4B3",
"yX c #BABAB5",
"uX c #BCBBBB",
"iX c #B7B6B5",
"pX c #ADB1AC",
"aX c #9EA7A0",
"sX c #C59B86",
"dX c #D8A688",
"fX c #C9AB95",
"gX c #FBB385",
"hX c #ECAB85",
"jX c #C1BCB9",
"kX c #D1B8AA",
"lX c #E2BDA2",
"zX c #C4C4BC",
"xX c #D8C3B8",
"cX c #FBD6BD",
"vX c #F4CBB4",
"bX c #BDBEC1",
"nX c #C1BEC0",
"mX c #BECAC3",
"MX c #C3C2C1",
"NX c #CBC9C9",
"BX c #D2C7C5",
"VX c #D5D4CE",
"CX c #DAD9D7",
"ZX c #D0CED4",
"AX c #FBDAC6",
"SX c #E8D7CC",
"DX c #FBE8D8",
"FX c #EDE1D4",
"GX c #E5E5E4",
"HX c #FCF5E5",
"JX c #FBEEE2",
/* pixels */
"                                                                                                                                                                                                                                                                                                            ",
"                                                                                                                                                                                                            CXCX                                                                                            ",
"                                                                                                                                                                                                        ZX7X5X:XGX                                                                                          ",
"                                                                                                                                                                                                        1X....} uX                                                                                          ",
"                                                                                                                                                                                                      wX{ { d { ,.wX                                                                                        ",
"                                                                                                                                                                                                      1Xx } > [ ..X.ZX                                                                                      ",
"                                                                                                                                                                                                      7Xc l @ x -.{ 7X                                                                                      ",
"                                                                                                                                                                                                      5Xe u + l ..X.X.GX                                                                                    ",
"                                                                                                                                                                                                      <X@ 3 # 1 [ *...7X                                                                                    ",
"                                                                                                                                                                                                      :.. @ # + l X.=.X.CX                                                                                  ",
"                                                                                                                                                                                                      *.. > + . f ..*...8X                                                                                  ",
"                                                                                                                                                                                                      X.. , @ @ @ x ..>.1.GX                                                                                ",
"                                                                                                                                                                                                      #.. > + > X f O.>...GX                                                                                ",
"                                                                                                                                                                                                      X.. 3 + # @ 1 1.=.=.bX                                                                                ",
"                                                                                                                                                                                                      *.. 3 + 3 + f ;.:.,.=.                                                                                ",
"                                                                                                                                                                                                      =.. @ @ 2 . p } { } d CX                                                                              ",
"                                                                                                                                                                                                      tXf + 3 @ @ + c ,.=.-.uX                                                                              ",
"                                                                                                                                                                                                        ... 3 . 3 . d >.:.,.=.                                                                              ",
"                                                                                                                                                                                                        X.. @ @ @ . a v x v u CX                                                                            ",
"                                                                                                                                                                                                        X.+ @ = . + > u v { l wX                                                                            ",
"                                                                                                                                                                                                        X.+ @ # @ > . p ,.aX9X:XGX                                                                          ",
"                                                                                                                                                                                                        X.. 3 # 2 @ + 1 *.=.;...                                                                            ",
"                                                                                                                                                                                                        wXd @ @ @ + # & 2 2 d x                                                                             ",
"                                                                                                                                                                                                          { O @ @ @ @ @ p { :.:.uX                                                                          ",
"                                                                                                                                                                                                          X.# 3 # @ > X 2 *.eXpX1X                                                                          ",
"                                                                                                                                                                                                          X.# @ # @ 3 # @ x ..-.1.GX                                                                        ",
"                                                                                                                                                                                                          X.. > + + + . > 1 1 p c                                                                           ",
"                                                                                                                                                                                                          eXd @ + @ @ . # 1 l >.>.iX                                                                        ",
"                                                                                                                                                                                                            ... o @ 3 # . 3 x 9X7X=.                                                                        ",
"                                                                                                                                                                                                            X.. + 3 # . . . 1 d ....                                                                        ",
"                                                                                                                                                                                                            ... @ > # @ . . @ o d ]                                                                         ",
"                                                                                                                                                                                                            O.. 2 # + @ . . > u *.>.eX                                                                      ",
"                                                                                                                                                                                                            X.+ > O @ o . O , v :.1X:.                                                                      ",
"                                                                                                                                                                                                            pXd X @ @ + . X 3 p p } X.                                                                      ",
"                                                                                                                                                                                                              ... > + = . . O + + v [                                                                       ",
"                                                                                                                                                                                                              ... > # 2 # . . + 1 [ X.wX                                                                    ",
"                                                                                                                                      2X5X5X5X9X5X5X5X1X5X5X5X9X9X9X3X5X5X5X5X6X7X6X6X6X6X6X8X5X5X6X7X7X7X5X7X[ e f 2 p # . . # f [ =.:.                                                                    ",
"                                                                                                                    <X<X<X1X1X<X1X2X<Xl c c x x x c x x x c c x x x z D x D D } D [ } ' [ [ [ } [ ' [ ' ' [ D x l l a d 2 + # . u c X.1.                                                                    ",
"                                                                                                  >.>.2X>.>.>.>.,.<X2 f e 1 f p b f a d d v v v v d d v d a g d d g a g g g s j a s g s d d a d a d d d d l d f f p p p p < + . , 1 [ [ CX                                                                  ",
"                                                                                        1X>.>.>.>.1 1 1 1 2 2 > > 2 > 1 b # , 3 > 3 3 3 3 @ 3 @ > 3 @ @ 3 & 3 & % % & % % % % & o o % @ % @ % & + + & + + @ 3 + @ + @ 2 b p i + > q l { 9X                                                                  ",
"                                                                                  9X;.>.f > 2 , O = > . 2 @ 3 @ 3 # # + @ . . . . . . . . . . . O . . + > 3 @ , > & % ; % % % = ; ; - < > < g a & X . . . . . . . . . + 2 f v p p x d ..} CX                                                                ",
"                                                                            5X=.>.d # . 3 > @ @ + . . X # . X . # . . + . . . . . . . . . . . . . . . 2 e p a 7 g g , - 9 9 o 7 < < r d < < z x 7 . . X O X . . . . . . + < f j c [ [ [ ' >.>.>.<X>.>.,.:.=.=.=.:.                                          ",
"                                                                        5X:.l + # + @ . . # . + X # + . # . # . . . . X . . . . . . . . . . . . . . # > 1 p c , g g 9 - 7 7 X r = # ; e o X e p @ . . . . . . . . . . . . + 2 f l ] [ l l l u e i 8 u 1 2 > @ > > ,.=.=.=.=.  GXGX                          ",
"                                                                    1X,.x . > @ . # # + . . + + . # O . . . . . . . . . O . . . . . . . . . . . . . . # # > a 8 7 9 a 9 % % - z ; . o < = = 8 % . X X . . . . . . . . . . . + @ > 1 1 2 1 1 1 > 2 , 1 1 < 1 2 1 2 3 3 @ 1 2 >.*.>.GX                        ",
"                                                                5X:.f + 3 . . . . # . # # . # . . . . . . . . . . # . . . . . . . . . . . . . . . . . + @ @ = d , - 7 ; X X 7 h ; # o ; ; < < . . X . . . X . . . . . . . . . . . . . # . . . . . . # # + + # @ + 3 = o b 1 @ 3 p =.<X                      ",
"                                                            7X:.d . O O . . O . . . . . # . . . O . . . . O . . . . . . . . . . . . . . . . . . . . . o < < % r 9 ; - . X X X < ; # # o = = = # . . . . . . . . . . . . . . . . . . . # . . . . . . . . . . . . . . O . + @ 3 1 2 1 > 1X                    ",
"                                                          aXf O O O O O O O . . . . . . . . . . . O . O O O . . . . . . . . . . . . . . . . . . . . . % r y 5 r y h k o f e . < ; 3 # o = , g q @ . . . . . . . . . . . . . . . . . . . . . . . . . . . . . . . . . . . . . . 3 2 1 1 p 1X                  ",
"                                                        wXd . . . . . . . . . . . . . . . . . . . . . . . . . . . . . . . . . . . . . . . . . . . . . ; h k 5 7 r h k o z H # l < ; o # @ , j f = X . . . . . . # . . . . . . . . . . . . . . . . . # . # . . . . . . . . . . # X 1 1 1 1 wX                ",
"                                                      wXf O @ . . . . . . . . . . . . . . . . . . . . . . . . . . . . . . . . . . . . . . . . . . . . % j k r 7 ; ; 8 @ 8 1 > H o . o ; , = > < o . . . . . . . O . . X # . . . . . . . . . . . . . . . # . . . . . . . . . . # . @ # 1 > }                 ",
"                                                    wXf + . + . . . . . . . . . . . . . . . . . . . . . X . X . . . . . . . . . . . . . . . . . . . . % h k r r 9 % % . # . 2 l o # 3 > > o # . . . . . . . . # . . . . . . . . . . . . . . . . . . + . . . . . . . . . # . . # . . + + 3 f 8X              ",
"                                                  uXf O . + . . . . . X X X . . . . . . . . . . . . . . X X X . . . . . . . . . . . . . . . . . . . . . < 9 - 7 % % . . + . # , . # # . # X . . . . X . . . . . X O 3 # . . . . . . . . . . . . . . + . # X # # X # + @ + @ @ . @ . @ . . + [               ",
"                                                  *.. # . . . . . . . . . . . . O . . . . . . . . . X . . . . . . . . . . . . . . . . . . . . O . . . . X X X X X X . 2 l v v c j H k H H z z x z H x c x x x c [ q 2 , + + . . . . . . + @ 3 @ # # . . @ 2 3 > 2 > 2 > > > 2 . @ . . @ . . 1 7X            ",
"                                                wXf + O . O . . . . . . . . . . O . . . . . . . . . . . % r x x x [ [ [ [ [ [ [ D ] [ [ ] [ ] } ' ' } } D [ D D } } c ;.pXpXpXtXrXyXtXuXzXtXyXuXuXuXyXiXuXuXuXiXyX[ @ 1 @ 3 . . . . + 2 q d l l v } [ x 3 1 p p b 1 1 1 2 1 1 & + 3 . + # . . ..            ",
"                                                %.. + . . : O . O . . . . . . . . . O . . . . . . . H H $.wXiXuXuXbXMXMXMXbXbXMXbXMXjXMXzXbXMXMXnXnXnXnXnXMXnXnXNXMXtXCX                                          { O + @ @ . . . # @ 8 d x } X.1.yXnXiX{ ' b 8 v 8 a b p p 1 1 3 , + . # . . x GX          ",
"                                              eXr . . O . O . O O O O O . . . . X . . . . . # @ H ..tXbXNX                                                                                                        { X # = @ . . @ # # 1 d l ..*.,.CX    MXiX{ 1 f p f p s p u 1 1 > 3 @ # . . 2 wX          ",
"                                              J.X X X . . . O O O O O O . . . . * X X X . % U %.uXNX                                                                                                              :.3 @ @ @ O . @ + . 2 i d [ ..=.1X        uX..p a f p b 1 p 1 1 1 > 3 + o # . ;.          ",
"                                            GX#.X X . . # . . . O . . X . X $ 4 0 4 5 4 % | jXBX                                                                                                                  ZXc . @ 2 . . # . . @ 3 > 1 1 ' [           NXf 1 1 > 2 & < > > = > @ + . . . ..          ",
"                                            iXp . . . . . . . . . . X $ * 0 Z 8.k.k.) ( ` fX                                                                                                                        { . = @ @ . . . . + 3 3 > e ' ..CX          1 > > . + + + . # # O X . . . # [           ",
"                                            9X. o . . . . X X X $ X * 6 B k.K.OXOXhX XK.~.cXAXJX                                                                                                              CXuXnX} . + X > . . . . . 3 a x =.>.>.7X          1 q 2 , . > # # # # O . . . . . [           ",
"                                            <X. @ . . . X . X X * 6 B q.K.dXgXgX*XgXhX XR.dXdXAX                                                                                                            CX*.{ { ' v d 2 + . # + . . 3 l { <X9X1X,X          o.f i 1 @ 3 > > 3 & + . . . . . [           ",
"                                            2XO : . . . X . $ 4 m ) F.OXgXgX*X*X*X*XgX{.(.R.!.sXAXFX                                                                                                      CX,.@ + X x 2X7Xd : O . # . . + f l { *.=.:.          NXo.2 @ + # @ + @ + + . . . . . '           ",
"                                            <XO : O . X X X 4 B l.+XhXgXgXgXgX*XgX*XgX=X@X X XR.%XdXAXAX  HX                                                                              GXMXNXMXzXuXuXMX,.= o X . d wXGXv u : + . . . + 3 3 2 d d U eXuXtXMXMXuXaX{ 1 . @ . . . . . . . . . . [           ",
"                                            2X: : O # X $ 4 B F.XXgXgXgXgXgX*X*X*X=X=X*X*X&X@X@XXX XhXhXvXcXAX                                                            GXrXxXzXrXyXzXyX<X} { } [ H } U e o = $ X & O.  X.' ' i 2 O . @ 3 2 o & X = c D c U [ [ *.MXq @ @ . . . . . . . . . . }           ",
"                                            9X: O O X $ 4 C V.&X&XhX*X$X$X$X#X#X=X=X@X@X&X=X=X=X@XoXoX+X&XdXdXcXAXAX                                            yXyXyXrXyXW.Y Y Y k k D z e . X X . > j o o = = 9 $ + 3 eX:.v v f i + . 3 8 p < < o o , @ o o @ 3 v yX@ 3 # . . . . . . . . . . }           ",
"                                            bXd . X X 4 Q F.OXhX&X@X#X.X#X#X.X#X@X@X@XoX@X@X@X#X#X@X@XoXoX%X+XdXdXfXAXAXAXJXHX                            tXtX9XD z c j z r ; ; ; 7 ; q = = o . X # H 3Xp # o % ; % o X z v 3 # 3 ; # # o ; < < ; ; , - < < < > 1 a U o 2 . X . . . . . . . . . [           ",
"                                              -.X $ 4 S K.dXdXoXoX#X.X.X.X.X.X.X].XXXX{.{.{.].{.'.].].].{.OXoXOXOX+XhXhXdXAXAXAX                    GXyX3Xz l r . . ; = ; s Y Y k Y Y Y z s 1 o @ o *.zXa o s r r r e s f e f v f s f f q ; o q ; < 7 ; < 1 , < 8 1 8 1 o . . . . . . . . . . . }           ",
"                                              W.$ 6 Q n.+XOX$XU.[.[.[.].'. X`.(.G.(.(.R.E.R.g.d.D.P.L.D.D.E.oX{.#X.X.XU.U.dXOXsXvXAX              HX8Xk r . . . X o 7 k z Y Y Y k Y Y Y z z j r < . -.wXq o.W.,.Y.Y.Y.Y.W.Y.Y.<.%.Y.-.%. .k ; r q q e ; 7 e - < < s e s X @ . . . . . . . . . . O.          ",
"                                              J.* E n.!.OXoX.X.X[.'.[.].'.U.U.U.G.R.E.s.i.f.7.7.t.f.d.g.7.7.E.}.U.U.B.A.A.sXK.K.~.J.            GX4Xs o o . < = r z }  .o.$. .%.$.%.%.%.%.%.$.%.o.[ 2XeXH 1XrXwXaXpXrX3XaX6X3XY.Y.Y.%.%.$.j # s q e e < 8 a < < % g , s < o . . . . . . . . . . {           ",
"                                              ~.n c.R.!.oXU.I.I.I.'.[._.(.S.R.L.G. XG.0.5.6.L L 4.6.6.H.L V 6.a.e.0.G f.U.U.sXG.@.(     HXNXVXGXzX..} O.o...-.=.:.7X7X1X6X7X6XwXqXqXrXqXrXrXpXrXzXuXmXCX-. .<.=.Y.:.,X=.$.=.$.} k k j j k q # r r 7 7 7 7 8 7 7 e 1 = a s X . . . . . . . . . . {           ",
"                                            DX~.~ R.R.(.U.I.U.I.I.[.'.).(.S.D.f.B. X X0.K L ^ K C ^ ) F.B 4 V n S _ @.K.>XsXsX>Xv.v.JXJXCX8XaXyXyX7XiXbXMXuXbXNXnXCXZXnXCXSXVXCXVXVXCXVXVXVXVXNXzXyXpXCX,.< d f v ' ] H z H g l q q q q q q # ; 7 7 , = 7 7 7 < r @ o < e o # . . . . . . . . . X.          ",
"                                          DX0Xx.C.E.R.L.P.P.P.I.I.'.).).L.S.D.t.f.G.R.z.L J N E V n I @.w w <.( <.4X0XrXkXxXvXnXnXnXFXCXCXmXmXVXVXCXCXZXZXZXZXNXnXnXuXbXzXuXeXeXrXaXqXaX4X1XW.,.%.} U Y. .> 2 2 2 i d i f v b p q q q q q ; # # - % % - 9 ; 8 8 q X . > = X X . . . . . . . . . *.          ",
"                                        DX0Xl.c.V.R.H.Z.B.d.g.g.L.'._.U.L.Z.d.f.t.s.C.F.y.J n M A % w Y M <.rXpXyXzXjXBXSXnXnXnXnXjXwXqXaXaX8X7X5X9X2X>X:X:X:X:.:X=.*.1.1...{ { Y z z k j e e < = = . d v 3 3 3 3 2 u 2 1 q > > ; 3 > 3 # # q j h g < = & X 8 < , X . + o . . . . . . . . . . . >.          ",
"                                      DX+Xl.x.C.H.H.V.d.f.f.f.d.D.U.(.S.D.Z.Z.g.t.7.7.y._ W M w t $ g | <.5X2X,X1X,X,X,X:X:.,.>.O.U { H l v f p a b b b u b u u u u 3 2 2 3 + @ o X @ @ = o o o # = = p d # # . : : + : + + % + X # # + O + u U U U  .X . o @ o # . . # . . . . . . . . . . . + 5X          ",
"                                    DX~.l.c.E.F.A.V.s.i.7.p.p.d.Z.A.D.Z.Z.S.U.B.t.4.4.L K P I M $ t J.;.+.| } H l d u f b u 9 b o o 1 o # . . . . X . . . O O O O O O O + + . . X . o % = = = # = , , q < . . . . . X X X . X . . . . + . . + s d J.,.# . o . . . . . . . . . . . . . . . . . > 7X          ",
"                                  DX~.l.z.M.C.V.N.i.e.e.w.0.w.p.M.V.M.M.A.U.U.L.d.7.~ C V M M M $ +.J.T h % e - , & $ * % $ & * X % % o # o X . . . . X O . . O O . . . O O . + . X # o = = ; o < o . 3 + . . . . X X X X X X . X . . . O . . i f 9X1.. # . + . . . . . . . . + # . # # X O # 3 5X          ",
"                                DX~.q.x.A.Z.d.N.i.w.0.0.0.6.0.u.m.C.M.M.B.L.U.U.D.C.p.^ J n w y 4 T | 0 h t Z F D T T | | S F | Z T Z Y h k s r < @ . . . . . . . . . . . . X + + + o @ = = o o # < # = o . . X . X X X X X X X X X X . . . O > v ] H # # . O . . . . . . O . > > 2 > > > 3 3 . :.          ",
"                              DX0X@.q.C.Z.g.f.f.p.0.6.9.8.9.9.u.z.z.s.s.B.L.U. X`.R.E.l.W B n m 0 Z S ( ( +.@.k.v.v.@.@.+.( ( T T +.T T F F F r 7 = . . . . . . . . . . . X X o + + X o o o X . ; $.e # < # . X X 9 Y D Y F k h - % X . . . . . 2 > q . . O . . . O O O . O O 3 2 < 8 p f q q 3 l uX        ",
"                            DX0X_ q.N.M.B.d.t.p.0.0.9.5.5.9.0.w.i.s.i.s.M.G.U.].{._.!.C.l.^ B V m n F T Z F F F Z Z 0 5 6 6 5 5 4 0 9 4 * * 3 + o . X . . X . . . o . . . . . . . . . . . . . X j pX[ . f # X $ m x.R.!.!.!.F.v.! B w 4 X o . . o o # . . # . O . . . . . . . # @ = ; - ; ; < > 2 *.        ",
"                    JXkXlXvX+X8.e.M.M.M.d.p.w.5.9.9.6.5.9.6.w.w.p.p.s.d.B.D.U.(.}.].(.Z.f.7.~ G V n m 0 * * 1 1 2 & % 4 t Z M Z Z F 9 9 , : u l q O + . . X . . = j . . X . . . . . . . . . < c $.rXU . q o X 6 e.XX[.#X|.{.{.-XA.s.~ V 4 $ . X ; o . . . O . # . . . . X . X . . # o o # # # o : 2.        ",
"                DXkXfXv.n.n.q.w.i.M.m.M.i.7.5.5.) 9.9.9.5.9.6.w.e.s.M.M.M.D.L.Z.).].}.D.d.i.e.L ^ C V 6 6 0 m M M M B ^ l.F.!.!.b.k.Q F Z r 7 H ..c 3 . . . . . q  .q o o . . . X . . o = o s U D o.g e = o X B +XXX'.#X|.}.oXoX`.A.z.) M X X $ * X X X . . O . O . O . . . X . o < ` R R J J n $ |         ",
"              DXfXv.b.n.x.8.0.m.m.m.z.u.q.5.~ ~ 8.8.8.9.8.8.6.e.p.m.M.V.A.G.G.U.XXoXoX{.`.S.M.i.e.e.4.^ ~ ) ~ ) q.e.x.f.S.}._.oXG.m.y.J B P ; ; } ..v O . . . . < =.%.j f j q = = . . = = p | #.g a e -.| & X ( OX X[.#X#XU..XU.R.H.N.l.+.X X m F T F 9 & $ + : O O : O : : O . X y ^.^.-XT.T._ 5 &.HX      ",
"          HX  cXy.c.F.z.y.i.i.C.C.z.u.9.) ! ! ^ ! ) 8.8.8.8.6.q.e.z.N.V.A.A.H.`._. XoXOX@XoX_.S.D.Z.V.A.H.H.A.A.A.L.A.P.}.].{._.}.m.7.J V J 5 X u { ' + . . . . o $.3XU Y Y H ; o . > < . o.3X,.{ j % 1X5X, X ` !.`.].|.|.U.U.A.V.M.N.l.@.X % v.K.K.b.k.m 0 * $ X X . O O O . X X 6 ^.E.-X-X-XE./ l.xX      ",
"      DXxXkXlX%XL D.E.p.7.7.i.s.a.i.y._ ` W Q E ! ! ) 8.8.8.8.q.q.e.m.m.m.m.m.M.M.A.S.`.oXoX@X).).).).).L.L.U.P.I.I.I.I././.}.P.E.p.L K V J w X @ { l . . . . . # s  .q e q < ; X X < p . 2XwXz U e @ 1X5X8 X ( n.G.[.I.[.I.L.U.A.i.q.) @.X 5 F.#X.XU.U.N.r.V 4 * $ X . . . . . $ 5 Q.E.E.}.;X(.E.9.v.kX    ",
"    DXfXb.b.x.0.C D.A.w.7.6.p.u.0.9.9./ W E P E W ! ) ) ) ) 8.5.r.8.8.q.q.8.6.6.0.p.i.f.Z.(.XXXX}.P.D.L.S.L.U.L.A.D.B.B.h.f.t.p.5.^ K M M y 5 X + X.c # . . . . o . = . # . # 3 . . @ & X ,.7Xo.-.[ | 3X=.= . n G H. XL.I.U.A.A.N.7.r.~ ( % 5 R.#XoX.X X XU.N.^ V 4 $ . . . . X X * E E.T.;X;Xg.Z.C.) v.xX  ",
"    AXl.b.F.5.L L s.d.p.4.7.7.w.6./ / W P J B K E W ! / / ` / ~ r.~ ~ ~ ^ ^ ^ ~ 5.0.w.a.i.d.S.(.Z.d.f.d.h.f.i.z.z.x.y.0.5.^ ^ E B J m r r q r q d >.l + . . . . # . . . # . # o . . X . . l X.#.-...-.*.x o . * n F.(.P.g.B.B.f.t.4.4.~ I o % R.#XoX{.#X X X`.R.n.( y % . . # . X $ n E.h.g.g.g.g.S.N.B J.  ",
"  HXJ.S l.F.0.C L 5.z.N.4.4.5.0.5.^ K K J J B N C E W W ! W W W ! ^ ^ ^ ^ E K ^ ! / 5.) 9.y.u.u.u.y.6.0.9.9.y./ ` Q Q Q I B M w t r ; = = # q q ..<Xd . . . . . . . . . . # o o . . . . X = 1 a p p g a e @ . $ n C.H.Z.D.s.N.e.q.4.L W A X $ !..X.X|.#X[.[.XX XOXK.n.( Z * X . . $ 6 E.h.h.3.3.h.h.V.~ +.SX",
"qX~.m S K x.y.! J K l.c.9.^ L y.y.W B B Q E J M B N I P Q W R Q Q Q Q E C K N N K K E W W / / / ! W W W Q I R Y k y y r r 5 ; % ; @ O O : : 2 H =.:.v . . . . . . . . . . . @ @ . . . . . # & 2 , > < , @ + o X V c.C.d.M.i.z.y.q.8.C E M . *  XI.[.[.I././././..XU.U.K.b.G 4 O . X * a.T.3.3.3.3.T.h.w.B K.",
"+.| t m m C ) _ Q E ` l.l.` K ` l._ K n B P R P A B B I I Q ( I Q I Q I P S P A P J P P P I I P I A Z y r w 5 7 ; ; ; % % o o o o . O : u v ] ..;.=.d . . . . . . . . # . . . o . . X . . . # + @ & @ + X = 7 X I b.F.a.u.x.l.l.r.~ G C w X 5 H.U.I.'.I.I././.'..XU.U.+XN.x.S . : . % K T.3.h.3.3.h.s.0.V J.",
"+.#.Z w w w Z I T T I T &.+.S m ` &.&.J w m I ( Y J Z M M k J M k J Z Z J M M M y y M y y y y r r 5 ; ; o # # # . . . # o o o X = 1 p l ' 2.O.O.X.X.l . . . . . . . @ , 2 @ # @ . X + , q f l { a . X @ 1 1 , X +.Q.c.y.y.l.&.&.( W P B w % t K.U.U.U.I.P.P.P.P.}.P.D.D.7.d.l.o : . o w Q.a.E.d.g.p.u.y.n ~."
};
