/* XPM */
static char *out[] = {
/* columns rows colors chars-per-pixel */
"138 85 254 2 ",
"   c None",
".  c #020202",
"X  c #0A0302",
"o  c #040A03",
"O  c #0C0A03",
"+  c #02030A",
"@  c #0A060A",
"#  c #0B0B0A",
"$  c #040A0B",
"%  c #120301",
"&  c #130C03",
"*  c #130D0B",
"=  c #1B0903",
"-  c #0E130B",
";  c #14130C",
":  c #1B130B",
">  c #1A1407",
",  c #050912",
"<  c #0C1317",
"1  c #141414",
"2  c #1A1513",
"3  c #1C1A14",
"4  c #1B1B1B",
"5  c #161818",
"6  c #110F10",
"7  c #240900",
"8  c #22140C",
"9  c #241B0D",
"0  c #281707",
"q  c #341807",
"w  c #231C13",
"e  c #251C18",
"r  c #3A0900",
"t  c #1D2019",
"y  c #37250C",
"u  c #2B2414",
"i  c #2B241B",
"p  c #262419",
"a  c #332B1C",
"s  c #392716",
"d  c #2D250F",
"f  c #171E23",
"g  c #221E26",
"h  c #1C2327",
"j  c #232222",
"k  c #2A2624",
"l  c #2C2B2B",
"z  c #292B25",
"x  c #332C23",
"c  c #362B29",
"v  c #383429",
"b  c #333333",
"n  c #3C3B33",
"m  c #3C3B3B",
"M  c #383636",
"N  c #2C2E2F",
"B  c #48290B",
"V  c #592B08",
"C  c #462B16",
"Z  c #493319",
"A  c #583619",
"S  c #552E12",
"D  c #653717",
"F  c #68320E",
"G  c #463A28",
"H  c #573B24",
"J  c #413C34",
"K  c #413B3A",
"L  c #47312F",
"P  c #673A22",
"I  c #733926",
"U  c #4D1F00",
"Y  c #764319",
"T  c #6D4119",
"R  c #5A4328",
"E  c #45423A",
"W  c #574B35",
"Q  c #684528",
"!  c #764927",
"~  c #7C512C",
"^  c #694B35",
"/  c #6C533A",
"(  c #7B5334",
")  c #775539",
"_  c #724F30",
"`  c #474746",
"'  c #585857",
"]  c #4F514D",
"[  c #785945",
"{  c #685447",
"}  c #706555",
"|  c #544F6C",
" . c #676766",
".. c #736E6B",
"X. c #6C7277",
"o. c #757373",
"O. c #7C7B7B",
"+. c #7A7974",
"@. c #6F6F70",
"#. c #605F78",
"$. c #3E4244",
"%. c #824C23",
"&. c #87532B",
"*. c #95572C",
"=. c #8B5C34",
"-. c #865837",
";. c #965D35",
":. c #924C2E",
">. c #A85736",
",. c #8A633B",
"<. c #9C643C",
"1. c #96643A",
"2. c #93682A",
"3. c #A2653D",
"4. c #A9673A",
"5. c #B46A39",
"6. c #AF733D",
"7. c #8C4C1A",
"8. c #865B47",
"9. c #AE5946",
"0. c #896446",
"q. c #946A44",
"w. c #996946",
"e. c #9A734C",
"r. c #956E54",
"t. c #977559",
"y. c #8B6D53",
"u. c #A36B42",
"i. c #AB6C43",
"p. c #A56846",
"a. c #B66D44",
"s. c #AC734B",
"d. c #A87447",
"f. c #B47345",
"g. c #BB7444",
"h. c #B3734A",
"j. c #BC794C",
"k. c #B6794A",
"l. c #AC7B53",
"z. c #A77856",
"x. c #B47C54",
"c. c #BA7C55",
"v. c #B96050",
"b. c #837C79",
"n. c #92796A",
"m. c #A87D62",
"M. c #C47C4B",
"N. c #C67B49",
"B. c #C57D53",
"V. c #D17F4F",
"C. c #C6733F",
"Z. c #7F817C",
"A. c #BA8358",
"S. c #B38552",
"D. c #87837C",
"F. c #9B8278",
"G. c #B68766",
"H. c #B9957A",
"J. c #AD896E",
"K. c #C8834C",
"L. c #D2824E",
"P. c #CC8354",
"I. c #C3855B",
"U. c #CC865B",
"Y. c #C88858",
"T. c #D38453",
"R. c #D48B5B",
"E. c #DA8D5C",
"W. c #D58856",
"Q. c #DC935D",
"!. c #D79056",
"~. c #E4955D",
"^. c #E08E58",
"/. c #CD8C62",
"(. c #C68B66",
"). c #D38C62",
"_. c #D98D64",
"`. c #CB936A",
"'. c #D49265",
"]. c #DC9363",
"[. c #DC956B",
"{. c #D8986B",
"}. c #CA9877",
"|. c #D69B75",
" X c #C78C77",
".X c #E39464",
"XX c #E49B6C",
"oX c #E69968",
"OX c #E89C73",
"+X c #F19E6C",
"@X c #D9A271",
"#X c #E9A26C",
"$X c #F6A56C",
"%X c #E4A375",
"&X c #ECA374",
"*X c #E9A679",
"=X c #F4A573",
"-X c #F3AB7C",
";X c #FBAC7B",
":X c #F8A876",
">X c #FDB57D",
",X c #717685",
"<X c #8D7F80",
"1X c #848483",
"2X c #8B8988",
"3X c #9D9C9A",
"4X c #979793",
"5X c #91908C",
"6X c #AE9684",
"7X c #A7A59C",
"8X c #A3A3A2",
"9X c #ACABAB",
"0X c #A8A7A6",
"qX c #B5B1AD",
"wX c #B4B3B2",
"eX c #BDBAB5",
"rX c #BCBBBA",
"tX c #B9B5B4",
"yX c #B8A9AC",
"uX c #CA9581",
"iX c #C5A995",
"pX c #D6B499",
"aX c #D2AA8B",
"sX c #E8AA86",
"dX c #F7AB84",
"fX c #EBB38B",
"gX c #FDB58C",
"hX c #FAB688",
"jX c #E9B695",
"kX c #FEBC93",
"lX c #FFB595",
"zX c #FBAE90",
"xX c #CEB9B4",
"cX c #E5BBB3",
"vX c #FCC18B",
"bX c #FDC397",
"nX c #C4C2BD",
"mX c #D7C9AF",
"MX c #EDC5A8",
"NX c #CEBBC7",
"BX c #C8C7C6",
"VX c #D2CAC7",
"CX c #D9D8D8",
"ZX c #CDCBD5",
"AX c #E7DBD5",
"SX c #FDEBD7",
"DX c #FFF3DD",
"FX c #EAE3D5",
"GX c #E5E4E3",
"HX c #EBE4E3",
"JX c #FFF3E3",
"KX c #FFF8E4",
"LX c #F3EDE8",
"PX c #E0DCE1",
/* pixels */
"                                                                                                                                                                                                                                                                                    ",
"                                                                                                                                                                                                                                                                                    ",
"                                                                                                                                                                                                                                                                                    ",
"                                                                                                                                                                                                                                                                                    ",
"                                                                                                                                                                                                                                                                                    ",
"                                                                                                                                                                                                                                                                                    ",
"                                                                                                                                                                                                                                                                                    ",
"                                                                                                                                                                                                                                                                                    ",
"                                                                                                                                                                                                                                                                                    ",
"                                                                                                                                                                                                                                                                                    ",
"                                                                                                                                                                                                                                                                                    ",
"                                                                                                                                                                                                                                                                                    ",
"                                                                                                                                                                                                                                                                                    ",
"                                                                                                                                                                                                                                                                                    ",
"                                                                                                                                                                                                                                                                                    ",
"                                                                                                                                                                                                                                                                                    ",
"                                                                                                                                                                                                                                                                                    ",
"                                                                                                                                                                                                                                                                                    ",
"                                                                                                                                                                                                                                                                                    ",
"                                                                                                                                                                                                                                                                                    ",
"                                                                                                                                                                                                                                                                                    ",
"                                                                                                                                                                                                                                                                                    ",
"                                                                                                                                                                                                                                                                                    ",
"                                                                                                                                                                                                                                                                                    ",
"                                                                                                                                                                                                                                                                                    ",
"                                                                                                                                                                                                                                                                                    ",
"                                                                                                                                                                                                                                                                                    ",
"                                                                                                                                                                                                                                                                                    ",
"                                                                                                                                                                                                                                                                                    ",
"                                                                                                                                                                                                                                                                                    ",
"                                                                                                                                                                                                                CXCXGX                                                              ",
"                                                                                                                                                                                                              8Xo.o.2X8XCX                                                          ",
"                                                                                                                                                                                                            CX` j 4 b ' 9XGX                                                        ",
"                                                                                                                                                                                                            nXl 5 X #  .3XtX                                                        ",
"                                                                                                                                                                                                            ZXl 4 . . ' O.8X                                                        ",
"                                                                                                              ZXwXrXtXrXtXrXrXrXrXrXrXwXnXnXwX                                                              BXl j . X h ' 3XPX                                                      ",
"                                                                                                      CX9XrXtX .M $.m m m m m m $.m m M ] ` m wXnXrXnXrXeXeXeXeXeXeXeXtXqXeXeXxXeXnX                        BXN 4 . # 1  .3XwX                                                      ",
"                                                                                              CXwXwXwX .M m $.1 . @ . X + o $ + + @ $ # 5 1 + m $.E m E E E E n J J J J n J J J J ' qXqXqXqXtXtXtXtXtXtXwXtX5Xb 1 . # + ' ,X4X                                                      ",
"                                                                                        CX9XwXo.b b M 1 . . X . . X o . . . X X o X @ $ # $ o . . o O 3 > > > > - & & & & X X & & X G b v b b b M m M M b m N g 1 # @ . j ] 3X                                                      ",
"                                                                                    CX9Xo.N M 4 . . o . . . . . . . . . . . . . . . . . + . X . . o 3 x n a v v a u a > * u e x u 3 w 9 3 X X X X . . . X . . # j 1 X . 6 ' 5XrX                                                    ",
"                                                                                GX8X+.b 5 . . . . . . . . . . . . . . . . . . . . . . . . . . . . X ; p E a G J v s G % & v x G v v E E E & . X . . . . o . . X 5 4 4 @ . ' @.3X                                                    ",
"                                                                            CXwXO.z 4 @ . . + . . . X . . . . . . . . . . . . . . . . . + . . . . . O : x a v a v a v X : w > x a 9 v E v O . . . X . . . . . . + 4 N 5 o b $.O.                                                    ",
"                                                                        GX0X1XM 1 . @ . . . X . . . . . . . . . . . . . . . . . . . . . . . . . . X * 3 3 a u u v d d O a 9 X i p - a a u o . X X + . . . . . . . # j N 4 l k ` 2X9X9X9X9X9X9XCX                                    ",
"                                                                        O.N f o $ @ o . . . . . . . . . . . . . . . . . . . . . . . . . . . . . . X 3 w & u a u y > O & c e & a a d p > O X . . . . . + . . . . . . @ p l b j 4 j b N b M l l Z.9X9X8XPX                            ",
"                                                                    GX1X1 $ X X $ X X . . . . . . . . . . . . . . . . . . . . . . . . . . . . . . X ; 3 % a x u 8 = & % i e > 8 u u t O . X . . . + + . . . . . . . . . # 1 1 + + # O @ < # # N N l z 1XwX3X                        ",
"                                                                    O.1 $ X . @ . + o . . . . . . . . . . . . . . . . . . . . . . . . . . . . + . . 2 3 & u c i 0 9 9 X e 8 > & 9 p d t X o . . . + + . . . . . . . . . X . . . O + + X X @ # 6 . + 1 k m h 1XqX8X                  ",
"                                                                  1X4 . . o . . . X . . . . . . . . . . . . . . . . . . . . . . . . . . . . . . . X e i e w w s > u 8 X a * O O > p v x o O . . + + + . . . . . . . . . . . . . . . . o . . + . X o # # $ + 4 M j 2X8X              ",
"                                                                2X5 o + . + . . . . . X X X . X . X . . . . + . + + . . . . . . . . X . . . . . X # j i u 8 : w & 2 * O N O X & ; ; z p o X . . $ . + . . . . . . . . . . . . . . . . . . . X . . . . X . X . . X h k 2X            ",
"                                                            GX1Xh $ . $ + . o . o O > 8 9 8 > & X X . . o . + + , , + + + + . . X X X X X X X . . O w 9 9 9 : @ @ + + 5 l . @ 4 4 @ 3 1 . . . @ . . @ . . + . . . X . . . . . . . . . . . . . . . . X . . . . . . . . 1 5X          ",
"                                                            ZX4 # + . X X % 0 y C R 8.t.t.y.) ^ Z q = X X X X . @ , + . o . o . . . . X . . + . . X ; ; > : * @ + + + 5 2 + @ 6 5 @ @ . . . . . X @ X . . . . + . . . . . . . . . . . X . . . . . . + . . . . . . . . X 4 2X        ",
"                                                            b.X O X X 7 q A -.r.S.}.*XfXfXfX%X}.G.1.Q A s 7 % % % = % * # & - $ $ < , + . + $ $ . . o X X X % X . . + + @ X @ . 6 . @ X X + @ . X , . + . . + . . . + . . . . . . . . . . . . . X . . . . . . . . . . X . 1 2X      ",
"                                                          VX3 & X % 7 T ;.A.`.%XfXhX-X:X-X-X*X%XOX'.A.l.w.! P S H y.n.n.D.b.+.Z.O.X.,XX.X.X.X.X.X.X.X.@...........@.o.@.@. .6 @ @ # O . . X @ . o X # + . . . . . . X . . . . . . . X . X . . . . X . . . . . . . . . . . # 4 PX    ",
"                                                          b.= = % 7 ) I.E..X.X#X:X:X$X$X$X$X~.~.~..XQ.!.'.I.(.x.z.uXMXpXSXSXLX    GX            LX                        GXo.1Xo.o.o.o.o.o.o.O.' 5 6 @ @ # # o + # @ . . . . . . . o X + . + X . X . . . . . . . . . . X o o O.    ",
"                                                        CXi % % 7 H G.|.]._.oX$X$X=X:X:X>X>X:X=X:X#X{.#X*X%XOX{.(.`.}.G.aXMXSXKX                                                                CX2X1XZ.O.Z.O.+.D.' $ . . . . # 1 4 e # X # . o . . . . . . . . . . . . . @ + 1 PX  ",
"                                                        VX= % 7 A z.|.|.).R.XXOX=X=X;X:X;X>X;X>X>X{.P..X-X>XdXsX@X|.Q./.A.G.jXpXSXDX                                                                              9XX . o . . ; l ' O.,XO.2XN . # . X . . . . . . . . . X $ . + 1X  ",
"                                                        D.% 7 P -.|.|._.).U.).XX#X*X-X:X-X$X-X*X{.Y.f.g.R.dXdX[.%X-X%X{.{.{.{.G.jXcXpXpXDX                                                                        wX# o . X . + l ' 9X      9X1Xm . @ . . . . . . . . . X . X . # GX",
"                                                      AXe q S r.x.%X{./././._.XXOXOX*XsXXX_.|.OXQ.j.k.3.4.'.{.h.s.U.{.].E.]..XXX'.(.G.z.aXSXJX                                                            GX3XD.2X .- o . o . . f ` 3XGX        wXO.b o . . . . . . . . @ . X . . 2X",
"                                                      VX7 H 8.s.{.OX).B.V.T._.OX=X=XOX+XE.V.R.E.Y.M.g.f.! 2.z.,.T %.<.f.v.M.T._.[.{.|.G.r.pX                                                        HX5X3XZ.t t O ; o X . . . . 1 ` ' rX            9XM . . @ + . . . . @ . . . X 3 ",
"                                                      n.Z -.;.A.%X].V.V.L.^..X=X:X=X+X~.^.^.T.T.L.N.M.c.Y V ~ _ B A ~ &.9.9.v.V.U.).}.}.t.y.LXLX                                                GX3XD.; p t o O . o . o . . @ . @ ` $.rX              9Xl + O + . + o . . o + . + $ ",
"                                                    AXH ^ ( s.).XXE.V.T.W.~.+X$X:X=X+X~.W.W..X.XV.N.M.|.! y Z R Z { y.m. XB. XuXuXuXuXiX6XF.AXGXGXPXPXCXPXCXCXCXCXCXCXZXVXVXVXBXBXnXrXnXtXqX9X9X0XE j ; v p t t t 5 1 5 1 . X o 6 m ` BX                 .X . O . X . . . X X . . @ ",
"                                                  JXF.Q -.;.I.'.E.E.L.L.^.#X$X$X:X$X+X+XL.L.+X=XT.C.M.sX=.B W Z.D.7XqXmXxXcXcXcXcXcXcXVXxXVXVXZXZXBXBXBXnXnXnXnXxXrXrXtXtXqXqXqX0X7X3X7X3X4X5XD.7X5XE n Z.Z.' J b v b N l 1 X @ 6 g ] 5XGX              wXN . @ . . X . . . . o o . ",
"                                                  F.^ -.q.p.Y.[.].L.L.W.~.#X&X-XdX;X=XXXW.P..X=X=XoXQ.*Xe.0.J.7X3X0X9X0XyXyXyXNXNXNXNXNXVXZXPXNXZXZXBXZXVXVXVXVXVXVXBXBXnXBXBXnXBXnXBXBXnXeXCXtXnXGX5Xt  .Z.Z.' J E n N M z $ + + 6 ] ' BX                 .@ 1 . . + . . . . . * . ",
"                                              LX6XQ 0.0.p.u.U.].W.T.L.Q.{.*X*XhXgXgXdX{.U.B.U.XX-XdX-X%X3.q.} W ] ] ] | | | | | ,X| ,X,X#.#.,X#.,X#.X.Z.+.b.b.b.b.1X2X2X2XD.2X2X4X4X3X5X5XO.2X2X2XwXZ.o > t W 4X' E E K m f . @ . + l l  .2X2X2X1XZX       .$ ; . O . . + . X . @ . ",
"                                            LXH.^ 0.w.d.4.a.E.Q.L.L.W.{.XX*X-XgXkXkXgX{./.c.j.I.).{.@XH.e._ Z y v v b m M L c c g c c g w t < t < $ h t t 4 w 8 e i i x z v z z N n E n J x p x E ' n o o o v nX+.W ] ] E w . $ + + + 6 ; * - ; X  .5X+.GX .. . . , . . X . . . $ . ",
"                                          JX6XR ) q.6.g.5.6.!.Q.!.T.Q.&XXXXX-XgXkXkXgXdX%X'.I.A.A.S.l.y.y.Q B Z S L ^ ^ [ { / ^ I ^ { 8.) / / W a > ; 1 - - $ o . O & * > & O o o - > 9 7 8 8 : i n t o o O W mX7XZ.} } / > . o + , , : = % X * @ # ; O +.E O . . , + . . . . . X . ",
"                                        DX6X/ 8.1.d.k.j.N.K.Q..XQ.].XXOX]._.OXdXgXgXgXkXkXgXfX*X{.`.A.s.d.;.D V S I I I I F F F :.9.c.m.G.J.t.} s 0 & > ; # o . X o O & & ; - - - 3 t a e 8 8 e i w O X s [ 6XmXmXiXH.H.J.R & . . . @ * e f 1 1 < - - # ; 3 ; X . $ . . . . . . + . ",
"                                      DXH.8.8.x.A.Y.M.N.K.T..XoX#X%X&X[.].]..XXX&XdXkXgXkXkXbXbXbXbXkXdXOX_.v.9.v.v.9.9.9.:.:.>.9.B.V. XI.(.s.r.H s e * O X . . O O * X * ; ; 3 t t p i e 8 : 3 p # X Z m.jXbXbXbXbXsXfX@XJ.y X X @ X e g f h h h t < o @ p 3 . . . + . . . . . X . ",
"                                  JXyXaX-.z.s.(.U.Y.].K.L.E..XOX-X-X&XOXoX.XXXXX=X:XhX;XhXhXgXkXkXbXbXkXlXlXzXzXzXzXdXdXdXdX-X-X=X&X&XOX[.|.(.H.) H C % X . . X @ # ; X & * ; - - 3 ; 1 2 % % O # o > m.sXlXbXbXvXhX>X=X%X}._ > X X : b m N h h h h h 5 X : 3 O . . . . . . . . $ . ",
"                            KXDXDXiXy.1.u.i.B.M.P.V.W.V.T.E..XOX*XOXOXXXoXoX=X:X;X;X:X=X:X:X=X:X:XhXhXbXkXhXgXgXzXzXlXlXbXvXvXvXhX>X>X$X#X=X'.`.-.H C % X X . X X + @ X X O o . o o . X X . X X @ . x jXzXdXlX;X>X>X>XoX].'.=.y X X * b ` $.h f j f 1 e 3 : 2 * . . . . . . . . X . ",
"                        KXiX6XaXpXt.G.i.f.i.a.5.g.V.W.T.T.T.R._.XX[._.[.oX#X=X+XoX.X.XoXoX.XoXXX#X&X-X>XhX-X-X-XsXsXfXdXsX*X*X%X@X#X@XW.!.'.A.l.-.H C % X X . . . . X X X . X . . . . . O * ; X 2 . 0  XdXzXlXdXhXhX#X+XXX(.0.d X X X 2 m m 2 @ 1 6 O 8 8 > e X . $ + . . . . . X . ",
"                      DXiX[ ) -.,.d.d.A.Y.U.g.5.5.5.V.W.W.T.T.P.R.R._.].E.Q..XE.W.R._..X.X_._._.].].Q.E.XX].R.]._.B._.{.).(.Y.Y.Y.A.K.6.d.4.1.,.I Z s % X X . . . . . . . X . . . . . ; N b 4 # m 3 % w.sXlXlXdXdX>X+X.X[.G.0.u X o . X 8 = % % @ X % % % 8 w & . , + . . . . . $ . ",
"                    DXpX0.e.z.G.1.;.! <.i.A.R.P.N.>.5.N.N.W.E.K.N.P.P.P.P.j.M.T.U.U.V.R.R.P.P.Y.P.P.P.N.R.B.M.B.a.i.c.c.c.x.s.v.d.1.;.-.~ ! Q H C e > X . . . . . . . . . . . . . . $ ` ` m N w ` k X 8.sXlXzXdX&X#XOX_.[.m.) u X X : C C s s s q r 7 7 % 7 w : + + , . . . . . + . ",
"                  KXpXJ.e.z.s.s.s.k.<.;.%.*.s.k.S.K.g.f.5.g.!.W.N.N.N.g.K.5.6.j.f.f.f.g.k.f.h.g.j.x.h.5.M.f.5.4.4.3.w.p.9.w.-.8.-.I P A B y q 0 8 & X . . . . . . . . . . . . . . . O ` ` .. .v a * = 0.jXkXdX-X{.@XQ.].[.G.( q % i { m.m.G.G.m.m.r.8.) H s 0 * 5 < , < $ $ @ . X . ",
"              SXKXpXG.}.s.p.;.*.&.<.<.w.~ =.%.=.<.S.d.Y.6.6.6.K.W.T.g.g.f.3.4.4.<.4.4.e.w.1.<.w.w.;.1.,.,.,.-.~ ~ ~ Q A C C C C s y q 0 & O O o O X . . . . . . . . . . . . . . . . . < N ] ` w & X 7 G.bXgX;X&X{.#XQ.Q._./.-.r 7 [ J.sXfXzXfXfXfXsXsX}.G.8.s % 5 f f f 1 5 5 4 6 . ",
"            iXiXpX X(.(.x.h.x.s.u.;.=.&.0.,.~ ~ ( =.,.1.d.k.4.4.S.K.g.f.u.;.1.;.=.1.,.&.&.~ ( ~ ( ( _ / W R H Z y d 0 & * X O X . @ o o o . o . o + . . . . . . . . o . . X . @ @ # o 1 5 3 ; & X X B sXkX>X:XoX~.#XQ.Q.+XT.:.r U m.`.*X:X;X=XOX%X*X*X`.}.H.[ 8 @ < f f f j j k h X ",
"          iXn.t.r.t.1.1.u.w.;.u.s.l.z.=.q.,.,.T Y ! &.&.w.S.6.;.*.5.S.k.;.&.=.~ ! ( Q H A H H H H H R H Z y > > > O > p J & X o . . . . . o + . . o . o . . . o o O O $ - # @ * 2 1 # - t 3 > & X 0 y.bXdX:X:X+X~.#XQ.~.+X^.7.V :.B.).=X;X:X+XoXXXXX[././.uXt.s O < < 4 k e 5 f h o ",
"        iXn.y._ Y T Y Y Y F V F T ~ ,.z.z.z.,.! S T ! -.-.1.z.w.%.%.<.l.w.&.( ! Q Q A Z Z s C a C C G e d - o > w x +.8XwXM . . . . $ . . $ , + . + . + o . o . o @ @ $ $ X @ @ @ @ . X . . . X % H uXbX>X:X+X+X~.@XQ.~.+XQ.7.Y i.R..X=X:X$XoX.X+X~.W.V.j.uXG.C = 3 5 1 f 5 1 j e . ",
"      KXt.y.D D F ! =.! &.T F V D S A Y ,.d.e.e.! S A -.) ( ,.w.=.! ! 0.=.( _ Q Q R Z y d d 9 > ; > * @ o 3 b @.3X9XPX    ` . . . . + . . $ - o . . + . . . + . . X . . . . X . @ X . . . . X X 7 r.cXgX:X:XdX+X{.!.'.).OX_.7.7.j.]..X&XOXoX.X].^.T.N.5.M.|.m.C > * # o 6 # 1 k j . ",
"      pXy._ S -.&.z.k.,.S.z.e.0.0._ Q V F F -.l.r.! S P 0.0.( -.0.%.D I ( _ P P R Z s 0 9 > & O o . . @ g ,X9XCX          M . . . . . . . . . . . . . . . + . . . . . . . . X . X . X . . X X % s J.jX|.OX+XoXuX'.G.`./.XX(.3.2.S.%XXXXXXX[._.V.T.N.5.>.B.|.z.H 0 X * 5 j 5 # j j . ",
"      t.-.! ! w.u.l.@X3.k.S.|.l.e.z.d.*.7.V D ! r.q.-.Q d.x.=.&.-._ D C H R H L s a 9 8 3 & O . . X 2 c 2XHX            4Xf + . . # . . . . . . . . . . . . . . . . . . . . . . . . . . . X X = P J. X/.E._.V.V.Y.Y./.R.).U.M.s.P.*X[.{./.(.B.B.M.a.i.4.j./.l.V B B s x v e O f j . ",
"    FXq.*.*.i.i.A.h.|.h.i.4.|.i.>././.K.5.%.F B Q ,.q.w.Y.{.4.%.%.Q Q 0 s v a u w w : % * X @ X * K b.yXFX    HXHXHXyXo.g + 6 . . @ . . . . . . . . . . . . . . . . . . . . . . . . . + X X X q ) S.c.j.K.P.P.B.B.K.P.P.P.U.P.g.R.*X[.Y.j.i.s.s.p.p.p.d.l.A.d.V 2.S.2.W E d o t t . ",
"  KXJ.%.S.k.K.j._.c.'.g.a.*.[.B.a.B.OX'.Y.d.! C S Q ( 1.S.`.S.=.( P R d a 8 8 > : % * X @ X X 4 o.tXAX  SXFX  yXo...K g 1 @ @ + $ X . . . . . . . . . . . . . . . . . . . . . . . . . + . X % q ^ q.u.4.f.j.M.M.j.M.M.K.j.P.K.M.E.{.Y.3.2.*.<.u.p.p.p.p.x.x.2.V 2.@XS.e.e./ Z a a X ",
"KXH.q.<.].Y.].g.R.R.].P.K.>.oX+XM.M.|.{.{.l._ H Z Z H ! ,.d.l.q.0.A y 9 u O & X % X X @ X 2 k o.HX    LXiXn.xXn.7 % * g z 1 # X X . o . X . . . . . . . . . . . . . . . . X . . . . + + o O 8 s P ) =.4.5.5.5.N.g.M.N.M.j.M.P.K.K.N.4.7.:.&.*.;.*.;.>.3.6.6.4.Y 2.S.K.S.S.S.2.2.Q 7 ",
"pX0.,.A.A.Y.%Xl.i.{.Y././.c.OX).f.P.%X`.G.0.Q H G s Z B S T 0.8.) Z = & & X X X O X 2 c k ..0XCX      iX) [ n.H % % % * 2 1 # X . . o . . . . . . . . o . . . . . . . . . . . . . . + + . @ : q H _ -.&.*.;.<.w.3.3.u.s.i.h.x.s.3.*.&.Y Y ! &.&.&.-.-.:.e.<.2.Y 2.d.6.S.S.K.S.2.8.C ",
"H.J.S.G.@XG.@X@XA.`.`.|.%XaXfX(.x.|.jX}.J.t.[ { { W ^ ^ Z Z y.t.} W v v G k x b k l ..9X0XCX          6X8.6X6X^ c L i k c c b z z z j z l l l l z l l l l z N z l l l k l l l l l N N N N l c G { y.r.r.e.z.s.z.z.S.m.m.z.A.G.z.e.q.q.,.0.0.0.q.y.q.r.t.J.S.e.q.S.G.S.!.K.Y.A.l.G.[ "
};
