/* XPM */
static char *a8a24641a6cc4ecee0f1550dcd9fa0faOFWIpXDdfcjJq0Uo[] = {
/* columns rows colors chars-per-pixel */
"113 82 164 2 ",
"   c None",
".  c #030302",
"X  c #080707",
"o  c #0E0E0D",
"O  c #131313",
"+  c #191917",
"@  c #1C1C1B",
"#  c #221519",
"$  c #241E1F",
"%  c #20201F",
"&  c #252424",
"*  c #282727",
"=  c #292926",
"-  c #262429",
";  c #292729",
":  c #262B2B",
">  c #2C2C2B",
",  c #312E2F",
"<  c #2F302C",
"1  c #31312E",
"2  c #2F2D32",
"3  c #352D30",
"4  c #343433",
"5  c #383737",
"6  c #373834",
"7  c #393936",
"8  c #3A363A",
"9  c #3C3C3B",
"0  c #4A2F3A",
"q  c #403F3F",
"w  c #3F403D",
"e  c #41413E",
"r  c #443F42",
"t  c #543E47",
"y  c #3E4A49",
"u  c #444443",
"i  c #484647",
"p  c #474844",
"a  c #494946",
"s  c #4F444A",
"d  c #434D4D",
"f  c #4C4C4B",
"g  c #524149",
"h  c #504F4F",
"j  c #5A4A4F",
"k  c #51514E",
"l  c #4F4D50",
"z  c #534D51",
"x  c #545453",
"c  c #585757",
"v  c #595956",
"b  c #5C5659",
"n  c #5C5C5B",
"m  c #605F5F",
"M  c #5F605C",
"N  c #61615E",
"B  c #635D62",
"V  c #6D5C63",
"C  c #646463",
"Z  c #686767",
"A  c #696967",
"S  c #676668",
"D  c #6A6669",
"F  c #6C6B6B",
"G  c #706F6F",
"H  c #71716E",
"J  c #796C75",
"K  c #747473",
"L  c #787777",
"P  c #797976",
"I  c #777778",
"U  c #7B737A",
"Y  c #7C7B7B",
"T  c #80767E",
"R  c #807F7F",
"E  c #81817E",
"W  c #827F82",
"Q  c #848383",
"!  c #888787",
"~  c #878883",
"^  c #898986",
"/  c #878688",
"(  c #8C8C8C",
")  c #908F8F",
"_  c #90918E",
"`  c #949393",
"'  c #989797",
"]  c #999996",
"[  c #9C9B9B",
"{  c #A09F9F",
"}  c #A0A09E",
"|  c #A4A3A3",
" . c #A8A7A7",
".. c #A6A8A0",
"X. c #A9A9A7",
"o. c #AFAFAF",
"O. c #ADADAD",
"+. c #ACABAB",
"@. c #B0AFAF",
"#. c #B0AFAF",
"$. c #B0B0AF",
"%. c #B1AFB2",
"&. c #B1B1B1",
"*. c #B3B2B2",
"=. c #B2B1B1",
"-. c #B4B3B3",
";. c #B5B5B5",
":. c #B7B6B6",
">. c #B6B5B5",
",. c #B4B4B3",
"<. c #B8B7B7",
"1. c #B8B7B7",
"2. c #B8B8B6",
"3. c #B9B8B8",
"4. c #BBBABA",
"5. c #BAB9B9",
"6. c #BCBBBB",
"7. c #BCBCBC",
"8. c #BEBEBE",
"9. c #BCBBBB",
"0. c #C0BFBF",
"q. c #BEC2BA",
"w. c #C0C0BE",
"e. c #C1C0C0",
"r. c #C3C2C2",
"t. c #C4C3C3",
"y. c #C5C5C5",
"u. c #C6C5C5",
"i. c #C7C6C6",
"p. c #C4C3C3",
"a. c #C8C7C7",
"s. c #C8C7C7",
"d. c #C9C9C7",
"f. c #CBCACA",
"g. c #C8C8C8",
"h. c #CCCBCB",
"j. c #CDCCCC",
"k. c #CECDCD",
"l. c #CFCFCF",
"z. c #CCCBCB",
"x. c #D0CFCF",
"c. c #D1D1CF",
"v. c #D1D0D0",
"b. c #D2D1D1",
"n. c #D3D2D2",
"m. c #D5D4D4",
"M. c #D7D6D6",
"N. c #D3D2D2",
"B. c #D8D7D7",
"V. c #D9D9D7",
"C. c #D9D8D8",
"Z. c #DBDADA",
"A. c #DAD9D9",
"S. c #DDDCDC",
"D. c #DEDEDE",
"F. c #DEDDDD",
"G. c #DCDBDB",
"H. c #E0DFDF",
"J. c #E1E1DF",
"K. c #E1E0E0",
"L. c #E3E3E3",
"P. c #E2E1E1",
"I. c #E4E4E3",
"U. c #E8E8E4",
/* pixels */
"                                                                                                          v.5.        l.;.                                                                                                        ",
"                                                                                                      i.o. .| C.      i.` 5.-.                                                                                                    ",
"                                                                                                  5.[ ! Q | l.K.    F.K.5.) K  .[                                                                                                 ",
"                                                                                                ;.C x Y `  .l.K.      C.5.[ Q K x !                                                                                               ",
"                                                                                              6.n n F Q !  .l.v.F.F.U.l.5.[ Y K F u (                                                                                             ",
"                                                                                            r.C f n C Z F K ! ( ` [ ` ( ` Q K L G C i !                                                                                           ",
"                                                                                      a.|  .G f x x x x n x x C m Z F F F F K ! Q Q Y n                                                                                           ",
"                                                                  C.o.C.      i.o.X.X.Q n x n C C F C K L Q ( ! ` ` ` ) ! ! Q ' ` ` ( ! ;.o.o.@.7.K.      7.&.                                                                    ",
"                                                              C.o. .[ &.X.[ | Q C F C F F F L ` | ;.5.7.7.l.v.i.M.C.v.a.g.i.5.i.5.X.` ` Y K F F K [ 7.F.F.7.` ;.o.                                                                ",
"                                                          g.( ( L ) ` ! F C C F F K R `  .&.5.i.v.C.C.C.g.g.l.h.C.C.F.v.F.K.H.  F.l.i.r.5.{ ( R K L L { ;.C.X.( K [ `                                                             ",
"                                                        l.F x C L K F C F F K ! | -.5.1.&.&.&.&.o.X.| ;.5.&.r.l.M.C.M.i.i.i.0.i.7.7.i.v.M.v.a.6.@.( ! Q R ` ( ! Q C x '                                                           ",
"                                                      l.K x F F n n F K ! [ o.@. .o.X.' ! Y ! ( ( ` ) o.7.r.M.K.K.    M.g.r.;.o. .|  .X.o.&.6.i.v.r.i.@.` L L K Y L F x `                                                         ",
"                                                    l.F x F C K C F Q [  .o.o.[ Q Y Y R Q Q Q ! ! ` ( [ | &.t.l.F.K.M.g.r.5.;.;.&.o.X.[ [ [ [ [ X.5.l.l.v.5. .Q L G K C f (                                                       ",
"                                                  M.n f K Z K ) [ [ | | | [ ( Q Y Y L L R Y K L Q Y Q Y L ! [ | g.t.;.X.[ ` [ [ | |  .{ | X.[ ` [ [ &.5.l.v.C.;.[ Q Y K K x `                                                     ",
"                                                C.K u C G K  .o.+.o.X.| [ ` ! Q R L K K L K F F F C C m n K ( X.C.F.r.X.! K L K Q ` | | {  .[ `  .[ o.X.5.r.v.g.x.r.[ Q Y F n (                                                   ",
"                                              v.Y n C F Y ` o. . . . .X.| ` Q L Y L L K K F F C x f 9 f C Q o.M.    K.l. .! K n n F ` [ [ | | ` [ [ +.-.r.r.r.t.M.v.i.o.( K L n 1.                                                ",
"                                            C.R x K K ! ` ` ` [ &.;. .| | ` R K K I K K S C C x u 4 5 x H _ q.J.      F.5.[ Q n u u F ` [ [ [ [ | X.&.1.r.h.l.l.l.h.i.g.6.[ ! L F -.                                              ",
"                                          M.K n K Y ( ` ( ! ` {  .;.X. . .` Y K L K F K C n x 5 ; 5 a C P _ ,.V.U.  U.M.;.[ ! G n u u C ` [ ` [ { o.@.5.g.v.l.x.v.v.g.a.r.-.| ` L K &.                                            ",
"                                        v.K f K ! ! ! ! ! ! ( [ X.;.o.X. .` Y K L F C F C x 7 * ; a f C Y _ X.z.J.U.F.l.;.[ Q F C n 9 5 F ` ` [ { X.o.5.g.v.v.v.v.l.g.r.o. .;.;.| ! F  .                                          ",
"                                      v.G x K L Y Y L L Q ! ( [ o.;.o.| ' ! K F K K C n l 7 * & 9 a a N E ^ ` +.w.c.r.&.X.[ Q F C n x 7 7 L { ( [ X.o.&.i.h.M.v.v.i.6.+. .| &.5.@.[ L n |                                         ",
"                                    l.Z f K R L K K K L Q ! ` [  .&.X.[ ( L F C C Z c x 9 ; & = u f k A Y Y Y E ~ | [ ` ` ` ( K C C c f > f ` [ ( | X.o.i.l.F.F.H.7.@.[  .| -.o.|  .[ Y C [                                       ",
"                                  l.K f K Q K K F F K L Y Q ( [  . .| ` ! L F C n z f u 4 * * ; 7 u x F K H H H A ! ( ! Q Q ! K C C x f u 9 Z | ! `  .&.x.M.      t.@.[ &.X.&.| [ [ o.o.K C o.                                    ",
"                                l.F n K Y Y F n F C C F F F K ! [ ` ` ! Y K F n x q 9 9 > * > > 7 a x A H F G F C Q ! ! L K L K C x n u h u 9 L ) ` +.1.C.C.      M.o.[ i.;. .` { [  .+. .Y C X.                                  ",
"                                K x L K F K C x n n x x n n n K ` [ ( Y F n c f 9 > > 7 4 > 1 1 9 f x C F A A F C Q ! Y K K Y K C n x x f f u f K ! | X.g.i.K.F.  l. .` i.&.| ! |  .| | &. .K F X.                                ",
"                              r.f K K F C C x f f u 7 9 f x C ! o.g.1.` F n f 7 < > 7 7 4 4 > 4 9 f x C F A F F F Q ! Y K K L K F C x x f f x u f C Y ! [ X.r.g.C.;.! ( [ ` ! ! [  . . . .+.[ Q n 7.                              ",
"                            l.K Z K F C m x u 7 4 4 2 7 f C Y | i.  M. .L C f 4 ; a x 9 > 1 = 5 u x n C A C F F F Y Q Q L K L K G F n x x x x u u x K K Q X.i.v.F.5.K ! K F C K ! (  .o. .[ | | K (                               ",
"                            F x K C C n x u 4 * & > 4 f C K ( &.v.F.v.X.Q F x > % v M 9 > > * 9 f n C C C C C C C K L Y K K L L K K C b n x f i f n L L Q 7.U.    v.( ` L C f x n C [ &. .` '  .| Y &.                            ",
"                          a.9 K C C m x u 4 * & * 4 q x F R ` 5.F.F.v.X.! K x ; + e k 4 7 4 > e k C C C C C Z C C K L L K K L L K K C n n x f f b c L ! ( l.      U.X.X.) L x u 7 f Y [ [ ` ( '  .! Y 7.                          ",
"                          C x K n C n f 5 & & > 5 u f n K Q [ r.K.U.v. .Q K f & o < a > 9 6 > u x F A C C F F S C K L Y L K L L K K F n x f f x n n L ` [ B.  U.    1.o.[ ( F b u u f F ! ! ! ( ( | Q |                           ",
"                        i.u Z C x x f 9 ; @ * 5 u f x n K Q [ 0.F.K.l.| Q K f + . 4 k < p 4 = p n F A C C Z C C C K L Y L K L L K K K C x f x n n C Q  .| M.        i.&.| ) L G F x 4 f G L ! ! ! ( ! [                           ",
"                        C n C c f f u 5 * * 4 u f x n m F L ` ;.l.v.0.[ Q K f O . a N 1 f 9 > f C G F C C C C C C K L Y L K L L L K L F x f c C C K Q o.[ l.        v.5.X.` L K K C 7 u x C Y Q Q K Y ! 5.                        ",
"                      g.9 C x x f f q 4 * > 9 f x C C C C F Q | 7.7.,.' Q K u O . N H 4 k 9 1 x F K F F F F Z Z F K Y Q L K L L L K L K n f x F K K Y &.| i.        N.&.| ` Q L K F x u 5 f G K L L K K [                         ",
"                      C x x u x x f 9 ; * 4 u n C F Z C n C K ` ;.;.&.` Y K f O . P E < x 7 1 x A F C C C S C C C K L Y K K K K K K K K C x n F Y P L $.X.7.U.    U.i.} ` ! E L K K C f 4 7 n F F K K G ( U.                      ",
"                      7 x f k f f f 9 & > 9 f F H F C C C C C Q | ;.X.( Q K u o o P Y 1 v 9 e H Q E Q ! ! ! ( ( ( [ ....] ( ( ( ! ~ Q K n x n F K P H [ X.;.K.U.I.F.2._ Q E Y P P K F x 9 4 u F C G K F C ;.                      ",
"                    5.u x f x u e f u * 4 p x P K F C C F C Z L )  .[ ! ! K 7 O @ ^ ( v K C F ( ` ! [  .[ [ [ [ [  .+.+...[ } | } } [ ( L P L P P G F [ o.,.c.v.M.l.X.~ Y Y L L Y Y F n f 7 7 b C F K K x `                       ",
"                    f u x f p f e a e * u x n Y K F C C F F F K Q [ ` ! L K n f x ^ ~ H P ~ ] ..} ] X.&.X.| | | [ | .. .} | X.+.+.;.2.} ( ` ` Q ~ E Y ] [ | w.r.w.+.` E Y Y L Y E ! L C n u 5 h C F F L C Q                       ",
"                    = x a x e f p f 7 > v C C Y F F F F F Z C F K ( ( Q K K F K ~ ^ ( ` _ [ O.+.X.X.o.$.+.X.X.X.X.+.+.X.X.o.5.r.i.z.N.w.o.,.X.` [ ` Y E ! [ $.$.$.[ ( Y K P Y Y P ! Q K F h 7 x Z G C F F F 5.                    ",
"                    9 n u f f u u p 1 9 F K C K F F Z C C C C F L L K K L Q ( ` [ ] [ +.] ( ~ K F H A C C F F K L P K H H K Q ( _ ` X.X.o.9.9.2.p.$.[ ( ! ! ! _ | ` ( E K K P L K Q ! L G n u x C K F F F n `                     ",
"                  i.e f x e f u p 7 > x Y K A F F F C C C F F F C L ! ` [  .X.[ ~ A M M f e e 7 9 p u u x C K Q ( ] ( L F C n x k f x x v A L ( [ +.;.,.X.[ ( Q P E E E L K K K L Y ! Y K C f x m F K K K n `                     ",
"                  A u f f 9 f f u 4 5 K ^ F F F F A Z C C C F L ( | | | ` Y C x 9 6 > = < = > = 7 e k C F ! | 7.g.J.l.;.} ! K C n f u 7 5 5 9 u p x H ! [ o.+.[ ( ( K A K E L K K Q ( Q Y K x f n C C K L n `                     ",
"                  9 f f e u a u p > 7 | ( N F F F F C n F L ! ` ` ` K h u 9 4 > * = = > 1 > > 1 u a n K ! [ -.l.F.  J.z.2. ._ L F n k u 7 4 4 4 > > 5 9 f n F !  .| ! K K K K K P Q ` ! Q ! n f C Z n F K n Y K.                  ",
"                  u f u u p e p u ; f 9.Y x F F x n m K Q ! ! K f f 5 * * > > ; * & = > > < 4 e a v A Y ( [ @.g.H.  F.z.2.X.] ~ K C v a 9 6 4 4 4 4 > 1 4 > > p N F ~ ] ` Y F A H K ` ! Y ` F x n F n C F C n r.                  ",
"                  w f a p e 9 u u * F $.K v C x v F K Y F f u 9 * ; * ; ; ; * & * & & = 1 7 e f k N F K K Y !  .5.r.5.X.` ( ! E L F C x a e 7 4 1 5 > > 1 > & = 4 4 a A Q ( ~ K C C Q Y Q [ F x n C n C F F n ;.                  ",
"                  w f p p u u u 5 & ^ [ n f C n F F C x 9 ; * ; * ; * * * * ; > 5 9 9 e a k v n n C C C C C Z K ! ~ ~ Q Y P L L P K F A M v f p 9 7 1 > 1 4 > > > > > 4 a C K Y Y C F C L [ L n x n C F F K n 5.                  ",
"                  p f p p u p p ; 9 ( H e p K F n u 4 ; ; ; * * ; * * * > 7 u f k v v n N N C C C C C C C C C C F F H P L P K K H F F H H F F C n x a 9 5 4 > ; > 1 4 4 4 4 u n K K K n n Y ! K f x n C F K x o.                  ",
"                  a a u u 7 9 u 4 f F k x v C f 4 > > * * ; * & * ; 5 u f n C C C N N C C N N C C C C C C C F C C H K L P K K K H F F F H K K K K K F n k u 7 1 > ; > 4 1 > 4 7 u n Y K n m Y L x h f c Z C x &.                  ",
"                  f u 9 9 4 7 k f p n x n f 9 4 ; * 4 > & & * 4 u u x C C C C C C N N N N n n n n N n v c n n n x C C C C N C A F F F F F F H K P K P P H C n x f 9 7 1 > ; > 4 4 9 n C F n F F n u f x n x K C.                  ",
"                  x 9 4 9 4 9 x f p v f 9 4 > ; * * * * 5 f x f n x C F C C C C n n v k k k k k k f f f i u u u u u a f f f f k f x x x v n N C F H K P K K K K H C n u 5 > > > 4 7 5 7 n n C n x u f x n u `                     ",
"                  C 5 5 5 u u x x f u 5 1 4 > & @ ; > u ! ;.| n f n C C C C n x f f a u p p p p u u p u f f f f f u f f f f f p u 9 9 u u u f x f n n A F K K K F K F C n f 7 > > 5 , > u f x n n u u f x 9 `                     ",
"                   .5 7 5 f f f x u > ; 4 ; & ; 4 9 9 i [   C.C 9 C n x x x u q u u u u f x n F K P Q ( ' [ [ [ [ ` [ [ ` ` ` ! Q L F C n f u u 5 9 9 i x n C F C F K K F C n f 9 4 4 4 5 7 u x C x u f f u `                     ",
"                    7 5 f x f u 9 4 ; ; ; * 4 f n n u * n C.M.n > x u u u u 9 9 f C K ! [ +.;.r.g.v.C.K.                U.    I.F.v.g.7.o.{ ( K n u 4 5 9 9 u x x F C C F F F C C f 7 > 4 5 5 u x n x f u f [                     ",
"                    4 7 x f i 7 > ; ; ; > 9 n F Z n n 9 4 ! ( f > 7 7 7 u x K ( [ 7.g.M.F.G.M.N.v.v.N.C.K.                      U.H.  U.U.  I.l.7.| Y C f 5 > 7 u f f b C F F F K F x 9 7 7 4 5 9 u n n 9 f X.                    ",
"                  r.7 f f 5 7 ; ; ; ; 5 f n F F C n n x 7 x f 7 7 9 n K ! [ 7.v.x.v.l.i.6.&.o.X.X. .o.;.0.g.v.K.        F.l.l.v.g.r.l.g.g.C.F.M.C.K.l.5.[ Y C f 5 5 7 9 u x C K K K F C x u 4 > 4 9 u n f f  .                    ",
"                  F 7 x 9 > 7 * ; 4 f C F C F C x x u x u u u n L (  .7.g.g.i.0.5.&.+.| [ [ ` ) ( ! ! ( ) ` o.x.      K.i. .|  .[ | o.+.X.&.1.5.r.r.g.v.v.i.5.[ L n u > > 7 u x C F K K F m x u > 5 > f x x Q l.                  ",
"                %.u q u > * 4 > 9 x C K K C n x f 9 5 u h n Q  .r.p.r.r.r.;.o.X.o. .| [ ` ! Q K F C C F L ` 1.C.        v.X.` ( K K Y ! [ X.;.;.&.;.;.5.5.7.g.l.7.| Q n 9 4 > 4 9 x C K K K F n f 7 5 7 f n x K F.                ",
"              6.f 9 9 4 * * > 9 n F C F F c f f f q u n ! X.i.r.l.9.5.1.&. .{ [ [ [ [ ` ! L F n x x n F ! X.g.K.          i.o.` K n c C L ` o.5.o.;.&.;.;.&.;.7.5.i.7.X.! n 7 ; ; 7 u x F K K F F x 9 7 9 f f x Y M.              ",
"              B > 5 7 ; & 4 u x F F C n x f u u u n Y | r.g.h.7.i.7.5.&. .{ [ ' ` [ ( ! Y Z f u u x C L ( X.i.C.K.K.F.U.H.i.5. .! K n f h Z [ 5.;.;.o.&.&.+.&.;.&.1.7.i.i.o.Y f 4 > , 4 u C K K K K x 9 7 7 f x 9 o.              ",
"            +.> 4 5 > & ; u n C C C x f f f u x F ` &.g.l.i.i.i.7.5.;.o. .[ ` ` ' ` Q K F x 7 7 f n F Q ` | X.X. .X. .o.o. .+. .` Y F x u f Y X.5.;.X.X.o.X.o.;.&.7.5.6.r.i.5.( C 5 > & > u x F R Y F f u 7 7 f 9 F F.            ",
"            u > 4 4 @ ; f c c n m x f u f x C Y [ 5.i.v.v.v.v.g.7.1.o. .| [ ` ` ` Q L F x 9 5 q f n C L ! Q K F F K F G K K Q ( ! K F C x f x Q X.&.X.X.o.X. .o.;.t.i.r.0.r.r.;. .K f ; ; 4 5 f F L K C n u 4 q 9 9 X.            ",
"           .q 8 4 > > f C n x x x f x x n K ` X.o.r.g.M.C.C.v.g.r.;.o. .[ [ ` ( ( L K n 9 4 9 f h n C F C x h x n n n C C c n Z G F F C n f u n Q X.o.X. .X.+.o.5.0.g.v.l.g.i.r.5.o.! C u 4 ; 4 u C F K K n 9 9 5 9 K N.          ",
"          a i 4 2 5 n K F x f f f f n F Y ` X.;.;.i.v.K.U.K.M.g.i.;.&.X.{ ` ( ! Q K C u 5 7 u f f n n x f f x n n C F F F n c c n C C n n n f u n ` &.&.| +.5.6.r.i.M.K.K.C.M.g.r.;. .[ Q x > ; 4 9 f F Y K n u 4 5 i ! F.        ",
"        } 1 9 - 2 n Y K n f f u x x F ! [ [ | &.7.l.C.U.  U.G.v.g.5.;.o.[ ` ! L K F x u 9 u u f h c f u f n C C n F K K F F C n n n n n n n x f x K  .7.o.&.r.l.l.C.K.      U.C.h.5.o.+. .! C u & * , f C K L C u 7 7 f r.        ",
"        e 1 4 > l ! Y C f f u f C F Q ` ` `  .&.;.v.C.U.      G.l.5.;.X.` ! Y K F C x f u u u f x f u i n C n n C F Y Y K K F C C x x n n x x x n n ! o.;.;.i.v.C.U.          K.v.r.&.o.X.| [ K 7 ; & 4 u m Y K C u 5 5 X.        ",
"      ..= 4 ; x W / m f f f f C K Q ! ! Q ! [  . .0.N.K.U.U.I.M.r.;.o.[ ! L K F n n x f u u u i f u f x n C C C C F Q Y F K K F C x x x n x f c n C F ! o.5.7.l.C.            U.C.g.;.&.X.[ | [ K f > ; > u F G L x 9 4 K K.      ",
"      p = * f ` ( F u 9 f f n L Y Q L K K K L Y ! ` o.p.v.l.7.&. .| ` Q K F C C x x x f u 9 e p u f x n C C C C N F Y L F K K F C n c x x f f x x F n C ! X.&.7.v.U.            K.l.;.o. .[ ` [ ` Y n 4 & 4 f n G c h 7 5 5.      ",
"      > ; 7 ` | Y u 5 7 k C K L K F C n x x x n C Y | 9.v.v.;.| ` Y F C C c c n f a f f p 9 9 u u x v N C C C C C F K L K F F F F C C x f f f x n F C x F (  .&.r.I.          K.v.0.o. .| [ ` ` ( ` R h * * 5 f n n n u 4  .      ",
"    7.& * F o.R n 4 5 7 n Q Y C C v u 4 9 a x C L [ i.G.    M.5.[ Y C x f u f x p u a f p 9 e u f x n N C C N N C F K L K F F F F F C n f f f x n F Z n n K ` X.o.i.s.x.F.U.G.i.&. .` ` ( ! ! Q Y ! ! K f ; ; 7 u n K ! C C C.    ",
"    G O u o.! n ; * 7 v K L F k w 7 ; = 9 x A ~ [ 9.M.K.    K.l.;.[ K x 7 , 9 x f 9 p a p 9 9 a f v n N C C N N C F K L K F F K G F C n f f u f n F F C x x L [ [ | ;.l.U.  F.a.;.` Q K G F F G K L Q Q K f ; ; 4 9 ` I.;.>  .    ",
"    f O ( r.x ; & * f K Y n a 9 = & ; 7 f n K ( } i.C.F.    K.v.0.| Y n 7 * 5 f f 7 u a u 7 9 a k v n N C N N N C F K L K F F K F F F n x f i f x C F F n h K [ X.X.g.        U.C.[ ( L Z x x n C F K L Y K u & * * F G.F.; (     ",
"    ; f g.` > O * 4 A Y C f 5 = = & 5 f x n K ( [ 7.F.U.    I.l.-.[ Q C u ; 5 f f 9 p u e 7 9 a k v n N C N N N C F K L K F F F F F F C n c f i x C n C C C Y  .5.7.F.          F.;.| ( L n f f i x Z K Y ! n > & & 5 Y ' + `     ",
"    + X.a.h @ @ * k P A e 9 ; + > > 9 f f k C K ~ $.F.      U.v.o.[ Q C 9 @ > f f u u u 9 7 e f x n n C C N N C C F K K K F F F F Z F C C n f u f C n n C K ! { 5.i.K.          v.;.| ` Q F x f 9 9 h C F L K x 5 ; @ 9 C > [     ",
"    u v.( * @ + u C F f > = % @ 1 7 7 7 7 9 a v C ` r.F.    H.l.&.[ R n 5 + ; f x u a u 9 9 p k x n N C C N N N C F K K K F F F F F F C C C x u f x n C F L Q ` 5.i.F.        U.v.@.` Q L F C x u 9 > u n C L R n > & 5 n n &.    ",
"  [ ! &.u O & * F C x 7 = % % > 4 7 5 4 9 u u f x F [ r.G.U.M.r.o.` L n * O > x x p u a 9 7 u f x n N C C N n n N F K K K F F F F F Z C C C x u f f m C K L Y ` 1.r.F.        F.v. .! L F C C n x f ; 4 x C Q ( K 7 ; ; f F g.    ",
"  C X.F @ O ; f F x p 1 & & = 1 5 9 u f x x a f f n Y [ i.K.v.1.| ! F f O O 4 n n f x v p a n n C A A F A Z C C C K K L L K K K K K K F F F C f x x n C F K K ` 7.7.C.U.  U.  v.5.( K F n x n x x x u 9 u c K Y F x 5 & 5 x g.    ",
"  [ [ * O $ u C n f 9 > * & = 4 7 p x x n n k x k x C Y ;.M.7. .` Q F f * 9 n L K L ~ ^ P Q [ ` ] [ [ } } } } } |  .| |  . . .| | | [ ` ( ( ! Y K K F K L K K ! &.&.;.v.    F.r.[ L n C n i h f u u x f 5 5 x C C n x * & u 1.    ",
"  0.F X O > n n f e 4 ; * = > 7 u x v x x x x n k x c F [ | Y L ! ! Q L K ! ` [ ` ` ( ! Q ! _ ( ` X.$.;.7.i.l.M.G.V.v.i.0.5.&.X.| ( ` ( ! ! ( ` ( ` [ [ [ ` ( ` ) ! L ` i.l.7.| R C x n C n n x u u f u 5 > 5 u x f n 7 ; ; K G.  ",
"  r.5 o O 5 n i f 7 > & * > 4 u x n n k k x x n f v n C ! ( Q ( [ 7.( L ! ! Q Y P K F F K Y Y ! [ X.+.&.5.r.f.N.V.C.v.g.0.1.o. .| ` ! Y Q L K R L Y ! L ! Y Y o.&.` ! ! [ ` ! F C n C Z F F C n C n f 9 7 5 ; > u f x f 5 @ 5 7.  ",
"  [ O O @ u f u u 7 = @ & 4 9 f x n n f x x x C C F ( [ | o.X.| ` o.K x C n C Z C Y ^ ! ] X.+.;.w.w.w.w.w.w.r.i.d.i.i.t.r.0.0.r.r.0.;.|  .[ ) ` K C F x C n x [  .`  . .o.` [ Y F F Y F C F C m F K C u 7 7 ; * 7 f u h 5 & & ;.  ",
"  n o O 4 x 9 9 4 5 & @ > e f k x v x k n C C L ~ ] r.&.` ! K C C x n n C n F C n | $.[ ] [ [  .| ....| } [ [ } .. . . .| [ { |  .[ X.[ [ [ X.&.L c C C F n x F f F C Y ( [ 7.5.Q ! ! F C F C C n F F x u u 4 * > q u x 7 ; & [   ",
"  4 O O 7 f 5 4 > 7 = & 7 x n x x n v x H L F F F ! ` K L ! Z x K x K K K K F f x ! ( K K L P E L Y Y Y L L Y Y E Q Q Y L L L Y Y L Q K Y K Y ` F f x L Q K K S f Y x Q ! L L | F F F K Y C n F n n C c f f 9 * > 5 f f u 5 & n C.",
"[ O o @ , 5 ; & : 3 # $ u n n m F m n n S F B b z x C C ! ;.&.[ [ K ` ` ` ! C f F F F A H K K K K K K K K K K L L L K K K K K K K L K F K F C K C n n Y ` ` ` Q Y &.` 7.| Y C n x x x C G n n F C C n f f f 7 * ; , 8 r q 5 + ; 9.",
"D 4 5 i j j s y d g 0 t V G G W ` L L U J J J U T n ( ;.r.a.l.r.X.! ` [ | ` ! Q ( ( ( ( ( ( ) ) ) ( ( ( ) ( ) ) ) ( ( ( ( ( ( ( ( ` ` ` ( ( ( ( ( ( ! ! [ | ' ( ( 7.7.N.7.7.o.C F Y K F K L L L Y ! K F F F n x z z s B b c e p q."
};
