/* XPM */
static char *out[] = {
/* columns rows colors chars-per-pixel */
"41 59 38 1 ",
"  c None",
". c gray2",
"X c #170F07",
"o c #2F1B0B",
"O c #430000",
"+ c #4F0000",
"@ c #530707",
"# c #5B0000",
"$ c #5F0707",
"% c #670B0B",
"& c #730000",
"* c #7F0000",
"= c #731313",
"- c gray33",
"; c #6F6F6F",
": c #8B0000",
"> c #831F1E",
", c #A40000",
"< c #B90000",
"1 c #8B2322",
"2 c #9B3333",
"3 c #A53C3C",
"4 c #D20000",
"5 c #E30000",
"6 c #F90808",
"7 c #AF4747",
"8 c #B37347",
"9 c #C05B5B",
"0 c #FF4E4C",
"q c #D57575",
"w c #D68A5A",
"e c #E79A6A",
"r c gray51",
"t c gray61",
"y c #B6B6B6",
"u c #F7AAAA",
"i c #FFC29F",
"p c #D7D6D6",
/* pixels */
"                          5              ",
"                        5                ",
"                      =  %6              ",
"                        5  5             ",
"                     = 5=57 72           ",
"                      =45#664iw          ",
"                      5 #51*#=w1         ",
"                      33,42$6@=%         ",
"                      2,99<*@=%%         ",
"                    5 w:w228=&==  ;      ",
"                      ==#%37=>%=  r      ",
"                      3=:=%=>%@  ;t      ",
"                      312==>=@*  r4      ",
"           rt        7=w17=>$=  ;%,      ",
"            -,r 33eiui=w8w3iq9qq;469     ",
"             ;<e9eii9i18e77779997;,%1    ",
"              3i3ww772*89e2w2223w11*$8   ",
"              31*1122=$232871111=*%$@>   ",
"              *>>3*63$+e2854=*%$%@@%*>   ",
"           yy68*O%%=$$+*8===>%+++@>1=,*py",
"              >$+o++oo+++$$OO++XO%113*6t ",
"             >3*+o=%+++$%O+++OOXO=3713*  ",
"             =73o+%+OX6$>+$39=OOO$>3=*%  ",
"             %3>Xo+5OOO.$4ei=7OOXo$*>=$  ",
"             +%$Xo+X@:4<.$68$3719%%*$O   ",
"             ++oX+X5:.:4#:@%+>$9911%*o   ",
"            *oXX++*O.60,OO3OO$1u12e8$    ",
"r4=38=     7*++XO$o.6:#64i91X$6w>$@=O    ",
"    =313>%13$+++X$O+#OO:*i66$X$+XXXoo    ",
"     @>11>%$O+OX ++++++&:O..OX+++++      ",
"     XX@>+$OOO   %++>*$+OXOOOo+O         ",
"    OOOX$+OX    *1=+O*@+OOOO%>$+         ",
"   $XX OX+      11*++O$O+OO$*=*O         ",
"   >X  OO      *72>+ooOXOX+==81$O        ",
"  %   OX       *8w>o+OOOOX=%7w1@+        ",
"     %         *28%O+XOOX+%=338$o        ",
"               >23=+oXXO+O$>131@O        ",
"              *=23%@+O+ OO$3w1=+O        ",
"              *=81*%OXO +++331*+O        ",
"              *==2==+XO +O+*8==$X        ",
"              +*%31$+XO $oo%>%$*o        ",
"              ++@=*+XX  $++$%$=*+        ",
"              o++@$+OX  @@++@=>$         ",
"              +oOo+OXX+ @$oXOO$O         ",
"               6+o+OXOo O+XXOoOO         ",
"                O+@@+O+ oX+$+OO          ",
"                O+O++O+ XO===Xo          ",
"                 XXOOX+ XO%6=o           ",
"                  OOXO+@o+@6oo           ",
"                  OOOOo%++OO+o           ",
"                 O++OXo%$+XOOO           ",
"                ++OO+X+$$+OOX            ",
"               ooOO++Oo O+O+O            ",
"              ooo$+$++o @*%O             ",
"              6o +<O+   %=*@             ",
"                       +%33>$            ",
"                       $%%>=>*           ",
"                      @=3= O3=>          ",
"                      $+<+ ++<*          "
};
