/* XPM */
static char *out[] = {
/* columns rows colors chars-per-pixel */
"58 22 34 1 ",
"  c None",
". c gray2",
"X c #170F07",
"o c #2F1B0B",
"O c #430000",
"+ c #4F0000",
"@ c #530707",
"# c #5B0000",
"$ c #5F0707",
"% c #670B0B",
"& c #730000",
"* c #7F0000",
"= c #731313",
"- c #6F6F6F",
"; c #8B0000",
": c #831F1E",
"> c #A40000",
", c #B90000",
"< c #8B2322",
"1 c #9B3333",
"2 c #A53C3C",
"3 c #D20000",
"4 c #E30000",
"5 c #F90808",
"6 c #AF4747",
"7 c #B37347",
"8 c #C05B5B",
"9 c #D68A5A",
"0 c #E79A6A",
"q c gray61",
"w c #B6B6B6",
"e c #F7AAAA",
"r c #FFC29F",
"t c #D7D6D6",
/* pixels */
"                           t       OOOt>e                 ",
"                           t     &&OOOw#38                ",
"                           >%  &&O+O;%4OO>                ",
"                          :5,+#$O=7113,3,<2               ",
"                        $+&*O+7;=>O%<==;*+$*<$            ",
"                     =:$OXO&;6*;r;#O+$*:+#$<;%$->t        ",
"                   2==OOX+;,43;;3;*+OX++OO+:#O+$-         ",
"                 117=$+#,>44>2323,3>*OX+O%+OO$%+          ",
"           t    2796:<3;,1,>*2:;**380>2OX4+O%<<+          ",
"            54 2+@26,8,,;&:#OO&&+,<,,,11,5+OO@+Oo         ",
"            r,4r46e8<,9*2&OO+X+O+=++@=;2%&<OX+OXX+1       ",
"   4$<      *<662,19;1=&#@OOXOO++%+$O+O#+<02OOO%O:q$      ",
"4O OO*6    *$==<<;*6=*#O$OoX..X+O+O+O+oO=2=%6XOXO@OX1911  ",
"OOOXXO*<  =<6%%*%$O+$+OO+o+...XOO+O+OO+Oo==21=X+oXXO<<*   ",
"O+OO$O*1<269<<72@++OO++OXOOOOOOOXOOXOOO$==<12$OOO+oO**7099",
" O+$+o$2<%*<=<11:OXOOOXO#+&;&;&##+OOOoO%61<<=+O++++O7119*$",
" X++Xo+=<:$=<1<*$OO;&&;;>>344,3>;,&;;&O+%26*+oOOO++:$$$*: ",
"  OOO+o=2===:*$@+O     33>3>>3         OoO@%++....O       ",
"   O+O++**%%$@O                         OXoo+X.+O.X       ",
"    O+OO@$@+O                             OOo.OOXX        ",
"    OXOOo@o                                XO.OXOO        ",
"     XOO+$                                  o....         "
};
