/* XPM */
static char *out[] = {
/* columns rows colors chars-per-pixel */
"48 46 33 1 ",
"  c None",
". c gray2",
"X c #170F07",
"o c #2F1B0B",
"O c #430000",
"+ c #4F0000",
"@ c #530707",
"# c #5B0000",
"$ c #5F0707",
"% c #670B0B",
"& c #730000",
"* c #7F0000",
"= c #731313",
"- c #8B0000",
"; c #831F1E",
": c #A40000",
"> c #B90000",
", c #8B2322",
"< c #9B3333",
"1 c #A53C3C",
"2 c #D20000",
"3 c #E30000",
"4 c #F90808",
"5 c #AF4747",
"6 c #B37347",
"7 c #C05B5B",
"8 c #D57575",
"9 c #D68A5A",
"0 c #E79A6A",
"q c #FEA96A",
"w c gray61",
"e c #F7AAAA",
"r c #FFC29F",
/* pixels */
"                           *                    ",
"                                                ",
"                                                ",
"                            >                   ",
"                           >                    ",
"                          4  3                  ",
"                            >                   ",
"                              4                 ",
"                           *3                   ",
"                           4>-,-,#              ",
"                           *O+#>>1#             ",
"                           OO+OO%&*             ",
"                          oO+&OOO+#%            ",
"                          +Oo==O+O+=            ",
"                         woO=&oO+w#=            ",
"                     1,<54>e;*77r>719,,         ",
"                    =,=<<<<%+#=77e1<,,=11  2    ",
"                  2%=$$=%=4++#&$;*;*====,,%     ",
"                    $O+%+O>..O&OO++++$%97e,     ",
"                   ,1$o+X-&2-O-.O%+XO+@$<7,,    ",
"                   6<%oOOrq-&O2..+%+OOoo@*,<<   ",
"                   @@O$-3>O%&=73.X$++oOO+;155   ",
"                  $@XO$>-XO+&+12+O+o+  *+=5e6   ",
"                  $OXOo+&O#,&1O-#OXo    %,1q0   ",
"                 +%XOOOOOOr;>r##+OO+    8r6qe1  ",
"                 =+%*;&O#X#>;OO#6,$o;   5,%=q15 ",
"                $6<5rr<*@+%*#*>&2<r,;   6  %0,5 ",
"               =<55519,*=@O#=-&-,:555;  :   4,, ",
"              =6551<6,,*=O+*&**&*%<rr,*       * ",
"            9565<6,5===@@O+O%==$==*6<9=$      4 ",
"           e77r<6,5===$+OOO$$$$$@@;;1<r1=       ",
"          777<,,,==@@$OooOXOOOO+@@*=*,=1=       ",
"          9<9,=1=$@++o+OO.   OXX++;*,==,,= ,2   ",
"          ,5*;=$@O+oOOOO       XOX@+=5550,=+X   ",
"         *1=,=OXXOOXO             +$;,,1,=oOO O2",
"         =,1%$OXXOX                +=*%=%$XXXOXX",
" 2,,,   *5,,@++oO                   O@@%@oOOOOXX",
" OX$;,,;15,$%+o                      oO++XOXOOO ",
"% OOX;1,11;%$+*                       +O+OXXOX  ",
"XX OXO@1*%%$o;                        oOX.....  ",
" XXOOXo%;1Oo                           +OXOOO   ",
"  X.XO+O1==O                           +OOXX.   ",
"   .O.O+O=;                             ....    ",
"    OOXOOO%                                     ",
"     .OOOoo                                     ",
"      ...+                                      "
};
