/* XPM */
static char *out[] = {
/* columns rows colors chars-per-pixel */
"42 62 36 1 ",
"  c None",
". c #170F07",
"X c #2F1B0B",
"o c #430000",
"O c #4F0000",
"+ c #530707",
"@ c #5B0000",
"# c #5F0707",
"$ c #670B0B",
"% c #730000",
"& c #7F0000",
"* c #731313",
"= c gray33",
"- c #6F6F6F",
"; c #8B0000",
": c #831F1E",
"> c #A40000",
", c #B90000",
"< c #8B2322",
"1 c #9B3333",
"2 c #A53C3C",
"3 c #D20000",
"4 c #E30000",
"5 c #F90808",
"6 c #AF4747",
"7 c #B37347",
"8 c #C05B5B",
"9 c #D57575",
"0 c #D68A5A",
"q c #E79A6A",
"w c gray51",
"e c gray61",
"r c #B6B6B6",
"t c #F7AAAA",
"y c #FFC29F",
"u c #D7D6D6",
/* pixels */
"                    4                     ",
"                                          ",
"                   5  4                   ",
"                     4                    ",
"                    4,                    ",
"                   ****22                 ",
"                  2,#q2<22                ",
"                 *&o@111<**               ",
"                 2&O#<77<1*               ",
"                 2y1::182q2               ",
"                 *OOq2O+:22               ",
"                 2#o:&O#<22               ",
"                 7*:01:20**               ",
"                 y+&u3&#6<2               ",
"       rr      1*7OXXXXo77*               ",
"        >4= 600*$**Ou3&*<*#<    -e        ",
"         -5>6<$$+X+&&&*<2$#<72qqwu        ",
"          -:0<<<&+.$:06**OOo$<6$$>        ",
"          ::<q067<#o..oo..oo*&q-&,        ",
"          ++&<<<2*<#..ooOo*:<106-w*       ",
"          OOO6<*:&**oo+2**<<71017<&+      ",
"     uw>&+#.o+*$$#**O+*&&:&&&<6*:$++      ",
"       55+OoooX,woO$O##$$#++$$:$+#$:&     ",
"       &#OO....OOoo+o#*#*5-oO##O+&672w3>ww",
"       +OOo.o.oooO+X.O#$OOOoo#oo*671*&4$  ",
"       #Ooo..X...oXoOOoO.ooo.oXo**6<<2&   ",
"      OOoo..o .OO+*ooXOO#*+oX...+&*<*:$   ",
"     .OoooooO  o#ooo@@ooo+*+OXo.O+&*&$#   ",
"     o..o..X   X#.o%;3@ooO#*$oOO*:*<*:$o  ",
"    #68.oo.O    .oo;;OOo..O+*O**<112<&$O  ",
" 25#*85...o     ##o;&28620<6**<02q072$#&  ",
"29<*o<5...      #<oo<#8q07<*&&2<7<2&$+&<  ",
"t2#o..+o.       O#6oo2:012&$+*&*2&$#*:7&  ",
"*<*:##o         OO&$*O#2&*O.oo.Oo#O#+$&   ",
"  6+<5         $*OO&#XX$#O.Xo+O+     5o   ",
"  <880         <$#XO+o#Oooo#**O#      u=  ",
"  t87         <6&+OO+OOooO+*:*++       e  ",
"              61:OXOXoOXO+**66&#+         ",
"             &<0&oX.oooX#$:<q<:$+         ",
"             &1<$oO.oo.X#$&<q1*$+         ",
"             :0**OX... X#$&781<*o         ",
"             21*$+OoX  X#+&<t1<#o         ",
"            :2<<:$ooo  OO#:2<<2#O         ",
"            &**0*$ooo   XO+:&2&O          ",
"            O&$26+X.o   oXo#*##X          ",
"            Xo+*&Oo.o   oo.OOO.O          ",
"             Oo##O.oOo  o+XoooOo          ",
"             XoOOo.OOO  .OO+*#oo          ",
"             5OXOoo#OOo oXO&36o           ",
"               OOoXoOXX. XO$,*X           ",
"                OOoooXOo:XooOO<           ",
"                  O..XXO*OO##X&           ",
"                   ooo.O#OO*+O+           ",
"                  .OXooXOXO$+OO           ",
"                 OOOoOoOXOO&#X            ",
"                XOooooo .OO&#O            ",
"                ,O o+O   oo&+             ",
"                  o5o    O+$#             ",
"                         +*2&#            ",
"                        +**&*:            ",
"                       +22* O22:          ",
"                       +O,O OO,&          "
};
