/* XPM */
static char *out[] = {
/* columns rows colors chars-per-pixel */
"63 14 186 2 ",
"   c None",
".  c #000101",
"X  c #0B0600",
"o  c #130C03",
"O  c #180D00",
"+  c #12110B",
"@  c #1D190F",
"#  c #1E1103",
"$  c #151710",
"%  c #1B1B14",
"&  c #1E1E1A",
"*  c #231A0B",
"=  c #2A1C0B",
"-  c #251401",
";  c #301F0E",
":  c #251D13",
">  c #221F18",
",  c #2B2615",
"<  c #24221B",
"1  c #2C291C",
"2  c #2A2418",
"3  c #342C1D",
"4  c #3C2D1D",
"5  c #3F301F",
"6  c #262724",
"7  c #262825",
"8  c #2D2F2D",
"9  c #2E2A22",
"0  c #322B21",
"q  c #382E20",
"w  c #2F312D",
"e  c #333027",
"r  c #34332C",
"t  c #3B342E",
"y  c #39382F",
"u  c #3E3427",
"i  c #343634",
"p  c #363833",
"a  c #3B3A34",
"s  c #3C3F38",
"d  c #433107",
"f  c #43330A",
"g  c #492C10",
"h  c #432A11",
"j  c #483814",
"k  c #44371C",
"l  c #4B3319",
"z  c #463818",
"x  c #593718",
"c  c #5A3B1C",
"v  c #573B1F",
"b  c #413424",
"n  c #453A23",
"m  c #4B3E2B",
"M  c #533D26",
"N  c #593E22",
"B  c #523E28",
"V  c #433E34",
"C  c #403E39",
"Z  c #4C412C",
"A  c #574825",
"S  c #5D4B26",
"D  c #52452E",
"F  c #55492D",
"G  c #5E4E2B",
"H  c #554626",
"J  c #44423C",
"K  c #4B4536",
"L  c #564B34",
"P  c #5B4C33",
"I  c #5E4C3B",
"U  c #5E5036",
"Y  c #654425",
"T  c #604F28",
"R  c #60452D",
"E  c #604730",
"W  c #655536",
"Q  c #695737",
"!  c #6A5937",
"~  c #665539",
"^  c #6B5938",
"/  c #434444",
"(  c #484747",
")  c #4A4A46",
"_  c #494748",
"`  c #494A4B",
"'  c #45464E",
"]  c #594E41",
"[  c #5E5243",
"{  c #54524C",
"}  c #5C564D",
"|  c #4F5455",
" . c #525353",
".. c #5C5B55",
"X. c #5C5D5B",
"o. c #62574D",
"O. c #745C48",
"+. c #645C54",
"@. c #685E54",
"#. c #6B614E",
"$. c #7B634D",
"%. c #6F6157",
"&. c #6C645B",
"*. c #6F685C",
"=. c #66665E",
"-. c #736152",
";. c #7B6652",
":. c #79675B",
">. c #766B5E",
",. c #7C6E5E",
"<. c #746559",
"1. c #5D5E65",
"2. c #646564",
"3. c #696869",
"4. c #726C65",
"5. c #7E6E61",
"6. c #736E6B",
"7. c #7A736A",
"8. c #6E7476",
"9. c #7A7676",
"0. c #7C7C77",
"q. c #7C7C79",
"w. c #8A6E55",
"e. c #8A7A5F",
"r. c #847463",
"t. c #8A7B62",
"y. c #8A7B6B",
"u. c #847868",
"i. c #81827E",
"p. c #958170",
"a. c #7C7B80",
"s. c #847E82",
"d. c #878584",
"f. c #90898A",
"g. c #989796",
"h. c #A19E97",
"j. c #ABA49C",
"k. c #A2A19D",
"l. c #ADACAC",
"z. c #B4AEA9",
"x. c #B5AEB0",
"c. c #B6B6BA",
"v. c #BCBBBD",
"b. c #BAB8BA",
"n. c #C1B6AC",
"m. c #C9B7A8",
"M. c #D2BCAB",
"N. c #C4B7B0",
"B. c #C2B7BB",
"V. c #C7BABE",
"C. c #CBB9BF",
"Z. c #CDBAB7",
"A. c #D5C1B4",
"S. c #D9C4B4",
"D. c #D7C8BD",
"F. c #BDBDC3",
"G. c #C3BDC2",
"H. c #CCBDC2",
"J. c #D0BEC3",
"K. c #BCC0C1",
"L. c #C4C4C3",
"P. c #C3C6CB",
"I. c #C6CBCD",
"U. c #CBCACC",
"Y. c #D3CAC6",
"T. c #D3D1CD",
"R. c #C8CDD0",
"E. c #D0CED1",
"W. c #D4D1D2",
"Q. c #D9D3D3",
"!. c #DCDBDA",
"~. c #DAD6DA",
"^. c #E0D1C6",
"/. c #ECDFDE",
"(. c #E5DEDD",
"). c #E4E3DF",
"_. c #EFE2DE",
"`. c #F2E4DB",
"'. c #DFDEE2",
"]. c #DFE8EA",
"[. c #E3E3E5",
"{. c #ECE3E2",
"}. c #E7E8E4",
"|. c #E7E8E8",
" X c #FFF2E5",
".X c #EBE5F2",
/* pixels */
"                                          c.c.I.                                                                              ",
"                         X      Y.x.G.F.I.' 1.a.U.~.E.I.P.K.b.v.v.K.v.B.B.V.H.H.C.C.C.J.H.Y.H.H.V.G.G.L.U.P.P.P.K.I.R.K.L.K.!.",
"                    D.Z.M.S.A.N.6.J `  .1.i ' ( 1.9.6.2...{ ..) J J } +.@.-.<.:.:.:.:.w.,.,.>.>.%.@.+.} { {  .) / | ( ( ` / l.",
"          T.M.m.S.M.t.$.O.-.%.o.t 6 % 7 8 / / 8 p r C J r 1 J 1 , = Z Z F P ~ ~ ~ ~ ^ ~ ! W W G F L Z 3 , 1 % y =.X.X.=.X.X.b.",
"H.j.n.n.m.y.;.O.w.w.N M I D b u 0 > & 7 w i w s J a C a p e K 2 , 3 L Z P E G G S S T T T S A A F L L Z , , o 6.).T.!.!.!.W.  ",
"6.0 ] ] w.P N Y x Y Y M P m b 3 > * < $ p r s a r e J t r V V *.,.%.n k k z j f d d f d d d d 4 4 k n I ,.*.} z.              ",
"{ X q q E B l N N x N B b - = * : + > q.s w i i.0.i.d.f.s.g.f.(.{.Y.7.y.y.y.u.t.e.e.e.e.e.p.e.e.e.7.u.j.{.{.Q.                ",
"h.0 : b B B l l l g h ; O O o X +.3.> g.7 & q.}.}.  }.  .X          {.{.{.`.`.`.`.`.`.`.`.`.`.`._._.{.                        ",
"  { o q 3 n u 4 = - = [ 4.: X o.Q.  i.d.3.q.[.                                                                                ",
"  { X < w 9 2 @ } 7.=.Y.  9.3.Q.      '.[.                                                                                    ",
"  k.6 + & % X.3.U.  !.      |.                                                                                                ",
"    ` . | 8.R.].                                                                                                              ",
"    g.3.R.|.                                                                                                                  ",
"      |.                                                                                                                      "
};
