/* XPM */
static char *_98308fbd49146adf0ac87158563c140BTETqZfK6ihITWDO[] = {
/* columns rows colors chars-per-pixel */
"72 77 256 2 ",
"   c None",
".  c #020201",
"X  c #0B0402",
"o  c #050902",
"O  c #0B0A05",
"+  c #0C0C0B",
"@  c #070709",
"#  c #140C02",
"$  c #110E0D",
"%  c #180501",
"&  c #0A130B",
"*  c #1C1302",
"=  c #11110D",
"-  c #171709",
";  c #150D14",
":  c #0B1614",
">  c #141313",
",  c #1B1B14",
"<  c #141419",
"1  c #1B1A1A",
"2  c #181616",
"3  c #0E0F15",
"4  c #270B03",
"5  c #231403",
"6  c #231A02",
"7  c #2B1C03",
"8  c #271A0A",
"9  c #361804",
"0  c #241D15",
"q  c #381B15",
"w  c #2F0B0F",
"e  c #1B2917",
"r  c #12230F",
"t  c #2B220B",
"y  c #36240A",
"u  c #232214",
"i  c #2C2313",
"p  c #23221C",
"a  c #2A2919",
"s  c #342C1D",
"d  c #382A18",
"f  c #3A321C",
"g  c #2C3B1E",
"h  c #1A1A22",
"j  c #281C25",
"k  c #1B2921",
"l  c #242423",
"z  c #2A2C26",
"x  c #2C2C2B",
"c  c #282825",
"v  c #342D23",
"b  c #342E29",
"n  c #273527",
"m  c #3B3324",
"M  c #3B342B",
"N  c #353429",
"B  c #333332",
"V  c #3D3C3C",
"C  c #393936",
"Z  c #2C2B30",
"A  c #490B02",
"S  c #6D1001",
"D  c #472809",
"F  c #582B09",
"G  c #58370C",
"H  c #442A16",
"J  c #49351B",
"K  c #573819",
"L  c #553010",
"P  c #653508",
"I  c #643A1B",
"U  c #723013",
"Y  c #473927",
"T  c #583A26",
"R  c #443C34",
"E  c #58372C",
"W  c #6F3329",
"Q  c #511D25",
"!  c #3F4423",
"~  c #564116",
"^  c #66411B",
"/  c #714517",
"(  c #59442A",
")  c #49453A",
"_  c #574A38",
"`  c #52472F",
"'  c #684728",
"]  c #764826",
"[  c #7B512B",
"{  c #684B35",
"}  c #764C31",
"|  c #6A5635",
" . c #7C5232",
".. c #785738",
"X. c #63502C",
"o. c #7A613D",
"O. c #413D41",
"+. c #444443",
"@. c #494A47",
"#. c #564E49",
"$. c #585649",
"%. c #575756",
"&. c #705A48",
"*. c #7A6349",
"=. c #716552",
"-. c #6A6967",
";. c #77736A",
":. c #797978",
">. c #776F68",
",. c #625F5B",
"<. c #8D1416",
"1. c #A6171A",
"2. c #B71513",
"3. c #94370A",
"4. c #902F2E",
"5. c #B12F2E",
"6. c #AA2B14",
"7. c #D61516",
"8. c #CB1115",
"9. c #E51918",
"0. c #F91B18",
"q. c #EB0A0E",
"w. c #D8221F",
"e. c #F02419",
"r. c #D01625",
"t. c #F81B24",
"y. c #E9182A",
"u. c #D92726",
"i. c #CE3032",
"p. c #E6292A",
"a. c #FD2826",
"s. c #FD332D",
"d. c #E82536",
"f. c #FA2C35",
"g. c #FA373B",
"h. c #E93533",
"j. c #924B11",
"k. c #AC4F0E",
"l. c #85552C",
"z. c #885A35",
"x. c #925C36",
"c. c #924D32",
"v. c #B0582A",
"b. c #89613A",
"n. c #98643B",
"m. c #A8683C",
"M. c #AB6C37",
"N. c #CB503A",
"B. c #FA4239",
"V. c #E8443D",
"C. c #DF7237",
"Z. c #A93841",
"A. c #F73C45",
"S. c #DA3E47",
"D. c #8D5846",
"F. c #AF544E",
"G. c #886546",
"H. c #976945",
"J. c #937056",
"K. c #A66C44",
"L. c #A8734A",
"P. c #B97849",
"I. c #BB7D55",
"U. c #AD6C56",
"Y. c #897664",
"T. c #887A71",
"R. c #AE736C",
"E. c #D14F4D",
"W. c #FB464A",
"Q. c #FB4B57",
"!. c #F95859",
"~. c #E85251",
"^. c #C67453",
"/. c #F1615A",
"(. c #FC5966",
"). c #FF5571",
"_. c #CE716C",
"`. c #FC6869",
"'. c #FA6B74",
"]. c #FC7776",
"[. c #EE706D",
"{. c #7F817F",
"}. c #BC8555",
"|. c #988572",
" X c #B28B75",
".X c #ADA17B",
"XX c #C88558",
"oX c #D68659",
"OX c #CC8B67",
"+X c #D48D68",
"@X c #D39071",
"#X c #F9857C",
"$X c #E78B72",
"%X c #E89C70",
"&X c #807F84",
"*X c #F47D86",
"=X c #8A8A88",
"-X c #979488",
";X c #979696",
":X c #908E8C",
">X c #AF958B",
",X c #A7A396",
"<X c #A7A7A8",
"1X c #B8B6B8",
"2X c #B3B0AC",
"3X c #CC948E",
"4X c #FD8789",
"5X c #FC9688",
"6X c #FC9897",
"7X c #F48D8C",
"8X c #D6AF8F",
"9X c #FBA797",
"0X c #FAB995",
"qX c #F3B08B",
"wX c #FF9CA1",
"eX c #CFB3AA",
"rX c #FDA7A5",
"tX c #FBB5A9",
"yX c #FDB9B7",
"uX c #F2AEB3",
"iX c #D49DAA",
"pX c #F8C69C",
"aX c #CBC6B9",
"sX c #D7C6B3",
"dX c #F9CBA5",
"fX c #FCD5A9",
"gX c #FAC6B9",
"hX c #FDD9BC",
"jX c #EDCFA7",
"kX c #FEE3B9",
"lX c #FBEDB3",
"zX c #FFBBC5",
"xX c #C0BEC2",
"cX c #C9C9C7",
"vX c #D7CDC1",
"bX c #D8D5CB",
"nX c #DAD9D6",
"mX c #CFCDD3",
"MX c #FDC9C8",
"NX c #EAD7C7",
"BX c #F9D8CA",
"VX c #E6DBD3",
"CX c #FEDAD5",
"ZX c #EDCACA",
"AX c #FCE8CB",
"SX c #FDF3CC",
"DX c #E7E6DC",
"FX c #FBE6D9",
"GX c #FDF7D9",
"HX c #EEE7C7",
"JX c #FFE4E3",
"KX c #FFECE3",
"LX c #F7EAE5",
"PX c #FFF3E4",
"IX c #F9FAE2",
"UX c #E7F9EE",
/* pixels */
"                                                                                NX                                                              ",
"                                                                              NX>XCX                                                            ",
"                                                                            BX XD.3XCX                                                          ",
"                                                                          BX XF.F.U.3X    VX                                                    ",
"                                                                          R.D.$X[.^.U.MXyX>X    UX                                              ",
"                                                                ZXVX  PXPXc._.6X5X[._._.U.J.      UX                                            ",
"                                                                3X>XMXyXtX^.#X9X9X5X@Xc.4.F.MX                                                  ",
"                                                                ZXF._._.E.].5X0XpXqXqX_.5.1.[.JX                                                ",
"                                                                  F.Z.S.i.].9X0XfXfX0X5X!.r.i.yXJX                                              ",
"                                                                gXF.i.d.A.`.9XdXlXlXpX9X`.d.y.).uXZX                                            ",
"                                                                U.5.i.r.W.`.9XhXGXSXhX9X!.y.9.d.E.R.                                            ",
"                                                              sXc.5.h.p.~.#XtXAX    FXtX'.g.t.a.2.5.                                            ",
"                                                        MXgXgXF.N.h.W.W.[.9XgXFX    FXMX4X!.W.V.5.+X                                            ",
"                                                      ZXR._._.5.i.W.(.(.4XyXCXKX    JXMXwX].`./.^.gXPX                                          ",
"                                                       X5.5.i.i.p.`.'.4XrXMXCX      JXCXgXrX4X].[.5X9XyX                                        ",
"                                                    PXU.5.8.y.f.f.`.4XuXMXCXJX      KXCXCXyXrX4X'.~.5.E.tXFXKX                                  ",
"                                                    PXU.5.7.t.W.W.`.wXMXJXLX          GXKXCXMXwX].~.5.1._.CXrXKX                                ",
"                                                    GXF.u.t.t.W.(.4XtXCX        IXGX  UX  DXJXrX*X(.A.r.E.5XF.6XyX                              ",
"                                                    FX5.r.t.g.!.[.9XgXFXIXUX  IXAXSXGX    FXJXzX6X'.!.h.p.p.2.i.E.zX                            ",
"                                                  vXrX1.8.f.W.`.5XgXHXGX  IXGXAXjXkXAXGX  KXJXCXyX4X`.W.t.q.t.y.8.[.                            ",
"                                                  R.4.1.r.).`.4XgXAXGXGXIXGXAXhXjXjXkXSXGXGXPXKXBXtX].`.W.t.t.8.i.6X                            ",
"                                                  D.<.2.d.).].rXhXSXGXSXSXAXhXdX@XOXfXhXAXGXIXGXHXhX5X`.Q.t.y.2.E.FXKX                          ",
"                                                  3X[.r.d.Q.[.tXAXSXSXAXfXdXqXOXl.[ %XqXfXkXAXAXAXAX9X[.A.f.d.w.i.tXFXMXZX                      ",
"                                              KXFXMX6Xi.W.'.7XgXGXSXSXkX%X%XXXK.F P P.oX%X0XfXhXAXFXtX4X!.W.h.w.2.E.6X_.3X                      ",
"                                            KX  6X4XE.~.`.4XyXBXGXSXkXqXP.M.m.x.9 D P.v.v.oX0XdXBXGXhXtX4X(.W.p.8.u.~.F.3XPX                    ",
"                                          eXyXrXF.5.N.`.].rXCXFXGXGX8X}.j.j.j.[ y D j.3.3.k.^.qXhXGXFXhXtX#X!.f.q.0.p.E.tXKX                    ",
"                                          eX_.E.2.u.!.`.6XyXCXPXGXHX.X| ~ G D D y D D F F S U OXfXkXSXhXyX6X'.A.a.9.7./.tX                      ",
"                                            U.5.e.s.Q.'.4XrXMXBXFXsX_ g g a t t y y t - 8 4 A c.pXfXlXdX9X*X).Q.g.p.u.~.rX                      ",
"                                            6X#XB.a.g.Q.`.4X9XMXMX>X5 d 5 9 F U c.c.] D 9 4 4 D 8XdXdXqX#X'.Q.A.s.B.w.'.CX                      ",
"                                          uX6X4Xs.s.a.9.W.].7XgX3XE 9 H 4 F 4.v.N.$Xv.U D y * 5 J.tXtX7X'.~.g.g.s.a.7.E.tX                      ",
"                                          R.F.i.9.a.0.e.h.].9X8X&.* i 7 9 ] v.v.k.C.k.3.P y # 5 H  XrX6X`.h.p.a.a.9.W.~.F.BX                    ",
"                                          iXF.1.7.q.0.e.~.$X8X|.- r e t ( b.v.k.k.k.6.3.P L 7 % w W _.6X/.B.e.0.q.7.Q.[.W eX                    ",
"                                            rX5.r.9.a.0.B.[._.{ 5 u i y } L.v.k.j.k.3.U P K 9 % w w W 7X~.B.e.q.8.2.1.4.D.eX                    ",
"                                              E.1.p.0.t.s.!.F.A q d w E } ^.v.v.j.k.M.U P I 9 w ; j Q F.~.s.0.9.].E.5.3X3XNX                    ",
"                                            KXR.<.5.h.p.E.E.U 4 s u i E &.D.F P / P ] F L K 8 , @ 2 q 4.i.7.7.Q.CXyXuX                          ",
"                                              uX_.*X6X1.5XU.4 t n e n R $.Y % X 6 * % % 7 f u : : o q A 2.8.8.S.uX                              ",
"                                                JXJXJXW JXE * N e e N $.#.v X X . . X . # a c k k & q A S 1.5.Z.>X                              ",
"                                                      >X  0 a n n e %.=XT.R j j h h : & e n n n n z 8 4 A 4.R.iXmX                              ",
"                                                VXFXVXDXbX%.C @.@.C > c x x x x Z x x B x c l x l l +.@.V #.2XDX                                ",
"                                          NXAXNX|.|.T.;.-.z C @.@.C l l Z @.+.B B B x B +.+.C B c c @.+.R c #.T.aXDXLX                          ",
"                                    FXNXAX|.>X X*._ m i b C z z x @.@.z V :.:.+.B B B V -.=X@.c O.+.V l b M M b =.T.,X                          ",
"                              NXAXBX.X.X8XJ.G.G.&.` s s C N p = + x l = 1 +.@.x l l c C V %.l + c x 2 . 0 b R M M m R 2X                        ",
"                          NXBX|. X XJ.J.H.H. .' T d i m M b u + . . . . . . . + + + 2 c . . . . . . . . 0 v M M m m * R vX                      ",
"                      NXNXY. XG.G.z.H.x.z.[ ^ D H y s M b l > O . . . . . . . . . . + 1 . . . . . . . . = p v R m i s # ,XbXLX                  ",
"                    vXY.Y...} b.z.x.x.n.K.l.] D y y m M , $ + O . . o . . . . . . . . + . . . . . . . . X $ - M m s i t ;.=.vX                  ",
"                    =.Y ( .. .x.x.K.I.+XXXK.z.K y d v M = . . @ . . . . . . . . . . . . . . . . . . . . O . O b v Y # t ` Y ,X                  ",
"                  vXm Y ( ' l.K.I.^.%X%XOXL.z.L 9 f a N C O.V p > > O . . . . . . . . . . . . . . + 2 1 Z +.R b s m * 6 J _ _ bX                ",
"                  ,.m f T }  .K.P.^.+X+XOXL.[ D 7 f 0 x %.2X1X-.V B 2 . . . . . . . . . . . . . > c +.%.;XcX;.p v s t 7 7 ` t ,X                ",
"                  b s y T .. .H.m.XXoXoXXXK.] 9 7 s , l O.<X1X,.C x > . . . . . . . . . . . . . + l V @.<X1X%.0 i f t 6 7 s Y _ VX              ",
"                  M i H ( ..z.n.m.P.XXXX}.G.J % i v z Z l O.V 2 + $ @ . . . . . . . . . . . . . . . + 2 B V c B v a u - 8 i R - aX              ",
"                vXs 8 J ' ..z.n.K.M.^.XX X&.6 # a z V V Z > O . . . X . . . . . . . . . . . . . . . . . . > c +.V x z > O , p , mX              ",
"                ;.0 y J ' ..z.n.m.M.^.XXJ.( # * b C V C B l > @ . o O O . . + @ . . . . . . . . @ @ @ . > c x B V ) C O . > o O bX              ",
"                ) 5 y K ' z.x.n.m.m.XX}.o.7 X i ) C B x c l > + O O O $ O + = @ . . . . @ + + O @ + + + 1 l p c C @.) e o # . O -X              ",
"                R 8 9 ' ' l.x.n.m.L.XXL.K # X m ) V V +.B C B x z c l c x z l 2 = + = 2 e z x c l c x x B B C V +.@.+.N - o o 8 ) ,XLX          ",
"              aXm y 9 ' ] l.z.n.H.L.L.z.5 X * v @.-.:.=X=X:X;X;X-X:X:X:X;X=X=X:.%.+.%.;.:.=X;X;X:X:X;X;X;X;X;X=X:.;.$.C a # O Y _ _ >XFX        ",
"              =.d H K [ l.l.n.H.H.H.G.L 5 * t a #.:X<X<XcXcXnXDXnXcXcXcXeX<X;X;X:.%.-.=X;X<X1XcXcXmXnXnXnXmXcX1X2X<X-.v u m # f &.| Y -XLX      ",
"              ) d K ' z.x.n.K.L.H.G.} 4 t i a - z %.%.-.:.{.,X2X;X=X=X;.%.+.B B x l c B C V @.-.:.=X;X<X;X&X:.-.;.;.) - - M 6 6 ` &.` d VX      ",
"              #.H ' [ z.n.n.L.H.G...H % d s a o . + + > < l +.%.@.V x 1 . . . . . . . . . . @ , x V @.%.+.Z 1 > > , O . , s i 6 y ` &.t -XDX    ",
"              _ H I ] ] l.l.H.b...{ 5 8 s s u O . . . . . + , p p 1 $ . . . . . O . . . . . . . + > 1 c h > . . . . . . - s s 6 6 J ` ` ) bX    ",
"              { J I / ] l.l.z.} ' H 5 t i a u = @ + + @ @ @ O O + + + + . . . + + + + = + . . . @ + + + + @ @ + + + o o , a i 8 * t Y ` M -X    ",
"            sX| {  .] z.x.z.} ' ( 8 0 u u u , , 2 > > < 2 > = + + > 2 2 + + = > > > > 2 = + + = > = = = + $ > < 1 2 > > , u 0 * 8 i d s v C nX  ",
"          sX*.{ G.H.n.L.n. .' ( Y 5 a a u , , 1 1 < > < 2 > > > > > > > 2 > 2 2 > > > 2 > = + > > > > > 2 2 2 < 2 < 2 1 1 p , - # 8 0 0 a e nX  ",
"        PXY.( { G.G.H.H.z.} T T s O , , e , 2 2 2 > 3 > > > > 2 2 > > > > 2 , , > > > > 1 > > > > > > > 2 > > > > 3 > < 1 1 0 , # O - a a O nX  ",
"        PX{ ' ' }  .l.] ] I J J 8 . & > , > = > > < > > 2 > > 2 2 > > < > 2 , 2 > 2 2 2 1 > > > > > > > > > > 2 2 > > < < > 1 p , # # , - ,.DX  ",
"        eX{ }  .z. .] ' I L H f * # & > - > > = > < < > < = = > 2 > > < > , 1 2 > 2 , , 1 > = > > > = > > > > 2 < < < < < > < 1 1 1 > = # aX    ",
"      eX*.]  .z.z.[ ] ' ( J d f # $ > > > > > > > 2 > > > > > > 2 > > > > 1 1 2 2 1 1 2 1 2 > > > > > > > > > > 2 < > < > > > > < 1 1 = @ nX    ",
"    aX*.' ] ] W I I I K J f a a O O 2 ; > > > > > > > > > > > > > > > > + 1 1 2 2 1 1 > 1 2 > > 2 2 2 > > > > > > > > > > > > > 2 2 > + %.      ",
"    =.( ' ' ^ K K L K J f a a - o + 2 $ > > > > > > > > > > > > > > > > + 2 1 > < 1 1 > 1 2 > > > 2 2 > > > > > > > > > > > > > > > + . xX      ",
"    *.J X.| | | X.( ~ J ! g g o o & : & > > > > > > > > > > > > > > > > + < 1 > 2 1 1 > 1 2 > > > 2 > > > > > > > > > > > > > > > > O . mX      ",
"PXeX..' *.G.G.G...X.' ( ` f m . . = > > > > > > > > > > > > > > > > > > > 1 1 > 2 1 1 > 1 1 2 > > > > > > > > > > > > > > > > > > > + . mX      ",
"eX*.} b.G.G. .} I I K K J H d X X - 2 2 > > > > > > > > > > > > > > > > > 1 1 > 2 1 1 > 1 1 2 > > > > > > > > > > > > > > > > > > > + . :.      ",
"*.' G.b. .' ^ I G L L K K Y 8 X X > > > > > > > > > > > > > > > > > > > > 1 2 > 2 1 1 > 1 1 2 > > > > 2 > > > > > > > > > > > > > > + . > nX    ",
"*.' l.[ ~ G G ^ / ] ' ' ' ( * . o > : 3 > > > > > > > > > > > > > > > > 2 1 1 > 2 l 1 > 1 2 2 > > > > 2 > > > > > > > > 2 2 > > 2 > + . . nX    ",
"J.X.] P G ^ / l.l.n.n.G.G.{ % . + < < : > > > > > > > > > > > > > > > 2 1 1 1 2 1 l 1 > 1 1 2 2 > > > 2 > > > > > > > > > 2 > > > 2 $ . . |.    ",
"Y.K ^ P / x.m.L.P.I.I.U.J.T % X $ < 3 < > > > > > > > > > > 2 2 > > 2 < 1 1 2 > 1 0 1 > 1 1 1 2 2 > 2 2 > > > > > > > > > 2 2 > > 2 > . X a ,X,X",
"Y.H K [ L.I.OXOX+X@XOXR.R.T % X ; 2 ; < > > > > > > > > > 2 2 2 2 2 2 2 2 1 2 2 1 l 0 2 1 1 1 2 2 2 2 2 > > > > > > > > > 2 2 > > 2 > @ . a $.) ",
">.H | J.@X@X@X+X@X@X@XOXR.K % % ; 0 h ; $ > > > > > > > > > > > 2 2 2 > > 2 2 2 1 l 1 1 2 2 > > 2 2 > > > > > > > > > > > > > $ > 2 > @ X 8 $.$."
};
