/* XPM */
static char *out[] = {
/* columns rows colors chars-per-pixel */
"33 46 29 1 ",
"  c None",
". c #170F07",
"X c #2F1B0B",
"o c #31302D",
"O c #430000",
"+ c #4F0000",
"@ c #530707",
"# c #5F0707",
"$ c #670B0B",
"% c #7F0000",
"& c #731313",
"* c #6F6F6F",
"= c #831F1E",
"- c #A40000",
"; c #B90000",
": c #8B2322",
"> c #9B3333",
", c #A53C3C",
"< c #D20000",
"1 c #F90808",
"2 c #AF4747",
"3 c #B37347",
"4 c #C05B5B",
"5 c #D68A5A",
"6 c #E79A6A",
"7 c gray51",
"8 c #B6B6B6",
"9 c #F7AAAA",
"0 c #FFC29F",
/* pixels */
"              >0225              ",
"             ,,>55&,             ",
"            $%&,,&,%&            ",
"         7  $8$$$&&$$8           ",
"     $   - @:13&%$$&:1&  *       ",
"     $:521&:4233=:%:292&$%  *7   ",
"    $0:::%$%3>32,,%:>2%@#>4<-    ",
"    $=&:&&%26>2&%=%:5:,%$32;     ",
"   &56:=&@=:5:&%#&$,3:&%&%2,+    ",
"  =5,:2&$%$=:2%$+@#=,%%&#&=$O   *",
"  :63:&%&%$&==&@+#$%%=&$%%&O+&*< ",
" %&,2&%$+,%&$&#OO#&$$&=:&&+.&>:* ",
" ,3=&$#@ :,%&#O+&#$$&%3:=@O.#:,$ ",
" 363@X   =32%#++%#%&&,,%$OOO+#&@ ",
"&&,>#+    %:,&@+=#%&%%%&+ OOO+@# ",
"@&,,O&    $=&=&@&$%%&=$@   .OOX18",
"-1,+X@     &&%%&$%%::,$O   XOO..O",
"+=%XOO     O,::,=&2:3:%@+##O+O.. ",
"+@#X.+     O%2,&%32::&%#+O+XOOO  ",
" .O+.O    +#,>3%%:%&:,=#+O.O.    ",
" .O..     +&:5:%@=&%&%$#+        ",
"  .OO    O+$%&%&@O@@$$##O        ",
"  .OO    @+###@@+++##@@#O        ",
"   X+.   $+OO+OO+O+O++OO+        ",
"   ++OO  $+X++XX..O.+X+++        ",
"   +OOO  $OXOOOO.X.OOOOOO        ",
"    .O   #O+..OOO XOO.OX+        ",
"         #OO+X.OO +.OOO++        ",
"         OO#++XXX +OOO.+O        ",
"         OX@$$#++ +OOOO++        ",
"         +X#==#OX X.OOO+         ",
"          +@%%@++ +OO..+         ",
"          X@%&&++ XO..+          ",
"          +$&@$+O OO.++          ",
"          +%&#=O  OX+X           ",
"          +,33&@  OO##$          ",
"          #:,6:%# .#%,&          ",
"          @,:=3%# O@$%&          ",
"          O$%#%$@ .+@#&          ",
"          +@$##O  .++@&          ",
"           O#+@+  .X+#           ",
"           X#$++  .+X#           ",
"           X=%@X  .++@           ",
"           #=,=@  O+++           ",
"           #&&&$  Oo.O           ",
"           +O++O                 "
};
