/* XPM */
static char *out[] = {
/* columns rows colors chars-per-pixel */
"35 49 32 1 ",
"  c None",
". c #170F07",
"X c #2F1B0B",
"o c #430000",
"O c #4F0000",
"+ c #530707",
"@ c #5F0707",
"# c #670B0B",
"$ c #7F0000",
"% c #731313",
"& c gray33",
"* c #6F6F6F",
"= c #831F1E",
"- c #A40000",
"; c #B90000",
": c #8B2322",
"> c #9B3333",
", c #A53C3C",
"< c #D20000",
"1 c #E30000",
"2 c #F90808",
"3 c #AF4747",
"4 c #B37347",
"5 c #C05B5B",
"6 c #D68A5A",
"7 c #E79A6A",
"8 c gray51",
"9 c gray61",
"0 c #B6B6B6",
"q c #F7AAAA",
"w c #FFC29F",
"e c #D7D6D6",
/* pixels */
"              +=,7:%               ",
"             @+%>>6%$              ",
"             O%,::4,=              ",
"             o%=%%=#@              ",
"             o++#%#+O              ",
"    08       oe+@@+Ooe             ",
"     81    #%62,%@O@%2:$     e8    ",
"      81$%%4wq3>4=:=4q56%:6,29     ",
"      =5w==$:67::%%$:,>,=34>8      ",
"     $6,>:%+=%:3,$=$:6:$#%::%      ",
"99  #,:::$+$:6:%$+%#,:4%##=,$%     ",
" 9-oO@%$$+@#$::=#o+@=33$%@@#$:, *  ",
"  ;-%%#+O@#=%$=#@O@@$,=#=%+@,%&<   ",
"  $%%$#@O@=,$##@+@@%%%#,:#oo%,:8%  ",
" &@#$%OOO $:,#@+O$+=@#,:%@Ooo%,=@  ",
" @OOOOOO  $%:$@+o=@$##,%#  OoO@##@ ",
" e2+OXo    $,$#@o#@$%=$#+   OOo#$% ",
" O=#oX     #=%,$@@$=$:$@O    OO@#=@",
" X@+oX      #4,:$3,3:7%@O    OOO+2e",
" XO@OO      %%:,$::3%:%%@    @OXOO ",
" OO+OO     +#:,4$$3=473=+  XOOOXX  ",
"  X@Oo     @%:6:$+=%,:%#+  ooO.O   ",
"  OOo.    Xo#$,$%OO@@%%++  oXoO    ",
"  .OOoX   XO@#=#@OOOOoooo   oo     ",
"   OoooX  OXO@#@oOooOOOXOO         ",
"   OOooX  OOXOoOOOoOOOXooO         ",
"    .ooO  o.XOOOX.o.ooo.oX         ",
"     oo   @...o.o. oo..ooo         ",
"          +.ooo.oo o.oo.oo         ",
"          +.OOOXo. o.o...o         ",
"          @XO@oXoO o.ooooo         ",
"          oO@#@X.  .o.OOoX         ",
"          OO+#@Oo  ...OX.          ",
"           o@=@Oo  .oOOXX          ",
"           O#%%O.  OOOoOO          ",
"           +=%$oO  o@@@o           ",
"           @$==O   #$$%@           ",
"           %,:%o  %=%4%#           ",
"           =:%3@  $3$%3%           ",
"          %#,#%+o =$%$%$           ",
"          ###@#@o $#@%=%           ",
"          O@+O@OO #,3%@            ",
"           oOOoo  =:4:o            ",
"           OOOXO  =#$%o            ",
"            O@OO  @+OOO            ",
"            O#oO  OOOXo            ",
"            @#@X  @XOo+            ",
"            #,#o   @+@             ",
"            #3%@                   "
};
