/* XPM */
static char *out[] = {
/* columns rows colors chars-per-pixel */
"33 46 30 1 ",
"  c None",
". c #170F07",
"X c #2F1B0B",
"o c #31302D",
"O c #430000",
"+ c #4F0000",
"@ c #530707",
"# c #5F0707",
"$ c #670B0B",
"% c #7F0000",
"& c #731313",
"* c gray33",
"= c #831F1E",
"- c #A40000",
"; c #B90000",
": c #8B2322",
"> c #9B3333",
", c #A53C3C",
"< c #E30000",
"1 c #F90808",
"2 c #AF4747",
"3 c #B37347",
"4 c #C05B5B",
"5 c #D68A5A",
"6 c #E79A6A",
"7 c gray51",
"8 c gray61",
"9 c #B6B6B6",
"0 c #F7AAAA",
"q c #FFC29F",
/* pixels */
"              5222>              ",
"             &,>>>,&             ",
"            $=&&&&&=&            ",
"           9&&&$$&$9&  7         ",
"       *  &1:,$$%,:1:# <         ",
"   77  =&,:02:=:%3:q0:&22>       ",
"    --45@#%:53=&=::>3=&=::3&     ",
"     ;23$%&:>:%%$&:>,:=&&:,%& 9  ",
"     &:%&=,3:,$&@%&:>3%#$%:,-<*  ",
"    O&=$#$%=,=#@+$=::%$%&&::1-,  ",
" 8$#XO$%%$&%%%$@+@&==$$%$%&:363  ",
"  &&+.+&,:=$$$&#++#$$$%&O$=&:&&% ",
" &&$XO.#=2:=&&&#$XO@&%,: @#$&%:& ",
" $OO+OOO&=&&&$%#=+O#=::%   +#3,3 ",
" ++XOOO O$==%$%@=O#$&:%    +#>,&$",
"91O.O.   #$=&%=&$#$=,=&    $O,&&@",
"O.OOOO   +$&2:%%$&%%&$     @++,1-",
" O..OOoo+#%::3:&%&3:,+     +O+=%+",
"  .OO.OO+#%,222:%,&:%+     XOX#@X",
"    .OOO+@=&:&%2%%:>,@+    .O+OO ",
"        O#$=,%$=#%2>:$O     OO.O ",
"        O@@$&#@+#$=,=&++    OOO  ",
"        +@#@@#+X+@@@##X#    OOO  ",
"        O++++O+OX+O+++X$   O+X   ",
"        O++XXO.OOX+X+++&  .O++   ",
"        O.O..OO+...OOX+&  OOO+   ",
"        O.OOOO+ OOOOO+O#   OO    ",
"        +O.O.OX .+X++++#         ",
"        O.OOO.X X+OOO@++         ",
"        O.O...+ ++#&&#X+         ",
"         OO...+ ++@=%@++         ",
"         ...OO+ ++@=&@X          ",
"          +OO.+ ++&$,#+          ",
"          ++..O +O$#:$O          ",
"           +O+.  o%#:%+          ",
"          $##+OO #,33&+          ",
"          $&=#OO#%:663#          ",
"          &=&#OO@%3%:&#          ",
"          &##OO.@$%@%$O          ",
"          $#O+.. O##$@X          ",
"           #++O  X#O#+           ",
"           #X+O  +O$@+           ",
"           #+XO  X#%%X           ",
"           OXXO  #=&=#           ",
"           +.o.  &,&&@           ",
"                 ++O+O           "
};
