/* XPM */
static char *out[] = {
/* columns rows colors chars-per-pixel */
"34 49 30 1 ",
"  c None",
". c #170F07",
"X c #2F1B0B",
"o c #430000",
"O c #4F0000",
"+ c #530707",
"@ c #5F0707",
"# c #670B0B",
"$ c #7F0000",
"% c #731313",
"& c gray33",
"* c #831F1E",
"= c #A40000",
"- c #B90000",
"; c #8B2322",
": c #9B3333",
"> c #A53C3C",
", c #E30000",
"< c #F90808",
"1 c #AF4747",
"2 c #B37347",
"3 c #C05B5B",
"4 c #D68A5A",
"5 c #E79A6A",
"6 c gray51",
"7 c gray61",
"8 c #B6B6B6",
"9 c #F7AAAA",
"0 c #FFC29F",
"q c #D7D6D6",
/* pixels */
"               %;>5*@             ",
"              *%4::%@+            ",
"              *>;;2>#O            ",
"              +#$>>*#o            ",
"              O+###@@O            ",
"            8 OO@+@@oq       68   ",
"    6=     $<;%@O+%>1<%%    =6    ",
"     -<>42%:33;$;$;:031;%%$,=     ",
"      6:21*%4>2$>%;25:2*$*19*     ",
"      %;;%%$;41$$$%;;>$@#;4>4$    ",
"     %$>$%#>;;>%%@*>2:2$@$;;;%#  7",
"  7 %1*#@+#*1;*++O%*;1*%@+*$#@o =7",
"   7&>%@+#$%*>*@@O+%*$#*#@o@#%#=O ",
"  %62%#Oo#;%#%#%@@@@%#$%$@o@#$>>$ ",
"  @*>#ooO@>;>#@$@$O+@#%2* OOo#*#+&",
" +%%@oOO  %%>##*@$o++$2%*  OOOoXO+",
" %$%ooO   +%*$#$+%o+#*%$    OOO+<8",
"8<%@XO    O@*1$$$++$>>*%     Oo#*O",
"@@@oXO    O@>511>1*;>;%      OO++O",
" OOXO@    @#%1>;;1$%1%%      Oo@oX",
"  OXXOXO  @*152$;**25;#@     OO@oO",
"   O.Oo.  +#>;>#$@$;4;#+     oO@O ",
"    OoO.  ++%%+@oo#$%*%OO    oOoX ",
"     oo   oOoOoOXO+%*#@oX   OoXOo ",
"         oOOOXOo.XO+#@OXO  X.ooX  ",
"         Xo.OOOOoOXooOOOo  Xo.XO  ",
"         O.oo.o..oOXXOO.O  Oo.o   ",
"         o...ooo .o...oo+   .o    ",
"         ooo.... ..o.o.o+         ",
"         ...ooo. ooXOOX.+         ",
"         .o..oo. XoXO@oX+         ",
"         OoXX..o  .O@%@XO         ",
"          oOX.o.  .O@%@oO         ",
"          XOOOoo  oO@*@O          ",
"          oOoOXO  .X#>#o          ",
"           o@@@O  XO$>*+          ",
"           @#$*#   O$$*+          ",
"           #>;%$#  o%1%#          ",
"           #;>$1$  +;%;$          ",
"           *>$#$$ O@>#%%#         ",
"           %*#@#* O@%@###         ",
"            @%;%% OO@o+@O         ",
"            o;2;$  OoXoo          ",
"            o#*#$  XOOOO          ",
"            OoO@@  Xo+X           ",
"            OXOOX  Oo%O           ",
"            +OXO@  O@%@           ",
"             +@+   O#%%           ",
"                   @#;%           "
};
