/* XPM */
static char *out[] = {
/* columns rows colors chars-per-pixel */
"62 25 222 2 ",
"   c None",
".  c #030202",
"X  c #0B0201",
"o  c #060A01",
"O  c #0A0A05",
"+  c #09040A",
"@  c #0B0B09",
"#  c #06030A",
"$  c #120100",
"%  c #150B00",
"&  c #180A05",
"*  c #0C110B",
"=  c #0F1007",
"-  c #1C1301",
";  c #11120D",
":  c #1A1608",
">  c #0C0D12",
",  c #0B0718",
"<  c #150516",
"1  c #151413",
"2  c #1A1B16",
"3  c #16131C",
"4  c #1C1C1B",
"5  c #161914",
"6  c #0E1414",
"7  c #270D00",
"8  c #2C1400",
"9  c #241900",
"0  c #261907",
"q  c #331805",
"w  c #230B15",
"e  c #221B16",
"r  c #331A17",
"t  c #19200F",
"y  c #1D211A",
"u  c #33220C",
"i  c #382A0A",
"p  c #22231E",
"a  c #242A1E",
"s  c #2A2417",
"d  c #362A17",
"f  c #3E341E",
"g  c #363218",
"h  c #39300A",
"j  c #161725",
"k  c #1C0B22",
"l  c #261A25",
"z  c #232423",
"x  c #2A2B25",
"c  c #2C2C2B",
"v  c #282425",
"b  c #312C25",
"n  c #342B2B",
"m  c #2E3128",
"M  c #32322D",
"N  c #383628",
"B  c #282A37",
"V  c #342D37",
"C  c #333333",
"Z  c #3A3534",
"A  c #353932",
"S  c #3A3A34",
"D  c #34343C",
"F  c #3B3B39",
"G  c #32393C",
"H  c #2B3035",
"J  c #46290A",
"K  c #463B0C",
"L  c #593808",
"P  c #493213",
"I  c #493818",
"U  c #583819",
"Y  c #47291B",
"T  c #673808",
"R  c #623F19",
"E  c #4B3C26",
"W  c #4C3523",
"Q  c #523B23",
"!  c #56382C",
"~  c #413D34",
"^  c #54393C",
"/  c #492A2A",
"(  c #653E2C",
")  c #3F4039",
"_  c #5B4202",
"`  c #5F451E",
"'  c #65480B",
"]  c #73430F",
"[  c #6A461C",
"{  c #774716",
"}  c #715A14",
"|  c #5C4625",
" . c #41423D",
".. c #494A37",
"X. c #534839",
"o. c #5D522D",
"O. c #6C4F21",
"+. c #694A2B",
"@. c #674525",
"#. c #675C2A",
"$. c #7B542D",
"%. c #725529",
"&. c #634837",
"*. c #724932",
"=. c #755835",
"-. c #6C502D",
";. c #796426",
":. c #776539",
">. c #3C3A41",
",. c #2A2745",
"<. c #443F45",
"1. c #513E4C",
"2. c #3E4140",
"3. c #454543",
"4. c #4C4C4C",
"5. c #4B4747",
"6. c #594B44",
"7. c #5A4242",
"8. c #51524D",
"9. c #545652",
"0. c #5A5B54",
"q. c #5E5C5C",
"w. c #59585A",
"e. c #4E4A53",
"r. c #6F4F43",
"t. c #685A4C",
"y. c #685552",
"u. c #5F6059",
"i. c #6B6458",
"p. c #5E5C64",
"a. c #585661",
"s. c #615F62",
"d. c #696968",
"f. c #7D7B78",
"g. c #74716E",
"h. c #935618",
"j. c #864708",
"k. c #80651D",
"l. c #804F21",
"z. c #915923",
"x. c #855B2E",
"c. c #886729",
"v. c #8A702B",
"b. c #90732A",
"n. c #846534",
"m. c #896734",
"M. c #916D37",
"N. c #A37E3E",
"B. c #C47C34",
"V. c #837746",
"C. c #957E56",
"Z. c #85644C",
"A. c #877B77",
"S. c #907F73",
"D. c #87796C",
"F. c #7F807B",
"G. c #A18A2E",
"H. c #A88935",
"J. c #B39539",
"K. c #958A50",
"L. c #A6875B",
"P. c #BE9A53",
"I. c #B2934C",
"U. c #B5A155",
"Y. c #83857E",
"T. c #998A7C",
"R. c #988C6B",
"E. c #A7906D",
"W. c #B9A968",
"Q. c #D49B5A",
"!. c #C1A54B",
"~. c #C5AA55",
"^. c #C89D64",
"/. c #7E7C83",
"(. c #837789",
"). c #8B8B85",
"_. c #8C8C89",
"`. c #888584",
"'. c #908A88",
"]. c #989185",
"[. c #969693",
"{. c #9A9B95",
"}. c #9C9C9A",
"|. c #959891",
" X c #968E95",
".X c #A99C87",
"XX c #A89C9E",
"oX c #B19C84",
"OX c #9EA19C",
"+X c #B6A28B",
"@X c #A2A39E",
"#X c #ACA198",
"$X c #B5A696",
"%X c #9E9BA0",
"&X c #A5A5A3",
"*X c #AAAAA5",
"=X c #ACACAC",
"-X c #A9A5A8",
";X c #B1ADA8",
":X c #B2B2AE",
">X c #B3B3B2",
",X c #B9BAB4",
"<X c #BBBBBA",
"1X c #B6B5BB",
"2X c #B5AEB7",
"3X c #C2A99B",
"4X c #C1B8AE",
"5X c #BFC8BB",
"6X c #C3C3BD",
"7X c #D4C3B2",
"8X c #EDD2BB",
"9X c #BFBAD0",
"0X c #C2B7C4",
"qX c #BCC3C2",
"wX c #CBCBC9",
"eX c #C7C6CA",
"rX c #D0D0CE",
"tX c #D6D5D4",
"yX c #CCCACF",
"uX c #E1C8C1",
"iX c #FEE3C5",
"pX c #F2EEE5",
/* pixels */
"                                              ,X*X,X1X1X=X}.                                                                ",
"                                        6X*X*X8.F 8.5.3.F c }.&X                                                            ",
"                                    <X@Xq.) ) 2 2 4 5 2 1 4 z D -X                                                          ",
"                        6X,X*X;X}.|.9.A y p = o 1 O O ; O ; + 4 v -X                                                        ",
"                  yX;X;Xg... .S m m y t 6 6 * ; @ < & ; O O * > 3 3.                                                        ",
"            eX2X-Xg.1.n A p s e p y 6 * z 2.F._.f.`.'.Y.Y.Y.A.4 4 c                                                         ",
"        yX-Xp.5.V v z + 4 z z 2 x 4 * * G u.:X                H 1 4                                                         ",
"      qXw.Z b ; X . @ 4 H j 4 j A @ . @ H 2.p.-X              F z p                                                         ",
"    5X4.p : : % : X o p G B , B D # . . v V e.a.1X1X>X        3.2 x                                                         ",
"    /.4 w $ i.| i % X 1 B ,., G V + + . N 6.a.s.g.w.w.        3.5 c                                                         ",
"  9Xe.k < w 8X3XT.Y.A.l j ,., a.3.. X X X.t.a.e.4.2.H          .2 p                                                         ",
"  (.k w r Y 8XiXiX8X7X7.X V j D F . . o h i Z >.z C y         3.p 5 }.>X  XX:X  |.>X  |.<X  &X@X}.&XOXOX}.-X}.}.-X[.wX      ",
"0X1.r 1.! ( E.L.L.C.=.| % s F z v X $ &.#.K N 3 a ) a Y.{.*X|.F 1 O S 3._.c S _.2 9.Y.x 8._.C M z M c c c F z S C x s.|.wX  ",
"D.r &.Z.x.m.M.v.v.b.c.;.%.h N M r X 7 K.W.:.6.# a a t o y m 2 5 . o e * 4 * O 1 O p O 2 1 5 1 1 @ @ @ 1 @ 5 @ 4 * 4 z M d.tX",
"R.| :.M.N.N.H.H.H.G.G.G.!._ g x e $ 7 +.U.;.6.# o o o o . . O . . O . . o . o . o . @ o . . . o . . . . . . o . o + O z M XX",
"T.+.:.m.M.m.z.T _ ' b.b.!._ N b $ $ q O.~.} ^ + . o . O . . o . . . . . . . . . . . + . o . . + . . . . . . . . # @ . 4 p }.",
"T.W -.$.@.n.L 7 8 J n.c.I.' f b $ q Q x.!.} X.< . o . . X . . . . . . . . . . # . . @ . . . . @ O . . . . . . . . + . 4 x &X",
"T.I +.%.[ n.P J U J %.x.^.L d n $ &.*.M.!.;.^ < . O o . # # . . # . . . # . . > . . @ . . # . o . . . . . . . . o . o 4 c *X",
"D.u ` [ R @.U ! &.! +.$.^.L d n $ r.*.m.I.b./ < . O . . # # . # . + . . . . . . @ # . # . . . . . . O . . . . . # . 1 5 s.rX",
"f.- E I J @.U ( ( $.h.T Q.T J b & Q $.m.I.n.W X X . o . @ . . . . y @ 4 @ * @ . @ . @ . o @ . . . . . . . . . @ . @ z z OX  ",
"9X) b s u P R R j.z.h.j.B.z.Y n u 9 K K.E.v.I 9 N e m y ; t o 2 2 N m ..2 x M o y * x = N 2 1 @ # 1 4 1 1 4 6 c c H M d.tX  ",
"  ,X].X.0 8 J L @.{ ] h.j.x.y.n d 9 9 #.K.t.g 9 d 2 S F M A x 0.). .9.*XN u.}.a u.).S u.{.M 4.Z C 3.5.D Z 4.C 4.4.g.}.eX    ",
"      4X].W q Q U ( R O.U *.y.n & d $ - o.o.f d & v c OX@XOX@X5X  @X>X  }.6X  &X5X  {.wXpX@X<X=X-X>X:X-X-X>X&X=X&XwX        ",
"          $X.X$X.X+X+X+XoX+XXX X~ N - 9 T.+X@X@X X-X%X                                                                      ",
"                                :X@X].].pX                                                                                  "
};
