/* XPM */
static char *out[] = {
/* columns rows colors chars-per-pixel */
"152 88 256 2 ",
"   c None",
".  c #020202",
"X  c #0A0302",
"o  c #040A03",
"O  c #0B0A04",
"+  c #03040A",
"@  c #09050B",
"#  c #030A0C",
"$  c #0B0B0B",
"%  c #130100",
"&  c #1A0000",
"*  c #120C03",
"=  c #1C0D01",
"-  c #110E0C",
";  c #180E09",
":  c #0A1106",
">  c #14120D",
",  c #19160B",
"<  c #060713",
"1  c #0B1317",
"2  c #141313",
"3  c #1A1614",
"4  c #1A1A14",
"5  c #131B1C",
"6  c #1C1B1B",
"7  c #161817",
"8  c #120B12",
"9  c #250900",
"0  c #281706",
"q  c #351907",
"w  c #231E1B",
"e  c #231A15",
"r  c #371D11",
"t  c #1E201B",
"y  c #38230B",
"u  c #24221C",
"i  c #2A241C",
"p  c #282618",
"a  c #3A2715",
"s  c #302B15",
"d  c #1B1E21",
"f  c #1D2425",
"g  c #242323",
"h  c #2A2624",
"j  c #2C2A25",
"k  c #2C2C2B",
"l  c #252929",
"z  c #312F2C",
"x  c #352B25",
"c  c #34332B",
"v  c #39372B",
"b  c #343434",
"n  c #3C3B33",
"m  c #3C3B3A",
"M  c #383638",
"N  c #2C3435",
"B  c #2A1F20",
"V  c #46270C",
"C  c #472B16",
"Z  c #49341A",
"A  c #58371B",
"S  c #53300E",
"D  c #643D1C",
"F  c #67360F",
"G  c #483826",
"H  c #533C23",
"J  c #593A24",
"K  c #433D36",
"L  c #633E23",
"P  c #713E2F",
"I  c #401F05",
"U  c #3E423C",
"Y  c #5B431D",
"T  c #67431D",
"R  c #76461D",
"E  c #79581D",
"W  c #5A4329",
"Q  c #43423C",
"!  c #484638",
"~  c #594536",
"^  c #644324",
"/  c #6B4524",
"(  c #6C462B",
")  c #68482A",
"_  c #744D2B",
"`  c #764A26",
"'  c #7D512D",
"]  c #75512D",
"[  c #684B34",
"{  c #754D32",
"}  c #6C523B",
"|  c #7D5433",
" . c #795638",
".. c #60572B",
"X. c #7D6436",
"o. c #373C42",
"O. c #3D4544",
"+. c #434242",
"@. c #4C4C4B",
"#. c #484846",
"$. c #524C49",
"%. c #57564A",
"&. c #535353",
"*. c #5B5B5B",
"=. c #565A55",
"-. c #4D5250",
";. c #765946",
":. c #635F58",
">. c #6B5850",
",. c #666458",
"<. c #786553",
"1. c #646463",
"2. c #6D6C6C",
"3. c #6A6866",
"4. c #716E6A",
"5. c #777767",
"6. c #747473",
"7. c #7C7C7C",
"8. c #797876",
"9. c #6D7172",
"0. c #5C5D60",
"q. c #834E27",
"w. c #84542D",
"e. c #89572C",
"r. c #835532",
"t. c #8B5532",
"y. c #855B34",
"u. c #8C5C34",
"i. c #895A3B",
"p. c #935D33",
"a. c #935B38",
"s. c #92592D",
"d. c #8A6339",
"f. c #93643C",
"g. c #9B653C",
"h. c #986436",
"j. c #997A33",
"k. c #A36A3D",
"l. c #AC6C3D",
"z. c #A5673A",
"x. c #AA743C",
"c. c #B6763A",
"v. c #B0702F",
"b. c #B4771C",
"n. c #875D44",
"m. c #8A6448",
"M. c #9D6B43",
"N. c #956747",
"B. c #987558",
"V. c #946F50",
"C. c #A36C43",
"Z. c #AA6C43",
"A. c #A66A4A",
"S. c #A9744A",
"D. c #B37344",
"F. c #BB7444",
"G. c #B3754B",
"H. c #BD7B4C",
"J. c #BA7849",
"K. c #A97A56",
"L. c #B97B54",
"P. c #BE6E45",
"I. c #837C79",
"U. c #917663",
"Y. c #AF7E64",
"T. c #C37C4B",
"R. c #C77B49",
"E. c #C67D52",
"W. c #C37133",
"Q. c #7E807B",
"!. c #AC882C",
"~. c #B9845B",
"^. c #B1864D",
"/. c #8C8579",
"(. c #AB8363",
"). c #B88765",
"_. c #B58F76",
"`. c #978254",
"'. c #C7824B",
"]. c #C48353",
"[. c #CC8353",
"{. c #C9885A",
"}. c #D58B5B",
"|. c #D68856",
" X c #DC925C",
".X c #D3915A",
"XX c #D08D4C",
"oX c #E1935C",
"OX c #E88345",
"+X c #C78A65",
"@X c #D58D63",
"#X c #CC9269",
"$X c #DA9262",
"%X c #D8966A",
"&X c #C99776",
"*X c #D59975",
"=X c #E59969",
"-X c #E69D72",
";X c #F19F6F",
":X c #D8A37A",
">X c #E9A276",
",X c #FAA977",
"<X c #F8A974",
"1X c #D8A755",
"2X c #CA972F",
"3X c #848483",
"4X c #8B8B8B",
"5X c #8C8984",
"6X c #95958C",
"7X c #939393",
"8X c #9B9A9A",
"9X c #999994",
"0X c #8E918B",
"qX c #A49A98",
"wX c #A99585",
"eX c #A7A49B",
"rX c #B9AC8F",
"tX c #A3A2A2",
"yX c #ABABAA",
"uX c #AAA9A3",
"iX c #B2ADAA",
"pX c #B5B3AA",
"aX c #B5B4B4",
"sX c #BCBCBB",
"dX c #B8B8B6",
"fX c #AEAFB0",
"gX c #A1A0A3",
"hX c #D3A88D",
"jX c #E7AB84",
"kX c #F9B588",
"lX c #EEB492",
"zX c #CDBBAC",
"xX c #E0B29A",
"cX c #BDC1BD",
"vX c #C5C2BC",
"bX c #D9C6B6",
"nX c #E9D2B9",
"mX c #F3D1BA",
"MX c #BFBFC1",
"NX c #BDC3C6",
"BX c #C4C3C3",
"VX c #CDCCCB",
"CX c #CBCAC6",
"ZX c #D5D4CC",
"AX c #D3D3D3",
"SX c #DAD9D7",
"DX c #D1D0CE",
"FX c #E7D4C6",
"GX c #FBDBC8",
"HX c #E9DFD7",
"JX c #FFE1CD",
"KX c #FBE4D7",
"LX c #E5E1DE",
"PX c #E5E4E4",
"IX c #FEF4E5",
"UX c #D9E0E4",
/* pixels */
"                                                                                                                                                                                                              SXUXSX                                                                                            ",
"                                                                                                                                                                                                            AXtXtX7XDX                                                                                          ",
"                                                                                                                                                                                                            7X6.3X3X4X                                                                                          ",
"                                                                                                                                                                                                            8.0.1.Q.6.AX                                                                                        ",
"                                                                                                                                                                                                            7.=.@.2.6.4X                                                                                        ",
"                                                                                                                                                                                                            2.+.b *.2.8.AX                                                                                      ",
"                                                                                                                                                                                                            *.g 2 #.1.6.4X                                                                                      ",
"                                                                                                                                                                                                            +.8 o b 0.3.6.BX                                                                                    ",
"                                                                                                                                                                                                            b @ @ 6 #.1.6.4X                                                                                    ",
"                                                                                                                                                                                                            6 o $ $ z =.7.8.VX                                                                                  ",
"                                                                                                                                                                                                            6 + $ # 6 +.4X7.4X                                                                                  ",
"                                                                                                                                                                                                            3 @ $ @ 8 z Q.3X7.BX                                                                                ",
"                                                                                                                                                                                                            6 o $ > o h 9.7.3X4X                                                                                ",
"                                                                                                                                                                                                            6 @ 8 $ $ 6 @.3X3X4X                                                                                ",
"                                                                                                                                                                                                            6 o $ @ > $ k 7.Q.gXDX                                                                              ",
"                                                                                                                                                                                                            8.8 O 1 o @ g 0.Q.7XtX                                                                              ",
"                                                                                                                                                                                                              6 @ $ . X d @.8.3XgXSX                                                                            ",
"                                                                                                                                                                                                              2 o o $ + 2 +.=.7XqXfX                                                                            ",
"                                                                                                                                                                                                              6 @ $ $ o + z +.BXaX7XDX                                                                          ",
"                                                                                                                                                                                                              6 @ - @ . . g M yX8X7.0X                                                                          ",
"                                                                                                                                                                                                              - . $ $ . . 2 h +.=.2.6.                                                                          ",
"                                                                                                                                                                                                              7.2 $ $ o . @ 7 b 6.7X3XBX                                                                        ",
"                                                                                                                                                                                                                7 # + X . + @ +.gXSXyX4X                                                                        ",
"                                                                                                                                                                                                                7 @ $ - o . . k 7.tX4X3X                                                                        ",
"                                                                                                                                                                                                                7 + $ 2 o . o 6 +.@.1.8.                                                                        ",
"                                                                                                                                                                                                                7 @ X 2 @ . O > l 7.gXQ.                                                                        ",
"                                                                                                                                                                                                                4X2 o $ $ . + @ g 8.gX7.BX                                                                      ",
"                                                                                                                                                                                                                  3 + $ $ . . . 7 b &.1.Q.                                                                      ",
"                                                                                                                                                                                                                  2 o - 8 o X . @ h 9.7.6.BX                                                                    ",
"                                                                                                                                                                                                                  3 + X # $ $ . + - 8.6.9.4X                                                                    ",
"                                                                                                                                                                                                                  7 $ 8 . 2 $ . + . m @.0.7.                                                                    ",
"                                                                                                                                                                                                                  4X$ - $ 2 @ . . $ g m &.7.                                                                    ",
"                                                                                                                                                                                                                    $ O $ + $ . . $ d m 1.6.MX                                                                  ",
"                                                                                                                                                                                                                    2 8 $ o - . . . 6 m 2.2.4X                                                                  ",
"                                                                                                                                          AX4X4X8X7X7X7X7X7X7X7X7X7X7X7X7X7X7X7X7X8X9X8X8X8X8X8X8X8X8X8X8X8X8X9X8X7Xg k g 7 2 . o . 2 k @.*.Q.                                                                  ",
"                                                                                                                        SX2.0X3X4X4X7X3X7X2.c b U M m M m m M m M m m m n m n n M +.Q +.+.Q +.Q +.+.+.+.+.+.+.+.O.m m M b h d 2 + . @ l b @.7.                                                                  ",
"                                                                                                      SX7.4X7.4X7.7.7.7.1.6 g g h w k d g h k b k k k k k k k k k k k j z k z h z b k k k j j k k l k k k k l k k k z g l l g g 2 . . d z &.6.VX                                                                ",
"                                                                                              7.7.7.4X3.$ h 3 g 6 6 7 2 2 6 6 6 1 - - - 2 $ 8 1 2 $ 8 2 2 $ - 8 - - > $ > > 2 @ > - - O $ X $ - O - $ - 8 $ # $ $ $ 8 $ @ - 7 h k 3 @ 2 g @.6.8X                                                                ",
"                                                                                        PX8.8.7 6 2 3 $ @ 2 $ $ 2 $ $ X @ # X o . . . . . . . . . . . . . . $ 8 > $ > 4 > O - - - O , 2 4 , 4 3 3 M 6 @ . . . . . . . . . . $ 6 k k 6 2 g +.*.6.yX                                                              ",
"                                                                                    8.6.1.O @ 2 2 $ o . + . + o + . . . . . . . . . . . . . . . . . . . . # 6 h g h w n x - - k , $ u , u u z > u +.k @ . . . + . . . . . . . $ 6 k b z #.1.*.#.#.7.7.8.6.6.9.6.9.6.3.8X  PX                                    ",
"                                                                                9.2.@ o o . o + . . . o . + . X . . . . . . . . . . . . . . . . . . . . . o 2 d z z 4 x c 4 > x O * u X * , u X > 6 7 X . . . . . . . . . . . . @ 6 k b *.2.0.-.M d d 6 6 3 2 7 2 2 6 k 7.1.9.2.8X  PX                          ",
"                                                                          PX2.6.. . . . @ . + X . . . . . . . + . . . . . . . . . . . . . . . . . . . . X + . $ u h u 4 4 j > > . i c o X - 4 X 4 6 $ . . . . . . . . . . . . . . @ 7 2 B z k k 6 6 3 6 6 6 7 6 3 2 h $ 2 8 2 2 m 7.3.yX                        ",
"                                                                    PXPX6.3.. . . . . @ o . . X . . . . . . . . o . . . . . . . . . . . . . . . . . . . . . $ $ X 4 z > 4 u o X X x c O . O 4 * w - # . . . . . . o . . . . . . . . . . . . . o + . X o @ o @ X o + O @ 8 $ 2 6 7 2 7 m 2.yX                    ",
"                                                                  6.3.1.O + . @ . . . o . . + . . o . . . . . . . . . . . . . . . . . . . . . . . . . . . . 6 6 $ 3 i , u O X * . > , o . * > * 4 @ o . . . . . . . . . . . . . . . . . + . . . . . . . . . . . . . . . . . # - o 8 6 6 2 m fX                  ",
"                                                                7.$ + . X . . + . . . . + . . . . o . . . # . . + + . . . . . . . . . . . . . . . . . . . . 7 u t p p p K , O U O O u , - O > * w k 6 @ . . . . . . . + . o . . . . . . . . . . . . . . . . . . . . . . . . . . . . $ 6 6 6 m aX                ",
"                                                              7.$ X X . + . . + + . + . . . . . . . o o . . # + + + + + + . + . . + . . . . . . . . . . o o , c j , p p G p * ! ; 4 x , > X 3 X w M w @ . . . . . . . o . @ . . . . . . . . . . . . . . . . . . . . . . . . . . . . . 8 2 l 8 m AX              ",
"                                                            Q.$ . X X . . . . . . . . . . . . . . . . o . o . + + . + + . . . . . . . . . . . . . . . . . . 4 U U , 4 * , e * j * j z O X X w @ > 6 $ . . . . . . . . . . . . X . . . . . . . . . . o . . . . . + . . . . . . . . . . $ X $ d o 4X              ",
"                                                          6.- @ . . . . . . . . . + . . . . . . . . . . . . . . . . . . . . . . . . . . . . . . . . . . . . , c v p p , O * o : . h h O O O 6 @ $ @ o . . . . . . . . . . . o + . . . . . . . . . . . . . . . . . . . . + o . . + o . . + . - X +.AX            ",
"                                                        4X@ . @ . . . . . . . . . . . . . . . . . . . X . X X X . X . . . . . . . . . . . . . . . . . . . . O 4 u , , , X . . . . - - X X X @ X + . . . . . . . . o . . @ @ + . o . . . . . . . . X . . o . . X . @ . . @ $ $ $ 2 $ . . . . . $ @ 4X            ",
"                                                      PX6 . . . . . . . . . . . . . . . . . . . . . . . X X X X X X X . . . o . . . + . . . . . . . . . . . . o o . . O X . g c x M M M M M m m m M m m m M M m m M M +.4 3 2 @ @ . . . . . . @ @ 7 $ 2 8 + o $ 7 2 2 2 2 7 2 2 7 - $ . . + . $ $ M CX          ",
"                                                      6.$ o @ o . . . . . . . . . . . . . . . . . . + @ @ X X * G b n n n U U U O.o.+.+.+.+.+.+.m +.Q Q Q Q Q Q O.m +.#.n K 0XiXiXdXaXaXaXdXsXdXdXdXsXsXdXdXsXsXdXdXdXaX7 2 6 - . . . . + $ 6 h M +.=.@.@.+.h 2 d B g g 6 6 6 7 2 2 7 $ o @ X + @ O gX          ",
"                                                    SXg @ O . @ . . . . . . . . . . . . . . . . . + + + 2 K K 1.pXpXpXzXzXcXcXcXsXMXMXMXMXMXMXMXBXsXNXsXsXcXvXcXzXsXCXBXsXsX                                            - o $ $ @ . . . o 8 g m =.7.8X7.3XMX7Xm m 6 l l g g h g 6 6 2 2 2 @ o @ . o 3X          ",
"                                                    6.2 o . . X . . . . . . . . + X . X . . . . + < 5 @.3.fXBXSX                                                                                                        # X 1 o > . . O o $ 6 b &.7.9X8.8X    aXyXb 6 h g l h l d g 6 6 7 @ o $ . . M DX        ",
"                                                    k . + . . . . . # # . . . . X X X % X X . + 1 O.9.NXAX                                                                                                              M O $ O $ . . @ # @ 7 k #.3.7.2.0X        tXb k h h d h 6 g w g 6 2 $ $ $ . . tX        ",
"                                                  AXh . . . + . . . o . . X X X % & 9 0 0 0 @ 0 4.BXUX                                                                                                                  dX2 . 1 1 $ . . . . 2 g o.*.0.1.4X          7X6 g 2 4 6 2 2 2 > 2 $ $ X O . . tX        ",
"                                                  6.$ . . . . . . . . X . X % 9 r L ;.n.;.} J ;.FX                                                                                                                        @ X 2 X $ . . . . $ 6 M #.=.0.7.          BX$ 2 $ @ $ + + X + . o + . . @ . 8X        ",
"                                                  M . . . . . . . . X = X 9 q ( n._.hXhX&X_.Y.&XJXKX                                                                                                                BXDXVX6 8 @ O @ . o . . X 2 b M &.*.3.aX        aX2 h 7 2 + - @ $ @ @ o . . . @ . 7X        ",
"                                                  M . . . . . . . . X 9 0 { f.&X*XkXkXkXkX:X+X+X:XxXJXIX                                                                                                          VX+.-.#.m h d 6 @ . @ + . o 2 b b @.@.$.3X        DXM 6 g 6 2 - $ 2 2 > @ . . . # . 7X        ",
"                                                  k . . . . . . . X 9 H  ._.*XkXkXkX;XkXkX<X}.R.E.Y.xXGXJX                                                                                                      VX&.. . + &.9X7.7 $ . o + . + - k b +.+.#.8.          uXm 1 O - o @ o @ @ . . . . @ . 8X        ",
"                                                  b . . . . . + X 0 ) B.&XjXlXkX,X,X,X,X,X,X,XoX$XE.+XjXxXJXKX                                                                                  SXCXVXBXBXMXBXdX=.. # . X @.BXBX@ k 2 X . . . + 6 g g k k @.MXdXsXBXBXNX7Xm $ . . . . . . . . . . O . 8X        ",
"                                                  b o . . o . % 9 { L.hXlXkXkX,X<X,X,X,X<X,X,X<X,X-X-XE.hXjXxXGXGXJX                                                            SXdXCXzXaXzXNXyX3.@.@.#.+.+.@.m - $ $ O . 6 7.PXk @.b d 8 . . o 2 t : 5 @ > U n Q #.+.#.6XgX$ $ o . . . . . . . . $ . 8X        ",
"                                                  n o o . X % q P +X-XkX,X-X>X;X;X=X;X=X=X;X;X=X;XkX;X=X=XE.=XkX>XjXmXmXJX                                          SXMXdXpXvXaX3.K &.O.n m +.m $ + + . . g l . - > 2 > # O N zX#.M o.f 6 @ . 2 t u : > : : : : : : - O 1.9X. 2 . . . . . . . . . # . 9X        ",
"                                                  3Xo . o % q n.Y.-X,X-X=X$X$X X X X=X=XoX=X=X=X;X;X-X-X;X;X=X=X@X*X:XhXxXJXGXIX                              SXfXaX2.K K M Q v u , u , u w 3 4 $ . . o . 3.6.$ . X - - X o - +.w - 8 8 2 X . > 4 , , , , 4 4 4 4 : t > c U . > . . . . . . . . . # . 8X        ",
"                                                  UXl . % q  .).jX-X=X@X@X$X}.}..XXX X$X X X$X$XE.$XE.@XE.E.E.-X-X*X%X&XhXxXhXxXGXnXKX                    SXaX6.M m 3 . - * > p v v ! c Q ! K n u 2 : . o 8X8XO - i i x h i B x h x h k v j u u : - u , 4 , 4 , 4 4 4 4 l 4 2 3 . . . . . . . . . # . 8X        ",
"                                                    z % 0 { ~.#X-X$X}.|.}.$X}.XX}.T.[.[.'.].H.H.L.P.G.E.G.E.J.P.@X#X#X*X#X&X_.+XhX_.xXbXHX              LX7.b 7 # . + X > i v ! ! ! ! ! U ! ! ! v p t : : 0X0X4 2./.6.I.I.I.I./.I.I.4.>.5.,.,.%.p X x e w e e e w w 3 2 j g g l . . . . . . . . . . . 8X        ",
"                                                    k e { S.@X XoX XE.[.|.}.[.[.[.'.H.R.].G.k.k.z.q.a.C.A.Z.A.s.C.L.+X~.G.k.G.L.~.)._.U.hX            SXI.6 + 1 + 5 , u Q %.~ %.=.%.,.,.,.=.,.,.,.=.=.! U 6X6XU pXiXiXeXiXuXqXqXwX5X8.<.5.5.,.%.i X w w x w e w B w 4 3 u l t k O . . . . . . . . # . gX        ",
"                                                    ~ L K.~..X.X|.E.E.|.}.}.[.'.'.'.F.^.{.K.s.e.w.P q.q.a.N.V.D D n.N.a.r.` k.S._.(.B.W /.    LXDXZXPXuX#.#.&.&.0.1.2.I.6XqX5X9X9XeXwXeXpXrXeXuXpXuXcXcXcXcXCXU 3.2.8.9.I.I.3.1.5.=.$.! U U v c 4 X , i B B e e w h u t t 4 - k 6 . . . . . . . . . . gX        ",
"                                                  FXV.N.L.{.[.'.R.R.E.[.[.|.'.R.F.D.z.^..XK.w.R D q.L D  . .B.V 9 A V P _ N.(.+X&X_.(.>.wXIX  CX9XiXvXiX8XaXMXdXNXzXBXBXZXCXZXZXvXZXZXZXZXSXSXZXZXZXCXcXcXcXSXU f l k M K #.m K n c v p u u 6 g 4 > @ u e e e 8 3 u 6 t t - : t t . . . . . . . . . . tX        ",
"                                                mXY.M.L.E.E.J.F.T.F.].[.[.[.'.T.F.l.z.x.~.~.d.T F T A V Y ..;.= Z <.>.U.wXrXxXzXbXbXbXvXZXHXUXAXMXCXZXZXAXSXSXAXAXVXVXBXMXsXsXBXcXcXiXyXuXtXqX6X4X5X6.$.U @.4XN 5 5 1 f f N l l l l l 6 7 6 5 d 6 2 . 3 8 8 ; 3 e 4 6 u 4 . o - 4 . . . . . . . . + o uX        ",
"                                              mX(.a.Z.L.E.P.l.Z.D.D.J.E.[.[.T.T.c.l.z.s.S.K.N.| S V Y Z = s U v 0XpXpXvXBXzXBXbXbXbXvXaXaXyXgXgXtXgXqX9X5X5X3X7.3X7.6.6.3.0.1.1.=.! #.+.m M b z B w 3 8 : # O.f 1 1 1 1 5 5 5 5 5 5 5 2 1 1 1 1 1 # 5 b B k 2 & * > t 4 O . . . $ . . . . . . . . . 7 sX        ",
"                                          IXmX(.p.Z.P.T.T.Z.z.a.M.C.D.H.].T.F.F.F.F.z.e.e.f.m.i.) s s 0 : ! %.Q.9X0X4X0X3X7.4X7.3.Q.3.-.#.O.o.O.b h j w w w g 6 g d d d 3 8 2 7 : < $ @ X @ $ $ @ ; @ @ 7 < l f # + # # # : # : O $ $ < < # # + # # N O.U *.c . O . o O . . . . . . . . . . . . . . k BX        ",
"                                          nXK.p.l.c.P.c.Z.z.M.N.a.g.Z.J.J.J.F.F.F.F.F.s.q.R T _ T Y y * ! /.,.=.O.O.N N l f l B 5 l 4 $ < 1 < < . . . X X X . . . . . + + < # < . # + + @ # 2 2 ; 8 3 8 8 d l 1 + # . . . o o . o . + + + + + + + + 5 f U 0X=.. o . . . . . . . . . . . . . . . . o b CX        ",
"                                        nXY.n.Z.D.F.x.z.h.h.a.n.i.a.C.Z.G.D.l.P.T.T.H.k.u.` F S S Y 0 * 5.5.G p 8 w @ @ - - 8 8 - ; O @ $ 8 + @ . . . X X . . . . + . . + . + @ + + # . . O - > 2 * 3 ; @ $ 7 . . o . . X X . X X X X X X X . . . # . l M 7XU o . . . . . . . . . . + + X + o X $ o g VX        ",
"                                      nXU.t.A.Z.G.x.z.h.s.y.t.a.i.a.g.C.Z.l.l.F.E.E.E.G.S.a./ S V s y 0 ;.Z s G C K K $.$.#.$.+.+.K K n Q Q b M k j e e * . . . . . . . . . . @ @ + + @ + # $ > - * X ; , o - O . . X . X % & & & & % X X X X . . + # g M -.l . . . . . . . . . . . X 2 7 2 2 7 5 $ - yX        ",
"                                    nXU.n.N.A.G.S.g.d.d.y.y.r.t.t.a.N.C.C.l.l.F.E.E.E.E.{.L.i.` S y Z q [ H W [ n.>.<.U.m.>.3.>.J $.~ ~ $.$.! +.K v i e - . . + + . . . + . . @ + @ @ O o o o O O o . j ,.! o , * X X X 9 r J J J A Z y 9 & X X . X + @ d 2 6 . . . . . . . . . . . o 2 6 6 w d g t $ ,.LX      ",
"                                  nX`. .N.A.A.L.M.f.d.X.X.| y.t.a.a.a.a.z.z.l.P.E.E.@X@X+XY.V.a./ H H q C J [ Z J J C A C r r r q q q q y 0 = ; % * % X X . + + . . . . o . . . . . . . . . . o . o , v 6XpX: * i % % & J B._.&X_.).(.V.} Z 0 % . X . @ 8 + @ o . . . . . . . . . . . o 8 - 2 7 2 3 - 6 dX      ",
"                            FXzXxX(.u.d.A.A.A.A.f.u.r.y.r.w.t.t.e.d.d.f.g.g.Z.P.T.T.E.@X@XL.Z.g.t.[ J Z C 0 q 9 = y 0 0 9 & % & 9 9 9 9 9 & X X % i j w @ . . . . O . u w o . . . . . . . . . . o p v ! 5.pX: O e % & V B.&XjX:X>XjXjX:X#XV./ a = X X % - X . . . . . + . + . . . o . . o # # # . X * . qX      ",
"                        IXGX(.K.M.q.s.k.z.g.Z.a.p.t.t.t.t.t.t.t.e.e.d.f.f.z.Z.P.E.T.E.E.[.R.l.h.a.{ L J H 0 X O : j p s y 0 q V A A A C a q e = > %.=.U > . . . . X . n c . . . . . . . . . . . : s %.5.%./.: : % X & ( *X#X$XoXoX=X;X=X=XT.p.L q X X X X % X . + . . + < + + . . o : o o # . . X X % X qX      ",
"                      FXzX_.N.M.e.e.h.k.C.M.C.a.r.w.w.r.t.t.t.t.e.y.d.h.M.C.A.G.G.E.E.{.{.E.D.z.z.t.` ( T V q y 0 a Z G Z A  .V.K.Y.Y.N.} J G a e c $.@.z $ . . . . o n @.4 O o o . . . . o O O 4 p s ! v =.t f ; X & ;.hX+X$X X X$X%X X[.G.N.} a . X X X % X . o . . . + + + . . . o o . a } / Y s s o qX      ",
"                  FXbX_.V.K.N.f.e.g.C.C.M.g.f.i.' ' ' | r.y.r.r.w.y.u.f.C.S.G.P.P.E.{.@X=X%X.XH.G.Z.h.u.u.' _ ] ] ]  .d.i.f.K.~.Y.&X+XY.m. .W G G X u #.@.w . . . o . z 6.-.M j j 4 O o . - O : : v %.%.s l p 5.M % & V.&X+X$XoX X{.#X{.L.A.B.<.K . - G K J x 2 X . . . + + X . . X X X = ] :X1XXX`..., rXIX    ",
"            IX  IXhXm.B.K.N.u.a.h.S.C.M.f.d.u.' ] ` _ ] | y.r.i.w.e.d.h.j.S.S.G.G.~.H.{.%X%X-X%X%XXXJ.c.D.D.G.K.K.S.^.K.^.K.~.{.#X%X{.).V. .A W ! = o h -.g + . . . . 4 Q.4.-.Q Q k 4 O . 4 o . . /.5X9.U l f fX3.X & U.Y.#X@XoX|.R.'.F.l.z.z.m.J % V B.(.(.V.( C O X X X X + . X . . & & D ~.1X1X).`.] U.GX    ",
"          FXzXzXbXB.| (.B.p.p.s.g.g.M.f.d.i.| ] / T / _ ] |  .r.r.w.e.e.h.h.M.C.g.k.k.x.D.H.].%X-X XXX'.'.'.'.'.'.].~.].].].].].{.].^.S.u.] A Z G , . u =.6 . . . # . O @.m h t 4 g > o O t 2 O o CX2.+.N f 1 fX6.@ & m.B.E.E.|.|.R.R.W.b.v.s.t.L 9 S #X@X[.}.T.f.W s * X + @ . < < + 8 % S !.!.2X'.].S.i.Y.GXIX",
"        KX_.U.B.V.' ' L.Z.g.p.q.h.d.d.y.y.| ] ^ D D T ) _ ]  .' ' w.w.w.e.e.e.e.e.w.e.u.h.z.C.^.{.}.XX'.T.T.T.F.E.H.J.J.G.D.x.z.h.g.h.e.T Y Z Z s p o l 1.7 + @ . o . . > . . . . O . . . - > @ @ tX7.1.*.-.=.gX#.X % J P E.{.E.R.T.F.v.z.s.q._ J & S *X@X|.oX}.].~.m.L r 9 X X < < < < o y X.!.!.!.x.S.A.( U.KX",
"        zX;.(.N.w.R R k.Z.g.q.p.e.u.y.' ] ] / T A D ^ ^ ) ] ] ] ] ' q.' ' ] _ ] ` E ' e.p.a.a.k.G.T.!.c.v.z.v.z.l.l.Z.k.h.s.e.E R R T A Y y y p p p , U 8.1 + # + . . . o . . . . . . . . . o . . $.&.1.1.0.9.-.k X % 9 P Y.E.P.T.l.l.h.s.w._ } G % I &X%XoXoX X X.X].T.M./ r = < < < < # : ..^.!.2Xz.J.S.n.Z bX",
"      FX<.W B.B.' F R a.C.M.' w.w.u.r._ T T T T A A T ^ ^ _ _ _ _ ` ` { ` _ T T T T / ] ' w.w.t.a.h.h.d.u.t.t.e.i.r.w.{ / L T Y S V y y y 0 * * 4 , j 3.8.6 . . . . . . . . . . . - $ . . . . . . e w g N f l f 4 o X & W ~.L.F.D.C.N.f.e.' { ~ a % y &X%X X X XoXOX|.oX|.^.f.Y C X X < X X Y !.!.v.b.x.x.j./ B.",
"  FXwXU.a H ) V.t.R F q.M.M.w./ ` m.| / S Y ^ ) T A A A ^ ^ ) ) / ( ( ( ( ^ W W Y Y Y ^ ^ / ` { { ] ] ] _ _ ( P P J J Z C V y q 0 = = * O o . o : f #.6.,.6 . . . . . + . . . . . 7 O . . . . . . @ 2 7 4 6 7 5 o . * % ) K.S.S.g.N.N.i.r.| [ H a % V &X].|.|.|.oXOXR.OXOXXX'.^.m.V 9 X & & V j.!.b.b.!.v.x.y.S ",
"KXI.>.! y Z C (  .| / D r.N.i.( ^  .;. .^ C S ^ } W H H H J ^ ) ) ( ) ( ) [ W W W W G J W J L L [ ~ W J G Z a a r 0 0 0 = = * * : : o o o o - t l -.0.6.*.6 . X X . . o . . O . . O . . . . . . . . X - $ : o : : , , % ;.B.B.N.N.N.N.i.' ` ^ Z y % A #X].[.[.[.E.E.E.E.T.].~.^.V.;.s X & & 9 E !.c.v.v.l.l.t.I ",
"FXG >.>.C a a V H ) [ J J } ;.;.G A  .m. .Z y Z W [ W W Z Z Z A H G G G G G G G v x G Z G C a C C s i e e , ; * X X @ X . . . # 1 o < 1 f f N U O.-.-.0.@.g o . . . . . . O 6 1 . $ @ . . . $ 6 j u Q $.: o o 4 4 , * % U.B.V.m.n.n.n.| ` T L Z a % ^ ).H.T.T.R.+XE.Y.).L.(.^.V.d.`.W * % % 9 T ^.x.c.F.Z.n.q.I "
};
