/* XPM */
static char *out[] = {
/* columns rows colors chars-per-pixel */
"138 85 256 2 ",
"   c None",
".  c #020202",
"X  c #0A0302",
"o  c #020902",
"O  c #0B0A04",
"+  c #02040A",
"@  c #0A0309",
"#  c #05090A",
"$  c #0B0B0A",
"%  c #130200",
"&  c #1C0300",
"*  c #130B03",
"=  c #1B0B02",
"-  c #120D0A",
";  c #1A0F0D",
":  c #1A1305",
">  c #14120C",
",  c #1B140C",
"<  c #181609",
"1  c #0B1113",
"2  c #141313",
"3  c #191614",
"4  c #1D1A13",
"5  c #161A1A",
"6  c #1C1C1C",
"7  c #151816",
"8  c #130D12",
"9  c #230C00",
"0  c #270901",
"q  c #231A0D",
"w  c #271708",
"e  c #351906",
"r  c #231D14",
"t  c #231D1A",
"y  c #251713",
"u  c #331F14",
"i  c #1B2318",
"p  c #39260C",
"a  c #2C2414",
"s  c #29241A",
"d  c #322B1D",
"f  c #372717",
"g  c #3B301D",
"h  c #322A0A",
"j  c #181E22",
"k  c #231C25",
"l  c #1D2324",
"z  c #1E2929",
"x  c #242424",
"c  c #2B2B2B",
"v  c #2A2926",
"b  c #352B26",
"n  c #3A3324",
"m  c #37332C",
"M  c #343434",
"N  c #3C3B3B",
"B  c #3B3935",
"V  c #263734",
"C  c #411A07",
"Z  c #582B0A",
"A  c #483508",
"S  c #57340B",
"D  c #442B16",
"F  c #4A331A",
"G  c #563719",
"H  c #4E290D",
"J  c #643717",
"K  c #69390F",
"L  c #473829",
"P  c #5A3D24",
"I  c #553A25",
"U  c #413C3C",
"Y  c #423B35",
"T  c #462C2E",
"R  c #663A26",
"E  c #384435",
"W  c #594313",
"Q  c #67441E",
"!  c #76441A",
"~  c #7A430E",
"^  c #5A4328",
"/  c #46443A",
"(  c #574D33",
")  c #694729",
"_  c #774B28",
"`  c #7B532A",
"'  c #694B35",
"]  c #744D34",
"[  c #7C5434",
"{  c #795839",
"}  c #6C5637",
"|  c #434342",
" . c #4A4A48",
".. c #555449",
"X. c #565656",
"o. c #544C50",
"O. c #785847",
"+. c #6A574C",
"@. c #766754",
"#. c #635D7C",
"$. c #6D6C6C",
"%. c #646462",
"&. c #736E6A",
"*. c #6B7178",
"=. c #747474",
"-. c #7B7B7B",
";. c #797778",
":. c #6F6E74",
">. c #58506F",
",. c #3F4140",
"<. c #87552B",
"1. c #885936",
"2. c #935D34",
"3. c #965B39",
"4. c #8F5329",
"5. c #8B6439",
"6. c #94633C",
"7. c #9A673B",
"8. c #977036",
"9. c #A7693A",
"0. c #B16B3B",
"q. c #B1753E",
"w. c #955027",
"e. c #855C44",
"r. c #965E45",
"t. c #886547",
"y. c #976946",
"u. c #876A55",
"i. c #987458",
"p. c #926E55",
"a. c #A36B43",
"s. c #A76B48",
"d. c #A97449",
"f. c #B37345",
"g. c #B3744A",
"h. c #BB7A4B",
"j. c #B87849",
"k. c #A77856",
"l. c #B77C55",
"z. c #AF6E4A",
"x. c #987965",
"c. c #857D7B",
"v. c #897565",
"b. c #A67C63",
"n. c #C37C4B",
"m. c #C67B47",
"M. c #C57C56",
"N. c #D17E4C",
"B. c #C4743C",
"V. c #7F8179",
"C. c #AB8255",
"Z. c #BA8358",
"A. c #B78C51",
"S. c #87837B",
"D. c #9D836C",
"F. c #A88369",
"G. c #B68666",
"H. c #A88977",
"J. c #B79075",
"K. c #CA824C",
"L. c #D6834D",
"P. c #C48253",
"I. c #CB8454",
"U. c #C5865A",
"Y. c #CC8A5B",
"T. c #C98659",
"R. c #D38454",
"E. c #D58B5B",
"W. c #DB8D5C",
"Q. c #D68856",
"!. c #DB925D",
"~. c #D59159",
"^. c #C79458",
"/. c #E6935B",
"(. c #E79059",
"). c #C88B64",
"_. c #D68D64",
"`. c #CA926A",
"'. c #DD9364",
"]. c #DC956C",
"[. c #D79769",
"{. c #C89575",
"}. c #D89A74",
"|. c #E39464",
" X c #EB9A64",
".X c #E59A6B",
"XX c #EB9D6B",
"oX c #E59867",
"OX c #E89B73",
"+X c #F39C6C",
"@X c #EBA26C",
"#X c #F5A36D",
"$X c #EDA373",
"%X c #E9A679",
"&X c #F2A574",
"*X c #F4AB7B",
"=X c #FCAC7B",
"-X c #F9A775",
";X c #F3B17D",
":X c #D6A572",
">X c #B5853F",
",X c #727083",
"<X c #8C8C8B",
"1X c #868583",
"2X c #95948D",
"3X c #989996",
"4X c #8F928D",
"5X c #A89685",
"6X c #B89D87",
"7X c #A49791",
"8X c #B4A596",
"9X c #ACABAB",
"0X c #A7A5A4",
"qX c #B5B3B4",
"wX c #BCBABA",
"eX c #BAB6B4",
"rX c #B4ADAD",
"tX c #9EA1A0",
"yX c #CC9C85",
"uX c #D8A787",
"iX c #CFAC94",
"pX c #E9AA85",
"aX c #F7AC83",
"sX c #FEB48A",
"dX c #FEBA8D",
"fX c #F8B386",
"gX c #EAB697",
"hX c #FFBC93",
"jX c #FCB796",
"kX c #EBB48C",
"lX c #D6BAA8",
"zX c #C4BAB9",
"xX c #CCB4B0",
"cX c #FEBEA4",
"vX c #E4BAAB",
"bX c #FDC29A",
"nX c #E8C09A",
"mX c #C5C3BA",
"MX c #F0C2AF",
"NX c #CBBDC6",
"BX c #C5C3C3",
"VX c #CAC9C7",
"CX c #D2C9CA",
"ZX c #D2CBD6",
"AX c #D9D7D7",
"SX c #D2CCD1",
"DX c #E9DBD3",
"FX c #FDE9D8",
"GX c #F9EAD8",
"HX c #E5E4E3",
"JX c #FBEEE3",
"KX c #FEF3E3",
"LX c #FFF9E4",
"PX c LightCyan",
"IX c #E0DFE2",
"UX c #BEC0BF",
/* pixels */
"                                                                                                                                                                                                                                                                                    ",
"                                                                                                                                                                                                                                                                                    ",
"                                                                                                                                                                                                                                                                                    ",
"                                                                                                                                                                                                                                                                                    ",
"                                                                                                                                                                                                                                                                                    ",
"                                                                                                                                                                                                                                                                                    ",
"                                                                                                                                                                                                                                                                                    ",
"                                                                                                                                                                                                                                                                                    ",
"                                                                                                                                                                                                                                                                                    ",
"                                                                                                                                                                                                                                                                                    ",
"                                                                                                                                                                                                                                                                                    ",
"                                                                                                                                                                                                                                                                                    ",
"                                                                                                                                                                                                                                                                                    ",
"                                                                                                                                                                                                                                                                                    ",
"                                                                                                                                                                                                                                                                                    ",
"                                                                                                                                                                                                                                                                                    ",
"                                                                                                                                                                                                                                                                                    ",
"                                                                                                                                                                                                                                                                                    ",
"                                                                                                                                                                                                                                                                                    ",
"                                                                                                                                                                                                                                                                                    ",
"                                                                                                                                                                                                                                                                                    ",
"                                                                                                                                                                                                                                                                                    ",
"                                                                                                                                                                                                                                                                                    ",
"                                                                                                                                                                                                                                                                                    ",
"                                                                                                                                                                                                                                                                                    ",
"                                                                                                                                                                                                                                                                                    ",
"                                                                                                                                                                                                                                                                                    ",
"                                                                                                                                                                                                                                                                                    ",
"                                                                                                                                                                                                                                                                                    ",
"                                                                                                                                                                                                                                                                                    ",
"                                                                                                                                                                                                                VXZXAXAX                                                            ",
"                                                                                                                                                                                                              wX%.$.1X3X                                                            ",
"                                                                                                                                                                                                            HXo.6 3 M $.9XHX                                                        ",
"                                                                                                                                                                                                            AXv x . 2 X.3X0X                                                        ",
"                                                                                                                                                                                                            SXM x . $  .3X<X                                                        ",
"                                                                                                              AXeXwXwXwXwXwXwXwXwXwXwXwXUXUXwX                                                              AXV x . $ x X.tXHX                                                      ",
"                                                                                                      AX9XwXwX=.N N / N B | U U ,.U N ,. . .,.0XBXwXBXzXeXzXwXwXzXwXzXwXwXwXqXwXNXwX                        AXM j $ . $ X.0X9X                                                      ",
"                                                                                              HXqX9XwX;.M N | 6 . + @ $ . + $ O # $ $ $ $ 8 # M | N | | Y U U Y B Y U U N Y Y U N N wXqXqXrXqXwXqXwXqXqXeXqXtXM 2 $ $ @ o.;.3X                                                      ",
"                                                                                        AX9XwX=.B M N x . . . . . o $ # # . . @ X $ $ . # # $ o . X X 3 t > > < ; * * * X * * X X X B B B m B M N M M B M B M 6 6 . $ # 5 o.3XAX                                                    ",
"                                                                                      rX,Xc N 5 . . . . . . . . . . . . . X . . . . . . . . # . . # - m / s n F d s d ; * b s r r r r q r X . . . . . . . . . # v - # + 1 X.tX0X                                                    ",
"                                                                                HX9X,Xm v . . . . . . . . . . . . . . . . . . . . . . . . . . . . X $ v Y n B / g b n * X L a / E d / / / O . . . . . . . . . . 6 3 3 # $ o.1X<X                                                    ",
"                                                                            HXqX1Xc 3 $ . . . . . . . . . . . . . . . . . . . . . . . . . . . . . X X , d b g f n g g O w < * g g < g / / X . . . . . . . . . . # 2 x 6 # c ,.1X                                                    ",
"                                                                          9X<XM l X . . . . . . . . . . . . . . . . . . . . . . . . . . . . . . . . * , , d f a F a a * d : . a a : a g h . . . . . . . . . . . . . 6 k $ 6 c X.<X9X9X9X9X9X0XAX                                    ",
"                                                                        <Xc v . $ . o . . . . . . . . . . . . . . . . . . . . . . . . . . + . . . X r 4 : a a a q * O * g q : a d r b < O X . . . . . . . . . . . X # 2 $ 6 6 v j M M M c N c =.qX9X0XZX                            ",
"                                                                      <Xs # . . # . . . . . . . . . . . . . . . . . . . . . . . . . . . . . . . . X , < * a u d * : * X r q < 4 s r s . . O . . . . . . . . . . . . . . # 2 $ 3 X # X # $ $ 2 3 M M c =.qX3XAX                      ",
"                                                                    2X7 # # . . . . . . $ . . . . . . . . . . . . . . . . . . . . . . . . + . # . X , < : a d n : r r X q i : * s r d 3 X X . . . . . . . . . . . . . . . X . . . # @ $ @ # > # # # $ v M l c.0X0XHX                ",
"                                                                  2Xj . . . . X @ o . . # . . . . . . . . . . . . . . . . . . . . . . . . . . . . X 4 a q q t s r r t X d < - X 4 t m b > . . . . . . . . . . . . X . . . . + . . . . . . . . # X . 8 $ X # x c x 1X0XHX            ",
"                                                                <Xx X . X . . . . X X X X X X X . . . . . . X . . . . . o . . . . . . . + . . . . . s d a r - * > 3 > - v . O $ 3 3 x x 2 . . . . . . . . . . . . . . . . . . . . . . . . . . . . . . . . . . # . l x -.            ",
"                                                              4Xc @ X X X X X . o O : w e e & X X . o . o . . @ X X . . . . . . X . . . . . . . . . a a < s 7 . # # . 7 x # $ 7 6 2 2 2 $ . . . . . # . . . . . . . . . . X . . . + . . @ o . X . . . . . . . + . $ $ 3 c.          ",
"                                                            HX5 $ . X X X & w u g ( { i.i.p.e.) F e = X X X X X X X . . . o . . . . . . + + . # . . > < O < > o o . . > 3 $ @ 1 > $ X # . . . @ . . . . . . . . . . . . . . . . . . $ # . . . # . . . . . . . . . . 1 $ 2 1XHX      ",
"                                                            <X# . X % % p F { p.F.{.%XnXgXkXpX].).y.] G p 0 & X & X $ $ # # # 1 # # 1 + + + + # . . . . . $ $ . + . . o $ . . . . # . . . . . $ + . . $ . . . . . . . @ . . # . o @ . $ . . . . . . . . . . X . . $ . o # 6 c.      ",
"                                                          IX7 O X & 0 R e.G.{.uXkXkX%X;XfX*X-X+X.X_.Z.k.y.[ P G I O.c.c.S.-.V.V.-.-.,X*.*.*.*.*.*.=.=.:.&.=.$.$.$.=.=.$.$.:.# X . . . . . . $ # # . . . . # . . . o . . + . . . . . . . . . . . . . . . . . . . . $ . . $ . 7 VX    ",
"                                                          4X$ X @ 0 ] J.G.}.}.$X=X#X#X=X-X+X+X(. X/.!.`.`.Z.G.F.b.iXvXlXDXGXJX                                              V.-.=.;.;.=.:.:.=.=.%.2 8 # 2 # $ . @ . o . # . . # X . . . . # # . . . . . . . . . . # . @ $ . . $.    ",
"                                                        HXb * X = I G.}._._.!.@X#X#X=X=X=X-X#X+X-X@X[.@XpX%X}.}.G.`.{.G.uXvXFXJX                                                                AX<X1X;.<X-.;.;.-.%.$ X @ . . X j ,.c $ @ $ $ . $ . . . . . . . . . . . . . . 2 ZX  ",
"                                                        HX% X 0 I i.{.].!.(.(./.+X#X#X-X-X=XaXaX-XoXY.[.pXfXfX%X].[.!.R.Q.T.gXlXFXLX                                                                              BX2 . . . . $ N %.;.-.;.1X| o . $ . . . . . . . . . . . # . . =.  ",
"                                                        2X* 0 G t.).OX'.L.L.(.(. X#X-X-X-X+XOXaX]._.j.j.).%XdX].@X$X&X@X(.!.).{.uXnXlXlXFX                                                                        BX2 . . . . # x X.rX      qX1X,.. # . . . . . . . . . . X . . 2 SX",
"                                                      GXa 9 H t.l.}..XR.L.L.(.(.+X+X#X&XOX].].pX`.M.z.s.3.Y..X0.q.I.(.W.N.aXN.OX`.).).k.yXJX                                                                3X2X<X:.2 . . X . . 7  .V.AX        wX1X| . . . . . . . . . . . . . . -.",
"                                                      DX= I [ C.`.]._.N.N.(.(.(.#X#X$XOX]._.M._._.h.z.l.! w.k.2.<.<.3.9.z.M.OXM.Y.].yXb.b.yXJX                                                      HX4X3X4Xc 7 $ 8 $ . + . # . 1  .X.eX            wXB . # . . . . . . . . . . . 6 ",
"                                                    KXH.D 1.5.U.].oXW.N.L.L. X@X*X%X%X}._.).Q.W.M.n.M.M._ Z [ ] H G ] 1.r.r.z.M.U.`.b.yXH.u.JX                                                    tX1X> 7 l - . . . @ . . . . . # | X.9X              qXB . . . . . . . . . . . # X ",
"                                                    GXI ' [ 9.~.|.].N.N.Q.W.&X$X*X%XOX]._.Y.|.@Xm.m._._.2.C H ^ T ( v.x.H.b.{.yX{.{.yXiX5X5XDXIXHXDXIXAXAXAXAXAXSXDXSXCXCXSXCXVXVXmXUXUXqXeXqX9X0X..m > m s v 5 6 6 $ j 1 X . $ $ c X.9X                :.. . . . . . . . . . . # . ",
"                                                  KXH.' { 1.h.[.|._.N.N..XoX&X$X%X$X@X]._.R. X#X(.m.l.pXs.C } v.c.8XxXzXNXxXvXvXlXMXCXNXzXNXNXZXNXUXVXBXNXBXzXwXzXzXeXeXeXeXqX9X9XtXtXtX3X3X4XS.3X2X .M S.V.$.N B M c M x 3 $ # $ x o.=.SX              wXN . . X . . . . . X . . . ",
"                                                KX6X' { 5.6.P..X'.R.N.R.|..X&X*X;X;X;X/.W.Q.|..X-X]._.pXk.e.H.5X5X0X9XrX9XxXxXrXNXNXZXNXNXNXZXZXZXZXZXZXSXSXCXCXCXCXCXBXmXmXVXmXBXBXVXmXVXmXmXmXmXAX2Xs %.=.=.%.,.B | N M c $ . . 8  .X.rX                ;.$ $ # . . . . . . . . X ",
"                                                7X' O.5.d.9.Z.[._.R.N.W.OXXX&X*XdXbX-X/.L.L.R.!.OXsXpXuXb.u.@..... . .o.o.o.o.,X,X>.,X,X,X,X,X,X,X,X,Xc.,X;.;.c.c.S.S.1X1XS.4X4X2XtX3X3XS.S.S.V.4X9XS.. 7 >  .3XX.| | | N x $ . . $ M  .$.<X<X<X-.CX      =.$ $ . . . . . . . o . . ",
"                                              6X^ t.y.a.y.f.I.'.W.M.N.].OXOX%XsXbX=X;X@XQ.n.h.I.Y.}.}.`.i.] F C g L F T T T T T T k T y k 8 8 3 8 @ k k k k y 4 t s b c m b i d m E / E E n V i E @.E . o . d mXS.+./  ./ 7 . . . + $ 5 > $ > $ o X.<XS.AXc.. . . . . . . . . @ + . ",
"                              PX          KX6X) [ y.a.l.f.j.'.'._.R.W.OXOX].*XsXhXhXdXfX%X_.Y.P.h.Z.Z.d.3._ H G T R ] O.O.O.O.] R ] 3.e.{ } } ( g w 3 ; 8 8 X X . X - > - O O o O O < 4 4 > 4 < i E i o o - ^ mXiXv.&.+...q . . . . # 6 $ o o o > * 4 O @.... . . . . . . . . . # . ",
"                                        KX6X] <.a.a.f.Y.h.n.'.'.|.oX.X.XoX'.OX%XsXdXhXdXsXfXaX%X]._.G.l.s.r.J Z Z R R R R R Z J R r.z.b.G.F.i.t.D w w > 8 8 X . X @ * > > > > > - < 4 r r 4 < s i i O X h O.J.MXvXiXyX5XD.^ % X X . . 3 7 7 i > i O O - , s 8 # . + . . . . . . # . ",
"                                        5Xt.y.z.I.M.I.h.j.E.!.|..X&XOX.X|.].'.oX$XaXsXsXjXbXhXbXbXbXjXpX}.{.s.s.r.z.r.r.r.w.<.2.r.z.M.].M.).l.y.P D w < $ o . . O * * - - > < > 4 s s s 4 < & y a & & D x.lXMXMXcXcXgXgXiXF.n X X . . s x 5 l l i 7 2 1 . 5 j $ . . . . . . . . $ . ",
"                              KX  KXiXiXt.i.C.U.T.'.E.K.I.E.|.&X=X=X&XXX.XoXoX.X&X=XfX=XfXsXsXjXbXbXbXhXjXjXkXfXaXjXaXaXpXpXpX%XpXOXpXpX.X.X{.G.e.^ h O o . . X $ - $ $ - > - - O > < 7 - X ; & 9 & 9 x.yXcXbXjXcXjXaXpX%XyX+.y X X - c E c 7 v l z l 1 1 $ j $ . . . . . . . . $ . ",
"                          KXLXFXFXiXy.y.z.z.l.j.P.~.R.R.W.N.W.+X&XXXoXoX.X X&X&X*X*X*X-X$X&XaXpXaXsXsXjXhXdXsXsXjXjXsXaXsXdXbXbXsXsXaX=X+XOX].).5.^ h o o o . . O $ X . X $ $ X . . . X . X % & & & e iXgXjXjXjXdXfX=X-X'.].u.t X X % m / | x l l 5 j j z 1 j # . . . . . . . . $ . ",
"                          8XJ.iXuXG.).s.z.a.9.9.f.P.I.R.(.N.N.W.|.'.W.oXoXoX$X$X.XoX'.oXoXoX.XOX$X%XaXfXaXaX*X&XOXOXaXaX-X$X%X%XOXOX.X_.N._.).k.[ ^ f O o . . . . . X . . . X X X . X . O $ - O y % e J.uXcXjXjXdX=X=X&XW.`.p.f X X X y n B r % 3 . # 2 j 8 j @ . . . . . . . . $ . ",
"                    KXKXlXt.[ 1.3.g.z.n.Y.U.d.q.9.9.A.Q.W.Q.R.K.R.W.|.W.!.!.!.!.!.Q.E.'.'.E.W.'.'.'.'.'.'.'.|._.R.N.N.oX'.T.U.).U.U.M.g.z.z.r.r.) I a X o . . . . . . . . . . . . . . 3 v B l $ / : = t.:XbXdXsX;X=X@X/.W.U.p.f & % X = = 9 % X X X X X X * k $ . . . . . . . . o . ",
"                    KXlXt.y.k.g.a.w.R 3.g.U.T.Y.P.0.0.q.P.'.E.I.j.n.E.I.h.I.n.P.T.T.I.Y.Y.P.I.Q.I.I.M.T.U.U.M.g.g.s.l.l.l.d.s.d.s.y.3.1.1.] R I F a : . . . . . . . . . . . . . . . $ | | | V 7  .d X } iXbXfX*X@X@XoX~.!.Z.O.f % X 0 e D D D D e e 0 & & 9 t - X . . . . + + . $ . ",
"                  KXiXH.s.k.z.h.g.Z.5.1.` 2.f.g.M.M.M.s.z.l.Y.~.K.m.P.h.q.h.q.f.g.h.g.g.j.j.f.q.h.f.q.j.d.g.d.7.a.6.y.y.y.y.1.{ ] ) ^ G D h w w , * X X X . . . . . . . . . . . . . # / ,.%.*.V i > % { nXbX;X;X.X@X~.^.'.U.O.e & e } b.F.F.G.b.k.k.t.` J C u > ; - $ - $ # $ # 8 . ",
"              JXFXMX{.G.l.s.3.2.<.7.y.y.<.<.<.4.3.z.l.l.d.a.f.n.~.Y.j.f.f.9.9.9.9.a.a.a.7.6.9.7.7.2.2.6.5.2.[ { ] ] ^ ^ F F D D p h w : : O o o @ . . @ @ @ @ . . . . . . . X . . . o 7 z X.X.z o % 9 i.MXaX%X@X@X!./.!.|.).t.0 0 ' G.iXgXkXgXkXkXkXpX}.Z.e.f - , t 3 6 3 5 5 5 7 X ",
"          KXiX8XiXyXJ.).M.l.k.z.7.5.<.1.1.y.` <.<.<.r.s.k.l.9.9.Z.U.g.g.a.2.6.3.1.1.2.1.` _ ` ! <._ Q _ ) ) G P p f w * X * & % O X o . o o o o o + @ @ @ @ . . . X o . . . . $ > $ $ < 1 7 7 # @ % e pXcXaX&X#X X X/.!.oX_.e.e H p.{.:XpXpX%X$XOX@X}.[.[.`.O.q % , > t k x j x j @ ",
"      KX  lXx.p.i.k.3.d.r.s.r.y.d.k.k.3.r.y.1.) ) ) ` <.7.k.d.7.2.9.d.C.y.1.1.[ <.] ) ) R G G G Q P ^ ) F D w w * & q u m < X O o . o o o o o . + . . + @ . + . @ # $ $ # $ O $ l $ 1 > > 1 1 X X 0 e.cXjXaX-X&X X X|.|.+X_.1.Z _ Z.{.%XpX*X$XoXoX@X[.E.Y.{.F.f % ; , 6 j 6 j l l . ",
"        xXx.t.] _ K ! ! K S S S Q _ r.s.k.k.t.} G G _ <.3.3.z.7.<.` 6.s.y.<.] [ ] ) I F D p F h D g D g 9 = X , y v =.tXqX,.. . . . . . + o # + . . . . @ . . . . . $ $ O $ - . - o $ . . . O X & C yXcXjXaX+X#X|. X|.].+X_.4.K 3.).[.%X*X X@X|.|.oXW.m.n.}.F.F = , q 6 j 2 j z z + ",
"      KXD.t.) Z S <.` ! 4.! K S K Z J J 1.i.i.y.] H S 1.3.<.2.3.<.! ! 5.t.[ ) ' ' P D f u a a 4 , * 3 - X r b &.tX0XAX    X.o . . . . . @ . # @ . . . . . . . . . . . . . . o . . . . . o . X X 0 u.cXaXaX-X X X!.!.E.'.OX_.2.4.g.[.[.$X&X X/.|.W.E.n.0.j.uXH.L 9 = % * @ 8 1 j z + ",
"      lXi.] K _ <.C.C.5.C.C.y.y.5.` ) A G ) 1.i.k._ Z K 1.5.4.<.6.<.K ) { ' ) ^ P L f w w q O # . . . . j c.0XIX           .+ . . . . X X X X X X . . o . . . . . . . . . . . . o . . . . . . X 0 F.gXOX+X+X(.(.~.~.R.~.]._.a.w.P.[. X.X|. XW.(.R.m.f.9.g.{.b.I 9 % : y 2 j # j x + ",
"      H.1.K <.a.9.f.:X9.j.A.[.g.s.d.d.2._ S S _ y.y.<._ r.).3.R 1.` S H ^ L ^ L n f y , w * . # . . 3 M v.DX            tXl . . . . . . . X X . . . . o . . . . . . . . . . . . . . . . . . . & P b.{.U.N._.W.L.L.K.K.K._.N.n.0.K.@X@X|.R.R.n.n.j.0.9.f.h.`.k.F A F p p g d X 5 c + ",
"    FXx.1.1.9.j.n.f.].f.g.9..X0.9.N._.M.z.1.S A Q 5.y.s.M.pXs.<.` _ Q h p g n s 4 4 ; - % $ # . > m &.8XMXLXKXFXGXGX8XV.c # + . . . . . . . . . . . . . . . . . . . . . . . . . . . . . . . X 9 } k.Z.l.h.L.K.L.N.m.m.N.N.L.N.B.Q.@X.XY.j.9.q.q.9.9.9.0.q.K.d.A ` A.{ W W A % y c @ ",
"JXKX6X[ k.g.Z.K.E.n._.m.0.w.].n.0.M.|.].`.s.) A A Q ] r.l.`.l.1.` ) G e h a 4 > > O X X X @ $ 7 &.eXDXKXLXDXKXlX&.&./ l 1 $ . . . . . . . . . . . . . . . . . . . . . . . . . . . . . . . X % w ' t.y.s.q.K.q.h.B.K.m.M.R.K.K.n.~.[.Z.9.6.4.7.a.9.7.9.9.q.>X9.K 8.:XA.8.8.} A h u % ",
"GXiXt.7.`.Y.!.m.K.Q.|.E.m.0.[.oXK.P.'.$X`.d.` W A A S ` 5.a.C.8.1.W p w q : O O O . X $ X 3 c :.AX      iXD.8Xv.= * : t c 1 @ . . . . . . . . . . . . . . . . . . . . . . . . . . . . . . X , h ) { 1.r.9.d.d.q.A.q.l.h.M.M.P.h.P.Z.9.<.` 1.6.6.5.6.6.8.9.q.8.~ 8.>X>XA.^.C.C.} ' 0 ",
"8Xu.y.G.Z.U..XZ.0.Y.[.Y.U.A.%X`.g.l.}.}.l.p.) W W p A A G W t.5.O.F 9 : * X O . . X 2 v b $.9XAX      xX} +.D.( % % X $ 3 3 # @ . . . . . . . . . . . . . . . # . . . . . . . . . . . . . . : w L ' { 1.1.y.6.7.7.a.a.s.k.d.k.a.y.1.1.) _ ] ] ] [ [ 1.5.5.y.7.~ 4.q.>XA.A.C.C.@.x.C ",
"H.F.i.{.uX`.:X}.Z.`.{.`.uX}.gX`.d.{.gXyXG.D.O.} ( ( ( W ( A @.V.@.} d d b c v v c v %.0XrXZX          8X+.5X5X+.f f b M b N M M c c c c c c c c v c c c c v c c c c c c c c c c c M c c c v m m +.&.i.p.p.i.D.k.C.F.D.C.F.G.J.F.p.t.p.t.@.u.O.u.u.u.p.i.F.F.C.7.d.A.A.^.^.G.G.F.b.O."
};
