/* XPM */
static char *out[] = {
/* columns rows colors chars-per-pixel */
"44 55 34 1 ",
"  c None",
". c #170F07",
"X c #2F1B0B",
"o c #31302D",
"O c #430000",
"+ c #4F0000",
"@ c #530707",
"# c #5F0707",
"$ c #670B0B",
"% c #7F0000",
"& c #731313",
"* c #6F6F6F",
"= c #831F1E",
"- c #A40000",
"; c #B90000",
": c #8B2322",
"> c #9B3333",
", c #A53C3C",
"< c #D20000",
"1 c #E30000",
"2 c #F90808",
"3 c #AF4747",
"4 c #B37347",
"5 c #C05B5B",
"6 c #D57575",
"7 c #D68A5A",
"8 c #E79A6A",
"9 c #FEA96A",
"0 c gray51",
"q c gray61",
"w c #F7AAAA",
"e c #FFC29F",
"r c #D7D6D6",
"t c gray99",
/* pixels */
"                   ,:,,:&                   ",
"                  &4>>>>4&                  ",
"                 ,>444:4:7&                 ",
"                 ,>:::44:>&                 ",
"                3&5,:%=38573                ",
"                :we53::3e65:                ",
"                :&2:,55,:2$:        0       ",
"                 :<OO%%+O-:        <*       ",
"                 ,4$=7>=$:,4     0-0        ",
"     rr        ew$:O=t<%O4,:3,7:=*0         ",
"      0rr   * 3>:+:OX.XX.3+@=>8we7*$        ",
"        q1;7,5:=O+&.XXXX.,OX#&:3we>>        ",
"         $*:>3w7=+%#XXXX#%++&35we,>3&       ",
"          &3:>88:+$O=t<%O&.$:,3e7:&=$$      ",
"          $&3&:44#+&9w99$+.:4:>>:%&+#&    r*",
"          O$=@&3:%.+O+X+O.O3:3&%@++@$3,  <* ",
"         $++#O&,,&+.O##+.O+%==%#O+#&&%:=;$  ",
"    &58 :=#+OOO=<#XOOO.OO.+$2$&@.+,8:&%&*   ",
"    3,6,&:=O.OX+OO+.OOO.+O+XO##O.+%::&$$#   ",
" w::&#42#%3#XOO..XO..OOO..X.O+XO.X@%&%&#$   ",
":55@%O$#@$=&+..OOO.OOO+O.O.O.O.O O+O@@#$%   ",
" 45:#OO&@O&#XO..O+O@+X.++#OXOOO   .++#$%,   ",
"  72@O:5eO++OO .OO+O$XO+$$@++OO    +#&::&#  ",
"   @.@22e.++O   O.+##X.X+@O+O.    #7e,7:$O  ",
"   +.OO..O.O     .OOO+++.OO..O   3>e8:&$#+  ",
"    XO....O      .X@$#O&%#+..+ %,:::,$++OO% ",
"     +.OOO       XOO+XOX++O.XOO%++&:OO.O.   ",
"       O.        #++++OXX+O++X%+.,,#X+      ",
"                 +@$=&@=,=#+++..O&#X        ",
"                 O@&%#X#%$#++X.X$@+         ",
"                XO@#&##O#+OO@#O+            ",
"                +O##@#O+X++&%%$O@           ",
"                +#&&#++X++$:,,%#O           ",
"               XO&%%$++XO&:843,$#           ",
"               X+$=&$OOO+&>3>:,$@           ",
"              .++&%%#+.OO3>,::,$O           ",
"              O++$=&++O @&473&%@O           ",
"              .+O&$@XO. #=::,%$O+           ",
"              O+X##O.O. @$&:=&@+O           ",
"               ++++XOOO O#$&=$++            ",
"               O.OOO..O  +@&%@+O            ",
"               .o<OOOOO  +@&3&O.            ",
"                $++OOOOO .+=2=.X            ",
"               0 O.O.OO. .O@2#.             ",
"                 ..O.O.O OO+OXO,            ",
"                  O.OOOO OO..O.$            ",
"                   OOOOO .O.OOX@            ",
"                    O..O +OX.O+             ",
"                   O+OO.  O+O.              ",
"                   .+ OO  +XXX              ",
"                   *O *O  OO+O              ",
"                          @&&%              ",
"                         #&$%&%             ",
"                        X,&& +&&            ",
"                        ++2+ X+2%           "
};
