/* XPM */
static char *out[] = {
/* columns rows colors chars-per-pixel */
"32 55 37 1 ",
"  c None",
". c #170F07",
"X c #2F1B0B",
"o c #31302D",
"O c #430000",
"+ c #4F0000",
"@ c #530707",
"# c #5F0707",
"$ c #670B0B",
"% c #730000",
"& c #7F0000",
"* c #731313",
"= c gray33",
"- c #6F6F6F",
"; c #8B0000",
": c #831F1E",
"> c #A40000",
", c #B90000",
"< c #8B2322",
"1 c #9B3333",
"2 c #A53C3C",
"3 c #D20000",
"4 c #E30000",
"5 c #F90808",
"6 c #AF4747",
"7 c #B37347",
"8 c #C05B5B",
"9 c #D57575",
"0 c #D68A5A",
"q c #E79A6A",
"w c #FEA96A",
"e c gray51",
"r c #B6B6B6",
"t c #F7AAAA",
"y c #FFC29F",
"u c #D7D6D6",
"i c gray99",
/* pixels */
"               *62q6*           ",
"              271010<2          ",
"             2077<77712         ",
"             *82<&&6280         ",
"            6ty867<yyy8<        ",
"    u       <*O<q8tq7+$<        ",
"    ui      7&%5O++O5;&<        ",
"    eri      <&O+&&OO:7         ",
"     ,,& $01&*<$&11:*72         ",
"     >$300<2+.<O&i3&.<@     rr  ",
"    21110*$2qO<.XOXX.6#*  54r   ",
"   27y062*+89.2OXXXXO2.1q55&    ",
"   $2<7yy&$ty$*#XXXX@&.<17*     ",
"   $***yy+6<3#*O&i3&O*O676*     ",
"    $#@6y+*.-+7$9ttw*++2<**     ",
"  >5&$*65OOO.OX<1X+OOOX$&$      ",
"   7127+-O..+@+.#265eO++#*      ",
"  *670*$OO+O.O.O&#+O.OO+$::5u   ",
"  *<<*@+.XOX+#+XOO..O+.+*<&#    ",
"  22:#+XO.X#3*<$.O+X+..@<02$    ",
"  5O#X+..O+OO:2$.@#3OOO+2<:#    ",
"=>=O.O.OOOO+O@@++++.OO.+#$##    ",
"      ...X#+OX+OO+XX ..+X+@O    ",
"      O.X#O.++:.$X.   .++&:*    ",
"      .OX+..O++.XO    OX@7<&    ",
"     O..OOOX@O.@+O     .+***$   ",
"     O+XO.+XO+O+X+     O+@$::   ",
"    O+XX+XOOOOO+++      OO#*:#  ",
"    +++O+++++.XO+##      X@*7*O ",
"   +++@#+.X#.+O@@+O       +:+2+O",
"   XO#$@+O.+#+#**#+       +&.:O+",
"   +@$*#+..X+#$&2*#O      +@6O+O",
"  +#&:*@+OX+#$&222$#      XOO+O ",
"  O*:*$OO++X$&<706**        OO  ",
" .#$&:#+.+OO&<1y2<*:            ",
" OO$&$O.+O  *<2821*:            ",
" OX#*#+O+.  *0q6q12$            ",
"XXOO#+OX.   :70q0<&#            ",
"XOXX+.OO.   *6717<*O            ",
"+.@#+.OO    +2<<6&#+            ",
" .o&.O..    +**<&@X#            ",
" O$+X.O.$   X#$&+X+             ",
"  O.OOOO#   X*6<:+O             ",
"  ..OO.O+   +:25<#+             ",
"   OO.OOX   *+#.&+              ",
"   XOOO..   #O#O@O              ",
"    X+.O+   +.OOO+              ",
"    X++OX   +.OOO+              ",
"    ++X.+   .OOOO               ",
"    +++O+   ...OO               ",
"    ++ OX   .++XO               ",
"    -+ -+   O@#@##              ",
"            #**&*&&             ",
"           #*2$ +22&            ",
"           @+5+ X+,:            "
};
