/* XPM */
static char *out[] = {
/* columns rows colors chars-per-pixel */
"49 60 37 1 ",
"  c None",
". c #170F07",
"X c #2F1B0B",
"o c #31302D",
"O c #430000",
"+ c #4F0000",
"@ c #530707",
"# c #5F0707",
"$ c #670B0B",
"% c #730000",
"& c #7F0000",
"* c #731313",
"= c gray33",
"- c #6F6F6F",
"; c #8B0000",
": c #831F1E",
"> c #A40000",
", c #B90000",
"< c #8B2322",
"1 c #9B3333",
"2 c #A53C3C",
"3 c #D20000",
"4 c #E30000",
"5 c #F90808",
"6 c #AF4747",
"7 c #B37347",
"8 c #C05B5B",
"9 c #D57575",
"0 c #D68A5A",
"q c #E79A6A",
"w c #FEA96A",
"e c gray51",
"r c gray61",
"t c #B6B6B6",
"y c #F7AAAA",
"u c #D7D6D6",
"i c gray99",
/* pixels */
"                       2<22<*                    ",
"                      2<1101<2                   ",
"                     *07<7<<<1*                  ",
"                     2826:&6281                  ",
"                    <y986:&689y6                 ",
"                    <+%<2<<2<%$<        -        ",
"                    <&5q$qq*q5&<        e        ",
"                     7&;+&&O;&<        -r        ",
"                     27$:10:*<*61&     eu        ",
"                      0O:i3&O<@&<<0766-$>        ",
"                      0OXXX..6+@*&6<0q-35        ",
"              -$     <2.XXXX.<+O#*27016-e*       ",
"               -4e *<<6OXXXXO<.+@21<011<<&@      ",
"                O,1<622.XXXXO6.#20<*<<*&$@#      ",
"                 <70<<0O:i3&.<+*1<*:::$@#*&&     ",
"                 2<76*729yww::@<60&$$#O#&<<2>&te-",
"                 &*<*&$2<*:*$+&620:@#+O*6<12&5r  ",
"              &>5 *:$#@+710&+O$*0,$OXO.$*<<<*&   ",
"                 &#O+O#*$O+O.O#&+e+XO.O@&*62&$   ",
"                :2&#+XO@5##X..O@++O.OOOX#:2&$@   ",
"                2<2:$OO++@@X.OOXXXO..X+$&*6*&$+  ",
"                $*&*@O..OX+OOOO.OOOXO**<002<&$+  ",
"                +*#OXOO ..OO2y6q076**61qq17*$#&  ",
"                +++OOO   .O<#8q07<*:&267<2:$#&<  ",
"              &:+.OO..   OOO*:012&$@*&**:$@*:<&  ",
"            *<<&++OO.     O*+#2:$+.O.OX+#O#@$:   ",
"e$**7*     <<*:@+OXO      ..&+*#+OX+@OXXO   5-   ",
"    $2<*:$6*&$#OXOO       +X##+OO:$#++O+++   ,=  ",
"     #:<<:$#+X.OO         +OX#OO+$@O+.+O++    -  ",
"     .O#:O#+X.O           X+O+@.+@++O+O#$#O      ",
"    +O.O#OO.             O+++.+++OXO++$&&$@      ",
"   #.O OO+               @OOOX..++.X+*&22:*      ",
"   :.  ..                #+@#++.O.O+@&*<**:      ",
"  3   OO                #+#**#O+O.O+$*727<2:     ",
"     3                  ++$::$+XOOO+&<1607*&     ",
"                        XO*:*$+.O OO&<<q<<*&     ",
"                        XO*:&@+.O O+&6<7<2&$     ",
"                        +O*&*+XOO  +$*67*:$#     ",
"                        ++$$#X.O+  +#*2<:*#+     ",
"                        +X##O..O@  +O#$*&$+      ",
"                        X.++X.OO*   XO#&$+.      ",
"                         OOO....    .X@2#+.      ",
"                         o&.O.OO    .O23*O.      ",
"                         ,++.OOO     O@,@O.      ",
"                        e O+O.OO     O+*+.O      ",
"                          .OO.OO*    :O@++O&     ",
"                           OOOOO@    #XOX+O$     ",
"                           ...OO+    +XX*@+#     ",
"                            OOO.+    O.+$#+O     ",
"                            $OOOO     .+$#++     ",
"                            &+.OO     OX$#+      ",
"                            :XX.O     .+#O       ",
"                           O: O++     O++O       ",
"                           +> $>      O.+X       ",
"                                      ++O+       ",
"                                      OOOOO      ",
"                                     O#22:@      ",
"                                     #**&2&&     ",
"                                    #2*$ O**&    ",
"                                    @+,+ XX,&    "
};
