/* XPM */
static char *d57c5b49aa4c45f2bbe060497433d0b6bvPl3Bps2bfWkZeZ[] = {
/* columns rows colors chars-per-pixel */
"82 104 63 1 ",
"  c None",
". c #020202",
"X c #070707",
"o c #0B0B0B",
"O c gray6",
"+ c #170000",
"@ c #1B0F08",
"# c #101010",
"$ c #181818",
"% c gray12",
"& c #270000",
"* c #2F0000",
"= c #370000",
"- c #251404",
"; c #2F1804",
": c #26140B",
"> c #391C06",
", c #311B0E",
"< c #3D1F0E",
"1 c #3E280B",
"2 c gray14",
"3 c #2C2C2C",
"4 c gray19",
"5 c #323232",
"6 c #373737",
"7 c #3B3C3B",
"8 c #3F3F3F",
"9 c #430000",
"0 c #4F0000",
"q c #5B0000",
"w c #670000",
"e c #730000",
"r c #412312",
"t c #4A2513",
"y c #532B13",
"u c #572F17",
"i c #543B17",
"p c #5F331B",
"a c #673B1F",
"s c #5F431E",
"d c #674B26",
"f c #734323",
"g c #7B4B27",
"h c #6E532F",
"j c #464646",
"k c #4E4E4E",
"l c #4E504D",
"z c #565656",
"x c #5D5D5D",
"c c #61645F",
"v c #656565",
"b c #6C6C6C",
"n c #747474",
"m c #7C7C7C",
"M c #83532F",
"N c #8F5B33",
"B c #A06C40",
"V c #CC8F5D",
"C c #DCA77E",
"Z c #838383",
"A c #929292",
"S c #A2A2A2",
"D c #A9A9A9",
/* pixels */
"                                   ,,:<,<<:,,                                     ",
"                             j2222<,:,,,,,,:,<2222j                               ",
"                           2#b7:::,,,::::::,,,:::7b#2                             ",
"                         j24#7:<<<<<<,,,:,,<<<<<<:7#42j                           ",
"                      74j#4j#<<<rrtr<<<<:<<<rtrr<<<#j4#j47                        ",
"                     j4jS7b7,<<rrtttttr<,rtttttrr<<,7b7Sj4j                       ",
"                    2bj2z#2$,<<tt<ttyuurruuytt<tt<<,$2#z2jb2                      ",
"                    2j#242.,,rtt<<typapyypapyt<<ttr,,.242#j2                      ",
"                    o2.##2.,<<y,,,tyuaaptyauyt,,,y<<,.2##.2o                      ",
"                    o#...1,,rtt,r,,tttyyryyyt,,r,ttr,,1...#o                      ",
"                      ...:,pry<<trr,<<<<,<yr,rrt<<yrp,:...o                       ",
"                         ,1rt<<trttr<,,:,:,,rttrt<<tr1,                           ",
"                       ,,ryr<,,rttyttr,:::,ryyttr,,<ryr,,                         ",
"                      rpyt<,,,,rttyttr,::,rttyttr,,,,<typau                       ",
"                     <<<<,,<<,,<<rttut,,<<ryutr<<,,<<,,<<<rtr                     ",
"                    <<<::::,<<<,,<<yppr<<ryayr<,,<<<,:::,,,rt@                    ",
"                   <,,,,,,,:,,<<,,<tyatt<taur<,,<<:@,,,,,,,,r,,,,:@               ",
"                ypput<,,<<<,:,,<<,,<tppt<ypt<,,<,:::,,,,<<<,,ruppy,:              ",
"               taadauy<,,<t<<r<<<<,:tuut<tut,,::,<r<<<<<,,<<rysdaat,@             ",
"             uyyapadaut<,<rttrrrttr::rrr<rr,::,rrrr<<<r<<,<ruadapayyu@            ",
"           tuptpfpaaaapr<rrrryttrrtr::<,<r::,rttttrr<<rrr<tuaaaapfptput           ",
"          tta<tafpy<ypapttyttyytt<<r<::,:,@,ttyyyyyyt<<ryypapy<ypfat<att          ",
"          ,ua@t<ttu:@<papyyyyuuuyr,,,,::,@:<ryuuuuuyyryuuaap<@:utt<t@au,          ",
"          :up@,ppr<,X@tuputryuuppppuyr:@@@,ryuppppuuyrtupaut@X,<rpp,@pu:#         ",
"          @yt,pahhatXp:uapytupupaaappu<,:,<uppaaapuputypapy:pXtahhap,ty@,         ",
"          @uaut<,:yaXt<ppayryuupaffaapr<,<rpaaffapuuyryapuy<tXay:,<tuau@<         ",
"         :rqq0q00009*@uuutr<tyupafffapyy<rypafffapuyt<rtyrtu@*90000q0qqr:         ",
"        0000<<<<<u<:@otrrr<<rtyupafgfaytrtyafgfapuytr<<r<,<to@:<u<<<<<0000        ",
"     000,yau:ut::r@XX@,:,<rytrtupaafapyr<rypafaaputrtyt<,,:,@XX@r::tu:uay,000     ",
"  9009 @uaap,rapaptXo@@@:<tupyrtyupaputr,<tupapuytryuyr<<,@@@oXtpapar,paau@ 9009  ",
" *&    Xtau@yutpppu@X@@,<tytuat<rtypuyr<,,rtuuytr<tuyt<r,:@@@X@uppptuy@uatX    &* ",
"=&     Xut+tr,<yytt@;@@@:<r<tppr<rtyt<,,::,<tytr<ruyt<r<:@@@@;@ttyy<,rt+tuX     &=",
"X     :,@9r@@.<,rt,@<@@:@,<,<tupy<r<,,,:::<,,<r<yuyt<,<,@@@@@<@,tr,<.@@r9@,:     X",
"X     @X9@:@:X:@-,X:@o@:@@,,<rtpapuy<,:::,<tyuuupyt<,,,:@@:,o@:X,-@:X:@:@9X@     X",
"X    :@9:@<,,@@@@-@@@@@::@@,,<rypfapy<,:::,ryppayr<<,,:@@@#,@@@@-@@@@,,<@:9@:    X",
"+9   X0@r@X,@X@@X@@@@@@::::::,<tyaautr<:::<rtuaayt<,::::::@@@@@@@X@@X@,X@r@0X   9+",
"+&  =+@2j7#o%-::-X@X  @::,:<,:,<ryuu<<,:::,<<uuyr<,:,<:,::@  XX@X-::-%o#7j2@+=  &+",
" &9 &X@xxaej<tyytXX   @@:,rr<,:<<r<,,,,,:,,,,,<r<<:,<rr,:@@    XXtyyt<jeaxx@X& 9& ",
" +X0X:Xzkepjjj74<X     @::,,r<,,,<,::rt<:<tr::,<,,,<r,,::@      X<47jjjpekzX:X0X+ ",
"  +X+@4kjqa3oo$4,X       @:,:<r<,::,<rtr:rtr<,::,<r<:,:@        X,4$oo3aqjk4@+X+  ",
"   X+X@X@XX<tXXX@@        #:,<yt<,<<ryu,:,uyr<<,<ty<,:#         @@XXXt<XX@X@X+X   ",
"   +Xr<@,<,t:XXXX          @@<,::@,<tupt,tput<,@::,<@@           XXXX:t,<,@<rX+   ",
"   XX<Xtptat<XXX           @or<,,:<<ryt<:<tyr<<:,,<ro@            XXX<tatptX<XX   ",
"   Xo:X,tt,@r,XX           ++,<<,,,,<yt,:,ty<,,,,<<,++            XX,r@,tt,X:oX   ",
"   X@@@@@@@@X,@X          +*+<,,:<,,rrr<<<rrr,,<:,,<+*+           X@,X@@@@@@@@X   ",
"   X@XXo@@oXX@@X          ++X@,,:@,<rrturutrr<,@:,,@X++           X@@XXo@@oXX@X   ",
"   X@Xo@@oXXXX@X          t+o@@:r<:<tttuuuttt<:<r:@@o+t           X@XXXXo@@oX@X   ",
"   X@XXoooXXX@XX          r:::@:<<rtttypupytttr<<:@:::r           XX@XXXoooXX@X   ",
"   X@XXXXXXX@@X           ,pprt,r<<rtypauapytr<<r,trpp,            X@@XXXXXXX@X   ",
"   @XXXXXXXX@@X          ,@X@,t:XXX@,<<,<,<<r:@,:<,<t<,,           X@@XXXXXXXX@   ",
"    X@XXXXX@XX@         <u<@<r,t<<:@XXXX:,:XX@:<<t,r<@<u<          @XX@XXXXX@X    ",
"    X@@@XXX@XX          rppuyuuuyyut@X@XX@,X@tuyyuuuyuppr           XX@XXX@@@X    ",
"    :X@@@X@@X           tuuyppaaaapyt:XX:XX:typaaaappyuut            X@@X@@@X:    ",
"     X@X@XX@@          ,<tttuppaapuyt<:@<@:<tyupaapputtt<,           @@XX@X@X     ",
"     X:XX@XX@         ,,,,,,rupppyttt::@:@::tttypppur,,,,,,          @XX@XX:X     ",
"     @@@X@XX          t,:@@::rttt<<t<:@@@@@:<t<<tttr::@@:,t           XX@X@@@     ",
"     X@XXXX@         :y,::@@:::,,,,@@@@X@X@@@@,,,,:::@@::,y:          @XXXX@X     ",
"     X@XXXX@         rt,,,:-@@@@@:@@@@@XXX@@@@@:@@@@@-:,,,tr          @XXXX@X     ",
"     XXXXX@X@        tr<<,,:::@@@@XXXX@ooo@XXXX@@@@:::,,<<rt         @X@XXXXX     ",
"     @XXXX :-X      ryrr<,,,,,,@oXXoXo@@@@@oXoXXo@,,,,,,<rryr       X-: XXXX@     ",
"     @X@@X          yrrr,,,<<<,:@@ooo@@   @@ooo@@:,<<<,,,rrry           X@@X@     ",
"      X@XXXX:       p<rr,,<rt<,;@@@o@@     @@o@@@;,<tr<,,rr<p        :XXXX@X      ",
"      @XXXXX@       y,,,,,rrtr><,::@@@     @@@::,<>rtrr,,,,,y        @XXXXX@      ",
"       @XXX@X      <t:,,,<rrrr<,@:<,@       @,<:@,<rrrr<,,,:t<       X@XXX@       ",
"                   r<:,,,<rrtr,,::<:@       @:<::,,rtrr<,,,:<r                    ",
"                   t,:,,,<rttr,,:,:@         @:,:,,rttr<,,,:,t                    ",
"                   t@::,,<rtr<,,,:@@         @@:,,,<rtr<,,::@t                    ",
"                   t:@:,,rrtr<,::@@           @@::,<rtrr,,:@:t                    ",
"                   r,@:,<rtr<,::@@@           @@@::,<rtr<,:@,r                    ",
"                   <:::::,tr<:@@@@             @@@@:<rt,:::::<                    ",
"                   ,:::@@::::@@@:               :@@@::::@@:::,                    ",
"                   :@::@@@@@@@@@                 @@@@@@@@@::@:                    ",
"                   @::@r,@,,,::@                 @::,,,@,r@::@                    ",
"                   @:@,,:,rtr<,@                 @,<rtr,:,,@:@                    ",
"                   :@t::::ruapy<<               <<ypaur::::t@:                    ",
"                   @r<:@::,<rtrry<             <yrrtr<,::@:<r@                    ",
"                   <r::@::::,,tr,:             :,rt,,::::@::r<                    ",
"                    :@@::@:,,,,1r,,           ,,r1,,,,:@::@@:                     ",
"                     @@@,,,:;,,ur,,:         :,,ru,,;:,,,@@@                      ",
"                      ,:,:@:@#@<:,:r<       <r:,:<@#@:@:,:,                       ",
"                      :,:@@@@@@@:@,y@       @y,@:@@@@@@@:,:                       ",
"                      :@@@@@@,:@@@,r,       ,r,@@@:,@@@@@@:                       ",
"                      @@:@:#@:,r:@p:y       y:p@:r,:@#:@:@@                       ",
"                     @:72$$$$$$$$y@,yr     ry,@y$$$$$$$$27:@                      ",
"                    @:37jzkj432$%%%g<:     :<g%%%$234jkzj73:@                     ",
"                   #:2$$263%%$22%$$<pt     tp<$$%22$%%362$$2:#                    ",
"                   :r%O2%$$$$$22$%$$$$     $$$$%$22$$$$$%2O%r:                    ",
"                  $u2O#6%%$$$$$$$2%$$       $$%2$$$$$$$%%6#O2u$                   ",
"                  u%$2O#$#$$%$$2$%%$r       r$%%$2$$%$$#$#O2$%u                   ",
"                 u%%%$#$w$w%%$$2$$$$         $$$$2$$%%w$w$#$%%%u                  ",
"                 :%%%$#$w$w%2$%%$$$           $$$%%$2%w$w$#$%%%:                  ",
"                 2%%$##$e%e222%%%$             $%%%222e%e$##$%%2                  ",
"                p%%%3#$w%w23432$#               #$23432w%w$#3%%%p                 ",
"               u1%%%3$%q2q38j$%$s               s$%$j83q2q%$3%%%1u                ",
"                $$23b%2q%qj8c$$ ,               , $$c8jq%q2%b32$$                 ",
"               u$424b430%086b%ru                 ur%b680%034b424$u                ",
"               3436663%26idMb4                     4bMdi62%3666343                ",
"              $$$r8zz8dBVCN6$$                     $$6NCVBd8zz8r$$$               ",
"              64zbcDD DAnxj42%                     %24jxnAD DDcbz46               ",
"             %xjxxbxbAnbj64226$                   $62246jbnAbxbxxjx%              ",
"             4xjxxbxbAnbz642246                   642246zbnAbxbxxjx4              ",
"             4kjkvbvmAZbzj764$$                   $$467jzbZAmvbvkjk4              ",
"             #%###227j742222%$                     $%222247j722###%#              ",
"                 3468jlj432%                         %234jlj8643                  "
};
